; HEADER_BLOCK_START
; generated by Creality_Print V5.1.2.9904 on 2024-12-10 at 08:43:39
; total layer number: 9
; filament_density: 0
; filament_diameter: 1.75
; max_z_height: 1.92
; HEADER_BLOCK_END

; MINX = 40.78
; MINY = 85.00
; MINZ = 0.00
; MAXX = 179.22
; MAXY = 135.00
; MAXZ = 2.00

; THUMBNAIL_BLOCK_START

;
; THUMBNAIL_BLOCK_END

; THUMBNAIL_BLOCK_START

;
; THUMBNAIL_BLOCK_END

; external perimeters extrusion width = 0.42mm
; perimeters extrusion width = 0.45mm
; infill extrusion width = 0.45mm
; solid infill extrusion width = 0.42mm
; top infill extrusion width = 0.42mm
; first layer extrusion width = 0.46mm

; EXECUTABLE_BLOCK_START
M73 P0 R32
M201 X5000 Y5000 Z500 E5000
M203 X500 Y500 Z30 E100
M204 P5000 R2500 T5000 ; sets acceleration (P, T) and retract acceleration (R), mm/sec^2
M205 X10.00 Y10.00 Z0.40 E5.00 ; sets the jerk limits, mm/sec
;TYPE:Custom
M220 S100 ;Reset Feedrate 
M221 S100 ;Reset Flowrate 
 
M140 S45 ;Set final bed temp 
G28 ;Home 
 
G92 E0 ;Reset Extruder 
G1 Z2.0 F3000 ;Move Z Axis up 
M104 S200 ;Set final nozzle temp 
G1 X-2.1 Y20 Z0.28 F5000.0 ;Move to start position 
M190 S45 ;Wait for bed temp to stabilize 
M109 S200 ;Wait for nozzle temp to stabilize 
G1 X-2.1 Y145.0 Z0.28 F1500.0 E15 ;Draw the first line 
G1 X-2.4 Y145.0 Z0.28 F5000.0 ;Move to side a little 
G1 X-2.4 Y20 Z0.28 F1500.0 E30 ;Draw the second line 
G92 E0  ;Reset Extruder 
G1 E-1.0000 F1800 ;Retract a bit 
G1 Z2.0 F3000 ;Move Z Axis up 
G1 E0.0000 F1800
G90
G21
M83 ; use relative distances for extrusion
M106 S0
;LAYER_CHANGE
;Z:0.32
;HEIGHT:0.32
;BEFORE_LAYER_CHANGE
;0.32
G92 E0

G1 E-1.2 F1800
;_SET_FAN_SPEED_CHANGING_LAYER
M204 P500
M205 X8 Y8
; printing object 50mm Width 112-125.5mm Wheelbase Chassis.stl id:140378657304872 copy 0
M204 T500
G1 Z.4 F9000
G1 X133.206 Y121.385
G1 Z.4
G1 Z.32
G1 E1.2 F1800
;TYPE:Inner wall
;WIDTH:0.46
G1 X133.145 Y121.385 E.00307
G1 X132.906 Y121.476 E.01309
G1 X132.71 Y121.692 E.01486
G1 X132.643 Y121.966 E.01438
G1 X132.643 Y132.855 E.5556
G1 X132.568 Y133.424 E.02926
G1 X132.373 Y133.806 E.02189
G1 X132.07 Y134.109 E.02189
G1 X131.688 Y134.304 E.02189
G1 X131.216 Y134.379 E.02434
G1 X73.722 Y134.377 E2.93341
G1 X73.203 Y134.343 E.02655
G1 X72.542 Y134.207 E.03443
G1 X71.981 Y134.011 E.03032
G1 X71.521 Y133.78 E.02627
G1 X71.091 Y133.49 E.02648
G1 X70.633 Y133.086 E.03114
G1 X70.205 Y132.591 E.0334
G1 X69.907 Y132.135 E.02777
G1 X60.339 Y115.158 E.99428
G1 X60.128 Y114.977 E.01418
G1 X59.862 Y114.913 E.01398
G1 X57.04 Y114.913 E.14395
;WIDTH:0.503452
G1 X56.88 Y114.891 E.00917
;WIDTH:0.546905
G1 X56.719 Y114.87 E.01009
;WIDTH:0.590358
G1 X56.559 Y114.848 E.01101
;WIDTH:0.633811
G1 X56.399 Y114.826 E.01192
G1 X56.067 Y114.826 E.02448
G1 X55.906 Y114.848 E.01192
;WIDTH:0.590358
G1 X55.746 Y114.87 E.01101
;WIDTH:0.546905
G1 X55.585 Y114.891 E.01009
;WIDTH:0.503452
G1 X55.425 Y114.913 E.00917
;WIDTH:0.46
G1 X50.556 Y114.913 E.24843
;WIDTH:0.505031
G1 X50.441 Y114.891 E.00667
;WIDTH:0.550062
G1 X50.326 Y114.868 E.00736
;WIDTH:0.595093
G1 X50.211 Y114.845 E.00805
;WIDTH:0.640125
G1 X50.096 Y114.823 E.00874
G1 X49.639 Y114.827 E.03399
;WIDTH:0.632885
G1 X49.527 Y114.851 E.00845
;WIDTH:0.584149
G1 X49.415 Y114.875 E.00772
;WIDTH:0.535413
G1 X49.302 Y114.9 E.00699
;WIDTH:0.486677
G1 X49.013 Y114.913 E.01581
;WIDTH:0.46
G1 X44.256 Y114.913 E.24271
;WIDTH:0.505273
G1 X44.085 Y114.89 E.00977
;WIDTH:0.550546
G1 X43.915 Y114.868 E.01078
;WIDTH:0.595819
G1 X43.745 Y114.845 E.0118
;WIDTH:0.632885
G1 X43.191 Y114.827 E.04078
G1 X43.079 Y114.851 E.00846
;WIDTH:0.584148
G1 X42.966 Y114.875 E.00773
;WIDTH:0.535411
G1 X42.854 Y114.9 E.007
;WIDTH:0.486675
G1 X42.564 Y114.913 E.01581
;WIDTH:0.46
G1 X41.406 Y114.913 E.05911
G1 X41.406 Y113.449 E.07471
;WIDTH:0.492563
G1 X41.422 Y113.181 E.01481
;WIDTH:0.525127
G1 X41.438 Y112.914 E.01595
;WIDTH:0.550543
G1 X41.451 Y112.33 E.03667
G1 X41.428 Y112.029 E.01898
;WIDTH:0.505271
G1 X41.406 Y111.728 E.0172
;WIDTH:0.46
G1 X41.406 Y107.965 E.19196
;WIDTH:0.490178
G1 X41.421 Y107.636 E.01812
;WIDTH:0.520357
G1 X41.436 Y107.306 E.01942
;WIDTH:0.550543
G1 X41.451 Y106.796 E.03209
G1 X41.428 Y106.495 E.01898
;WIDTH:0.505271
G1 X41.406 Y106.193 E.0172
;WIDTH:0.46
G1 X41.406 Y105.087 E.05644
G1 X42.565 Y105.087 E.05914
;WIDTH:0.503172
G1 X42.722 Y105.109 E.00897
;WIDTH:0.546344
G1 X42.879 Y105.13 E.00987
;WIDTH:0.589516
G1 X43.036 Y105.152 E.01076
;WIDTH:0.632689
G1 X43.192 Y105.173 E.01165
;WIDTH:0.649247
G1 X43.731 Y105.182 E.04076
G1 X43.834 Y105.158 E.00801
;WIDTH:0.601935
G1 X43.937 Y105.134 E.00736
;WIDTH:0.554623
G1 X44.04 Y105.111 E.0067
;WIDTH:0.507311
G1 X44.143 Y105.087 E.00605
;WIDTH:0.46
G1 X49.013 Y105.087 E.24845
;WIDTH:0.503172
G1 X49.17 Y105.109 E.00897
;WIDTH:0.546344
G1 X49.327 Y105.13 E.00987
;WIDTH:0.589516
G1 X49.484 Y105.152 E.01076
;WIDTH:0.632689
G1 X49.641 Y105.173 E.01165
;WIDTH:0.649248
G1 X50.179 Y105.182 E.04076
G1 X50.282 Y105.158 E.00801
;WIDTH:0.601936
G1 X50.386 Y105.134 E.00736
;WIDTH:0.554624
G1 X50.489 Y105.111 E.0067
;WIDTH:0.507312
G1 X50.592 Y105.087 E.00605
;WIDTH:0.46
G1 X55.461 Y105.087 E.24845
;WIDTH:0.503172
G1 X55.618 Y105.109 E.00897
;WIDTH:0.546344
G1 X55.775 Y105.13 E.00987
;WIDTH:0.589516
G1 X55.932 Y105.152 E.01076
;WIDTH:0.632689
G1 X56.089 Y105.173 E.01165
;WIDTH:0.649248
G1 X56.628 Y105.182 E.04076
G1 X56.731 Y105.158 E.00801
;WIDTH:0.601936
G1 X56.834 Y105.134 E.00736
;WIDTH:0.554624
G1 X56.937 Y105.111 E.0067
;WIDTH:0.507312
G1 X57.04 Y105.087 E.00605
;WIDTH:0.46
G1 X59.95 Y105.08 E.14844
G1 X60.177 Y104.995 E.01236
G1 X60.373 Y104.788 E.01457
G1 X69.847 Y87.971 E.9848
G1 X70.164 Y87.46 E.03067
G1 X70.615 Y86.933 E.03538
G1 X71.135 Y86.475 E.03537
G1 X71.727 Y86.114 E.03538
G1 X72.364 Y85.841 E.03538
G1 X73.039 Y85.683 E.03538
G1 X73.747 Y85.621 E.03622
G1 X131.119 Y85.621 E2.92721
G1 X131.688 Y85.696 E.02927
M73 P1 R32
G1 X132.07 Y85.891 E.02188
G1 X132.373 Y86.194 E.02189
G1 X132.568 Y86.576 E.02189
G1 X132.643 Y87.047 E.02434
G1 X132.645 Y98.092 E.56348
G1 X132.742 Y98.361 E.01459
G1 X132.952 Y98.551 E.01447
G1 X133.23 Y98.621 E.01462
G1 X177.051 Y98.621 E2.23584
G1 X177.64 Y98.696 E.03024
G1 X178.022 Y98.891 E.02189
G1 X178.325 Y99.194 E.02189
G1 X178.52 Y99.576 E.02189
G1 X178.594 Y100.163 E.03016
G1 X178.594 Y119.837 E1.00382
G1 X178.52 Y120.424 E.03016
G1 X178.325 Y120.806 E.02189
G1 X178.022 Y121.109 E.02189
G1 X177.64 Y121.304 E.02189
G1 X177.168 Y121.379 E.02434
G1 X133.246 Y121.385 E2.24098
G1 X133.23 Y121.77 F9000
;TYPE:Outer wall
G1 F1800
G1 X133.102 Y121.818 E.00696
G1 X133.034 Y121.966 E.00831
G1 X133.034 Y132.983 E.56213
G1 X132.945 Y133.546 E.02908
G1 X132.694 Y134.039 E.02821
G1 X132.303 Y134.43 E.02821
G1 X131.81 Y134.681 E.02821
G1 X131.247 Y134.77 E.02908
G1 X73.736 Y134.77 E2.93427
G1 X73.227 Y134.743 E.02604
G1 X72.729 Y134.663 E.02573
G1 X72.242 Y134.532 E.02573
G1 X71.772 Y134.349 E.02573
G1 X71.324 Y134.118 E.02573
G1 X70.902 Y133.841 E.02573
G1 X70.513 Y133.521 E.02573
G1 X70.159 Y133.162 E.02573
G1 X69.845 Y132.767 E.02573
G1 X69.571 Y132.336 E.02604
G1 X60.009 Y115.371 E.9936
G1 X59.862 Y115.304 E.00825
G1 X41.014 Y115.304 E.96161
G1 X41.014 Y104.696 E.54127
G1 X59.909 Y104.69 E.96403
G1 X60.032 Y104.596 E.00789
G1 X69.571 Y87.664 E.99156
G1 X69.845 Y87.233 E.02604
G1 X70.159 Y86.838 E.02573
G1 X70.513 Y86.479 E.02573
G1 X70.902 Y86.159 E.02573
G1 X71.324 Y85.882 E.02573
G1 X71.772 Y85.651 E.02573
G1 X72.242 Y85.468 E.02573
G1 X72.729 Y85.337 E.02573
G1 X73.227 Y85.257 E.02573
G1 X73.736 Y85.23 E.02604
G1 X131.247 Y85.23 E2.93427
G1 X131.81 Y85.319 E.02909
G1 X132.303 Y85.57 E.0282
G1 X132.694 Y85.961 E.02821
G1 X132.945 Y86.454 E.02821
G1 X133.034 Y87.017 E.02908
G1 X133.034 Y98.034 E.56213
G1 X133.079 Y98.159 E.00678
G1 X133.23 Y98.23 E.00849
G1 X177.199 Y98.23 E2.24337
G1 X177.762 Y98.319 E.02908
G1 X178.255 Y98.57 E.02821
G1 X178.646 Y98.961 E.02821
G1 X178.897 Y99.454 E.02821
G1 X178.986 Y100.163 E.03645
G1 X178.986 Y119.983 E1.01127
G1 X178.897 Y120.546 E.02908
G1 X178.646 Y121.039 E.02821
G1 X178.255 Y121.43 E.02821
G1 X177.762 Y121.681 E.02821
G1 X177.199 Y121.77 E.02908
G1 X133.27 Y121.77 E2.24133
G1 E-.84
;WIPE_START
G1 X133.102 Y121.818 E-.0628
G1 X133.034 Y121.966 E-.05865
G1 X133.034 Y122.628 E-.23855
;WIPE_END
G1 Z.72 F9000
G1 X137.174 Y104.866 Z.72
G1 Z.32
G1 E1.2 F1800
;TYPE:Inner wall
;WIDTH:0.602435
G1 X137.324 Y104.738 E.01367
;WIDTH:0.571767
G1 X137.473 Y104.61 E.01289
;WIDTH:0.541099
G1 X137.635 Y104.553 E.01057
;WIDTH:0.5048
G1 X137.797 Y104.496 E.00976
;WIDTH:0.468501
G1 X137.959 Y104.44 E.00895
;WIDTH:0.4774
G1 X138.137 Y104.407 E.00966
;WIDTH:0.522598
G1 X138.315 Y104.374 E.01073
;WIDTH:0.567796
G1 X138.493 Y104.341 E.01179
;WIDTH:0.59882
G1 X138.538 Y104.332 E.00312
;WIDTH:0.629845
G1 X138.582 Y104.324 E.00331
G1 X139.101 Y104.574 E.04211
;WIDTH:0.611267
G1 X139.32 Y104.74 E.01946
G1 X139.406 Y104.85 E.00988
G1 X139.579 Y104.655 E.01845
G1 X139.7 Y104.611 E.00908
;WIDTH:0.563474
G1 X139.821 Y104.568 E.00828
;WIDTH:0.515681
G1 X139.941 Y104.524 E.00748
;WIDTH:0.467888
G1 X140.062 Y104.481 E.00668
;WIDTH:0.464234
G1 X140.164 Y104.446 E.00555
;WIDTH:0.508374
G1 X140.266 Y104.411 E.00616
;WIDTH:0.552513
G1 X140.367 Y104.376 E.00678
;WIDTH:0.596653
G1 X140.469 Y104.341 E.0074
;WIDTH:0.640793
G1 X140.571 Y104.306 E.00802
;WIDTH:0.652267
G1 X140.894 Y104.336 E.02473
G1 X141.344 Y104.563 E.03829
;WIDTH:0.638656
G1 X141.56 Y104.728 E.02026
G1 X141.641 Y104.833 E.00985
G1 X141.824 Y104.642 E.01968
G1 X141.945 Y104.605 E.00944
;WIDTH:0.59129
G1 X142.067 Y104.567 E.00865
;WIDTH:0.543924
G1 X142.188 Y104.529 E.00787
;WIDTH:0.496558
G1 X142.309 Y104.492 E.00709
;WIDTH:0.449192
G1 X142.43 Y104.454 E.0063
;WIDTH:0.44603
G1 X142.531 Y104.425 E.00515
;WIDTH:0.490233
G1 X142.632 Y104.397 E.00575
;WIDTH:0.534436
G1 X142.733 Y104.368 E.00636
;WIDTH:0.578639
G1 X142.833 Y104.339 E.00696
;WIDTH:0.622843
G1 X142.934 Y104.311 E.00756
;WIDTH:0.649417
G1 X143.057 Y104.327 E.00943
;WIDTH:0.675992
G1 X143.181 Y104.343 E.00986
G1 X143.477 Y104.473 E.02557
;WIDTH:0.664468
G1 X143.802 Y104.719 E.03166
G1 X143.874 Y104.805 E.00875
G1 X144.155 Y104.543 E.02983
G1 X144.363 Y104.424 E.01859
G1 X144.5 Y104.421 E.01068
;WIDTH:0.615541
G1 X144.638 Y104.419 E.00981
;WIDTH:0.566614
G1 X144.775 Y104.416 E.00893
;WIDTH:0.517688
G1 X144.913 Y104.414 E.00805
;WIDTH:0.468761
G1 X145.05 Y104.411 E.00717
;WIDTH:0.46
G1 X145.289 Y104.414 E.01217
G1 X145.777 Y104.635 E.02734
G1 X145.945 Y104.772 E.01108
G1 X146.108 Y104.967 E.01297
G1 X146.506 Y104.583 E.02823
G1 X146.701 Y104.517 E.01049
;WIDTH:0.434508
G1 X146.896 Y104.45 E.00981
;WIDTH:0.410502
G1 X147.436 Y104.421 E.02411
;WIDTH:0.46
G1 X147.675 Y104.477 E.0125
G1 X148.07 Y104.672 E.02248
G1 X148.343 Y104.969 E.02059
G1 X148.688 Y104.622 E.02496
G1 X148.864 Y104.52 E.0104
G1 X149.093 Y104.475 E.01187
;WIDTH:0.419991
G1 X149.321 Y104.431 E.01066
;WIDTH:0.42276
G1 X149.804 Y104.45 E.02231
;WIDTH:0.46
G1 X150.081 Y104.531 E.01471
G1 X150.436 Y104.797 E.02262
G1 X150.581 Y104.953 E.0109
G1 X150.942 Y104.605 E.02558
G1 X151.24 Y104.468 E.0167
;WIDTH:0.459369
G1 X151.397 Y104.448 E.00809
;WIDTH:0.424119
G1 X151.555 Y104.427 E.00736
;WIDTH:0.414769
G1 X152.063 Y104.466 E.02303
;WIDTH:0.46
G1 X152.549 Y104.681 E.0271
G1 X152.794 Y104.981 E.01975
G1 X153.126 Y104.641 E.02422
G1 X153.395 Y104.488 E.01579
G1 X153.602 Y104.43 E.01099
G1 X153.879 Y104.433 E.01411
;WIDTH:0.422651
G1 X154.156 Y104.437 E.01276
;WIDTH:0.43183
G1 X154.222 Y104.435 E.00313
;WIDTH:0.478357
G1 X154.288 Y104.432 E.00354
;WIDTH:0.524885
G1 X154.354 Y104.43 E.00394
;WIDTH:0.571412
G1 X154.42 Y104.428 E.00434
;WIDTH:0.617939
G1 X154.486 Y104.426 E.00474
;WIDTH:0.664467
G1 X154.552 Y104.424 E.00514
G1 X154.849 Y104.619 E.0276
G1 X155.041 Y104.805 E.02075
G1 X155.334 Y104.544 E.03046
;WIDTH:0.674157
G1 X155.552 Y104.41 E.02023
G1 X155.784 Y104.326 E.01948
G1 X155.863 Y104.331 E.00626
;WIDTH:0.635425
G1 X155.942 Y104.337 E.00586
;WIDTH:0.596693
G1 X156.021 Y104.342 E.00546
;WIDTH:0.557962
G1 X156.19 Y104.384 E.01112
;WIDTH:0.508234
G1 X156.36 Y104.427 E.00999
;WIDTH:0.458506
G1 X156.529 Y104.469 E.00886
;WIDTH:0.457104
G1 X156.66 Y104.507 E.0069
;WIDTH:0.505431
G1 X156.791 Y104.545 E.00776
;WIDTH:0.553757
G1 X156.922 Y104.582 E.00862
;WIDTH:0.602084
G1 X157.053 Y104.62 E.00948
;WIDTH:0.635728
G1 X157.18 Y104.717 E.01184
G1 X157.274 Y104.829 E.01084
G1 X157.498 Y104.603 E.02351
;WIDTH:0.64308
G1 X157.967 Y104.364 E.03945
G1 X158.079 Y104.372 E.00842
;WIDTH:0.599684
G1 X158.191 Y104.381 E.00778
;WIDTH:0.556288
G1 X158.303 Y104.39 E.00715
;WIDTH:0.512892
G1 X158.415 Y104.399 E.00651
;WIDTH:0.469496
G1 X158.527 Y104.408 E.00587
;WIDTH:0.455658
G1 X158.811 Y104.483 E.01481
;WIDTH:0.485215
G1 X159.094 Y104.559 E.01594
;WIDTH:0.528412
G1 X159.165 Y104.591 E.00465
;WIDTH:0.57161
G1 X159.236 Y104.623 E.00508
;WIDTH:0.614808
G1 X159.306 Y104.655 E.00552
G1 X159.5 Y104.849 E.01955
G1 X159.814 Y104.574 E.02975
;WIDTH:0.627099
G1 X160.325 Y104.328 E.04129
G1 X160.483 Y104.356 E.01164
;WIDTH:0.578395
G1 X160.64 Y104.384 E.01063
;WIDTH:0.529692
G1 X160.798 Y104.412 E.00961
;WIDTH:0.480989
G1 X160.955 Y104.44 E.0086
;WIDTH:0.467186
G1 X161.128 Y104.502 E.00955
;WIDTH:0.502086
G1 X161.301 Y104.565 E.01039
;WIDTH:0.536987
G1 X161.473 Y104.628 E.01123
;WIDTH:0.562434
G1 X161.55 Y104.68 E.00597
;WIDTH:0.587882
G1 X161.627 Y104.731 E.00628
G1 X161.728 Y104.851 E.01057
G1 X161.896 Y104.679 E.01629
G1 X162.089 Y104.573 E.01489
;WIDTH:0.556942
G1 X162.282 Y104.468 E.014
;WIDTH:0.570178
G1 X162.472 Y104.391 E.01338
;WIDTH:0.614354
G1 X162.661 Y104.314 E.01456
G1 X162.798 Y104.345 E.00995
;WIDTH:0.574206
G1 X162.934 Y104.376 E.00922
;WIDTH:0.534058
G1 X163.07 Y104.408 E.00848
;WIDTH:0.49391
G1 X163.207 Y104.439 E.00775
;WIDTH:0.490261
G1 X163.389 Y104.508 E.01072
;WIDTH:0.52676
G1 X163.571 Y104.577 E.01164
;WIDTH:0.56326
G1 X163.754 Y104.646 E.01257
;WIDTH:0.584343
G1 X163.976 Y104.867 E.02111
G1 X164.147 Y104.673 E.0174
G1 X164.419 Y104.552 E.02002
;WIDTH:0.542934
G1 X164.691 Y104.431 E.01841
;WIDTH:0.540712
G1 X164.809 Y104.391 E.00769
;WIDTH:0.579899
G1 X164.927 Y104.351 E.00832
;WIDTH:0.619086
G1 X165.046 Y104.312 E.00896
G1 X165.26 Y104.376 E.01608
;WIDTH:0.575733
G1 X165.475 Y104.441 E.01481
;WIDTH:0.532381
G1 X165.689 Y104.506 E.01354
;WIDTH:0.522998
G1 X165.806 Y104.566 E.00779
;WIDTH:0.556968
G1 X165.923 Y104.626 E.00837
;WIDTH:0.590938
G1 X166.04 Y104.686 E.00895
G1 X166.207 Y104.861 E.0165
G1 X166.375 Y104.686 E.01652
G1 X166.579 Y104.598 E.01509
;WIDTH:0.551268
G1 X166.782 Y104.509 E.01395
;WIDTH:0.511598
G1 X166.985 Y104.421 E.0128
;WIDTH:0.517519
G1 X167.144 Y104.386 E.00949
;WIDTH:0.563109
G1 X167.302 Y104.351 E.01046
;WIDTH:0.6087
G1 X167.461 Y104.317 E.01142
G1 X167.733 Y104.423 E.02062
;WIDTH:0.562157
G1 X168.006 Y104.529 E.01884
;WIDTH:0.556412
G1 X168.122 Y104.597 E.00852
;WIDTH:0.59721
G1 X168.237 Y104.665 E.00924
G1 X168.436 Y104.865 E.01943
G1 X168.657 Y104.65 E.0212
;WIDTH:0.561822
G1 X168.83 Y104.585 E.01189
;WIDTH:0.522674
G1 X169.003 Y104.519 E.01094
;WIDTH:0.483527
G1 X169.176 Y104.454 E.01
;WIDTH:0.479409
G1 X169.348 Y104.418 E.00942
;WIDTH:0.514438
G1 X169.52 Y104.382 E.01022
;WIDTH:0.549468
G1 X169.692 Y104.346 E.01103
;WIDTH:0.584352
G1 X169.753 Y104.335 E.00417
;WIDTH:0.619236
G1 X169.814 Y104.323 E.00445
G1 X170.073 Y104.446 E.02058
;WIDTH:0.5923
G1 X170.332 Y104.57 E.01957
;WIDTH:0.602507
G1 X170.566 Y104.727 E.01966
G1 X170.679 Y104.861 E.01219
G1 X170.947 Y104.621 E.02502
;WIDTH:0.562349
G1 X171.118 Y104.563 E.01166
;WIDTH:0.513559
G1 X171.29 Y104.505 E.01051
;WIDTH:0.464769
G1 X171.461 Y104.447 E.00935
;WIDTH:0.45476
G1 X171.64 Y104.418 E.00913
;WIDTH:0.493542
G1 X171.819 Y104.388 E.01004
;WIDTH:0.532324
G1 X171.998 Y104.359 E.01096
;WIDTH:0.568266
G1 X172.052 Y104.353 E.00353
;WIDTH:0.604209
G1 X172.106 Y104.348 E.00379
;WIDTH:0.640152
G1 X172.16 Y104.342 E.00404
G1 X172.606 Y104.567 E.03726
;WIDTH:0.629836
G1 X172.915 Y104.838 E.03007
G1 X173.182 Y104.606 E.02588
;WIDTH:0.580883
M73 P2 R32
G1 X173.306 Y104.569 E.00869
;WIDTH:0.537277
