; HEADER_BLOCK_START
; generated by Creality_Print V5.1.2.9904 on 2024-12-12 at 12:34:21
; total layer number: 9
; filament_density: 0
; filament_diameter: 1.75
; max_z_height: 1.92
; HEADER_BLOCK_END

; MINX = 46.78
; MINY = 85.00
; MINZ = 0.00
; MAXX = 173.22
; MAXY = 135.00
; MAXZ = 2.00

; THUMBNAIL_BLOCK_START

;
; THUMBNAIL_BLOCK_END

; THUMBNAIL_BLOCK_START

;
; THUMBNAIL_BLOCK_END

; external perimeters extrusion width = 0.42mm
; perimeters extrusion width = 0.45mm
; infill extrusion width = 0.45mm
; solid infill extrusion width = 0.42mm
; top infill extrusion width = 0.42mm
; first layer extrusion width = 0.46mm

; EXECUTABLE_BLOCK_START
M73 P0 R30
M201 X5000 Y5000 Z500 E5000
M203 X500 Y500 Z30 E100
M204 P5000 R2500 T5000 ; sets acceleration (P, T) and retract acceleration (R), mm/sec^2
M205 X10.00 Y10.00 Z0.40 E5.00 ; sets the jerk limits, mm/sec
;TYPE:Custom
M220 S100 ;Reset Feedrate 
M221 S100 ;Reset Flowrate 
 
M140 S45 ;Set final bed temp 
G28 ;Home 
 
G92 E0 ;Reset Extruder 
G1 Z2.0 F3000 ;Move Z Axis up 
M104 S200 ;Set final nozzle temp 
G1 X-2.1 Y20 Z0.28 F5000.0 ;Move to start position 
M190 S45 ;Wait for bed temp to stabilize 
M109 S200 ;Wait for nozzle temp to stabilize 
G1 X-2.1 Y145.0 Z0.28 F1500.0 E15 ;Draw the first line 
G1 X-2.4 Y145.0 Z0.28 F5000.0 ;Move to side a little 
G1 X-2.4 Y20 Z0.28 F1500.0 E30 ;Draw the second line 
G92 E0  ;Reset Extruder 
G1 E-1.0000 F1800 ;Retract a bit 
G1 Z2.0 F3000 ;Move Z Axis up 
G1 E0.0000 F1800
G90
G21
M83 ; use relative distances for extrusion
M106 S0
;LAYER_CHANGE
;Z:0.32
;HEIGHT:0.32
;BEFORE_LAYER_CHANGE
;0.32
G92 E0

G1 E-1.2 F1800
;_SET_FAN_SPEED_CHANGING_LAYER
M204 P500
M205 X8 Y8
; printing object 50mm Width 100-113.5mm Wheelbase Chassis.stl id:42949673056 copy 0
M204 T500
G1 Z.4 F9000
G1 X127.141 Y98.599
G1 Z.4
G1 Z.32
G1 E1.2 F1800
;TYPE:Inner wall
;WIDTH:0.46
G1 X127.23 Y98.621 E.00465
G1 X171.051 Y98.621 E2.23584
G1 X171.64 Y98.696 E.03024
G1 X172.022 Y98.891 E.02189
G1 X172.325 Y99.194 E.02189
G1 X172.52 Y99.576 E.02189
G1 X172.594 Y100.163 E.03016
G1 X172.594 Y119.837 E1.00382
G1 X172.52 Y120.424 E.03016
G1 X172.325 Y120.806 E.02189
G1 X172.022 Y121.109 E.02189
G1 X171.64 Y121.304 E.02189
G1 X171.168 Y121.379 E.02434
G1 X127.145 Y121.385 E2.2461
G1 X126.906 Y121.476 E.01309
G1 X126.71 Y121.692 E.01486
G1 X126.643 Y121.966 E.01438
G1 X126.643 Y132.855 E.5556
G1 X126.568 Y133.424 E.02925
G1 X126.373 Y133.806 E.02189
G1 X126.07 Y134.109 E.02189
G1 X125.688 Y134.304 E.02189
G1 X125.216 Y134.379 E.02434
G1 X79.759 Y134.379 E2.31927
G1 X78.894 Y134.295 E.04436
G1 X78.088 Y134.056 E.04287
G1 X77.343 Y133.668 E.04287
G1 X76.686 Y133.144 E.04287
G1 X76.191 Y132.562 E.039
G1 X75.908 Y132.136 E.02607
G1 X66.339 Y115.158 E.99436
G1 X66.128 Y114.977 E.01418
M73 P1 R30
G1 X65.862 Y114.913 E.01398
G1 X63.04 Y114.913 E.14395
;WIDTH:0.503452
G1 X62.88 Y114.891 E.00917
;WIDTH:0.546905
G1 X62.719 Y114.87 E.01009
;WIDTH:0.590358
G1 X62.559 Y114.848 E.01101
;WIDTH:0.633811
G1 X62.399 Y114.826 E.01192
G1 X62.067 Y114.826 E.02448
G1 X61.906 Y114.848 E.01192
;WIDTH:0.590358
G1 X61.746 Y114.87 E.01101
;WIDTH:0.546905
G1 X61.585 Y114.891 E.01009
;WIDTH:0.503452
G1 X61.425 Y114.913 E.00917
;WIDTH:0.46
G1 X56.556 Y114.913 E.24843
;WIDTH:0.505031
G1 X56.441 Y114.891 E.00667
;WIDTH:0.550062
G1 X56.326 Y114.868 E.00736
;WIDTH:0.595093
G1 X56.211 Y114.845 E.00805
;WIDTH:0.640125
G1 X56.096 Y114.823 E.00874
G1 X55.639 Y114.827 E.03399
;WIDTH:0.632885
G1 X55.527 Y114.851 E.00845
;WIDTH:0.584149
G1 X55.415 Y114.875 E.00772
;WIDTH:0.535413
G1 X55.302 Y114.9 E.00699
;WIDTH:0.486677
G1 X55.013 Y114.913 E.01581
;WIDTH:0.46
G1 X50.108 Y114.913 E.25026
;WIDTH:0.505031
G1 X49.992 Y114.891 E.00667
;WIDTH:0.550062
G1 X49.877 Y114.868 E.00736
;WIDTH:0.595093
G1 X49.762 Y114.845 E.00805
;WIDTH:0.640125
G1 X49.647 Y114.823 E.00874
G1 X49.191 Y114.827 E.03399
;WIDTH:0.632885
G1 X49.079 Y114.851 E.00846
;WIDTH:0.584147
G1 X48.966 Y114.875 E.00772
;WIDTH:0.53541
G1 X48.854 Y114.9 E.00699
;WIDTH:0.486673
G1 X48.564 Y114.913 E.01581
;WIDTH:0.46
G1 X47.406 Y114.913 E.05911
G1 X47.406 Y114.179 E.03744
;WIDTH:0.478628
G1 X47.415 Y113.517 E.0354
;WIDTH:0.525127
G1 X47.438 Y112.914 E.03593
;WIDTH:0.550543
G1 X47.451 Y112.33 E.03667
G1 X47.428 Y112.029 E.01898
;WIDTH:0.505271
G1 X47.406 Y111.728 E.0172
;WIDTH:0.46
G1 X47.406 Y108.645 E.15727
;WIDTH:0.478628
G1 X47.415 Y107.983 E.03541
;WIDTH:0.525127
G1 X47.438 Y107.379 E.03593
;WIDTH:0.550542
G1 X47.451 Y106.796 E.03667
G1 X47.428 Y106.495 E.01898
;WIDTH:0.505271
G1 X47.406 Y106.193 E.0172
;WIDTH:0.46
G1 X47.406 Y105.087 E.05644
G1 X48.565 Y105.087 E.05914
;WIDTH:0.503172
G1 X48.722 Y105.109 E.00897
;WIDTH:0.546344
G1 X48.879 Y105.13 E.00987
;WIDTH:0.589516
G1 X49.035 Y105.152 E.01076
;WIDTH:0.632689
G1 X49.192 Y105.173 E.01165
;WIDTH:0.649247
G1 X49.731 Y105.182 E.04076
G1 X49.834 Y105.158 E.00801
;WIDTH:0.601935
G1 X49.937 Y105.134 E.00736
;WIDTH:0.554623
G1 X50.04 Y105.111 E.0067
;WIDTH:0.507311
G1 X50.143 Y105.087 E.00605
;WIDTH:0.46
G1 X55.013 Y105.087 E.24845
;WIDTH:0.503172
G1 X55.17 Y105.109 E.00897
;WIDTH:0.546344
G1 X55.327 Y105.13 E.00987
;WIDTH:0.589516
G1 X55.484 Y105.152 E.01076
;WIDTH:0.632689
G1 X55.641 Y105.173 E.01165
;WIDTH:0.649248
G1 X56.179 Y105.182 E.04076
G1 X56.282 Y105.158 E.00801
;WIDTH:0.601936
G1 X56.386 Y105.134 E.00736
;WIDTH:0.554624
G1 X56.489 Y105.111 E.0067
;WIDTH:0.507312
G1 X56.592 Y105.087 E.00605
;WIDTH:0.46
G1 X61.461 Y105.087 E.24845
;WIDTH:0.503172
G1 X61.618 Y105.109 E.00897
;WIDTH:0.546344
G1 X61.775 Y105.13 E.00987
;WIDTH:0.589516
G1 X61.932 Y105.152 E.01076
;WIDTH:0.632689
G1 X62.089 Y105.173 E.01165
;WIDTH:0.649248
G1 X62.628 Y105.182 E.04076
G1 X62.731 Y105.158 E.00801
;WIDTH:0.601936
G1 X62.834 Y105.134 E.00736
;WIDTH:0.554624
G1 X62.937 Y105.111 E.0067
;WIDTH:0.507312
G1 X63.04 Y105.087 E.00605
;WIDTH:0.46
G1 X65.95 Y105.08 E.14844
G1 X66.177 Y104.995 E.01236
G1 X66.373 Y104.788 E.01457
G1 X75.901 Y87.876 E.99039
G1 X76.399 Y87.163 E.04436
G1 X77.002 Y86.579 E.04287
G1 X77.706 Y86.12 E.04287
G1 X78.485 Y85.805 E.04287
G1 X79.324 Y85.642 E.0436
G1 X79.745 Y85.621 E.02151
G1 X125.141 Y85.623 E2.31613
G1 X125.687 Y85.695 E.02811
G1 X126.07 Y85.891 E.02194
G1 X126.373 Y86.194 E.02189
G1 X126.568 Y86.576 E.02189
G1 X126.643 Y87.047 E.02434
G1 X126.645 Y98.083 E.56305
G1 X126.742 Y98.361 E.01501
G1 X126.952 Y98.551 E.01447
G1 X127.102 Y98.589 E.00793
G1 X127.23 Y98.23 F9000
;TYPE:Outer wall
G1 F1800
G1 X171.199 Y98.23 E2.24337
G1 X171.762 Y98.319 E.02908
G1 X172.255 Y98.57 E.02821
G1 X172.646 Y98.961 E.02821
G1 X172.897 Y99.454 E.02821
G1 X172.986 Y100.163 E.03645
G1 X172.986 Y119.983 E1.01127
G1 X172.897 Y120.546 E.02908
G1 X172.646 Y121.039 E.02821
G1 X172.255 Y121.43 E.02821
G1 X171.762 Y121.681 E.02821
G1 X171.199 Y121.77 E.02908
G1 X127.23 Y121.77 E2.24337
G1 X127.102 Y121.818 E.00696
G1 X127.034 Y121.966 E.00831
G1 X127.034 Y132.983 E.56213
G1 X126.945 Y133.546 E.02908
G1 X126.694 Y134.039 E.02821
G1 X126.303 Y134.43 E.02821
G1 X125.81 Y134.681 E.02821
G1 X125.247 Y134.77 E.02908
G1 X79.74 Y134.77 E2.3218
G1 X78.819 Y134.681 E.04725
G1 X77.941 Y134.421 E.04672
G1 X77.129 Y133.997 E.04672
G1 X76.413 Y133.426 E.04672
G1 X75.893 Y132.816 E.04092
G1 X75.572 Y132.337 E.02942
G1 X66.009 Y115.371 E.99363
G1 X65.862 Y115.304 E.00825
G1 X47.014 Y115.304 E.96161
G1 X47.014 Y104.696 E.54127
G1 X65.909 Y104.69 E.96403
G1 X66.032 Y104.596 E.00789
G1 X75.569 Y87.668 E.99135
G1 X76.099 Y86.908 E.04725
G1 X76.757 Y86.271 E.04672
G1 X77.525 Y85.772 E.04672
G1 X78.373 Y85.428 E.04672
G1 X79.277 Y85.252 E.04696
G1 X79.736 Y85.23 E.02343
G1 X125.272 Y85.232 E2.3233
G1 X125.81 Y85.319 E.0278
G1 X126.303 Y85.57 E.02823
G1 X126.694 Y85.961 E.02821
G1 X126.945 Y86.454 E.02821
G1 X127.034 Y87.017 E.02908
G1 X127.034 Y98.034 E.56213
G1 X127.079 Y98.159 E.00678
G1 X127.193 Y98.213 E.00644
G1 E-.84
;WIPE_START
G1 X128.193 Y98.213 E-.36
;WIPE_END
G1 Z.72 F9000
G1 X131.125 Y106.576 Z.72
G1 Z.32
G1 E1.2 F1800
;TYPE:Inner wall
G1 X130.864 Y106.847 E.01919
G1 X130.649 Y106.983 E.01297
G1 X130.245 Y107.109 E.02161
G1 X129.816 Y107.101 E.02188
G1 X129.401 Y106.955 E.02247
G1 X128.963 Y106.559 E.03009
G1 X128.866 Y106.432 E.00818
G1 X128.702 Y105.957 E.02561
G1 X128.722 Y105.448 E.02601
G1 X128.856 Y105.09 E.01952
G1 X129.144 Y104.73 E.02351
;WIDTH:0.467641
G1 X129.557 Y104.496 E.02472
;WIDTH:0.495788
G1 X129.921 Y104.373 E.02139
;WIDTH:0.535771
G1 X130.027 Y104.354 E.00656
;WIDTH:0.575754
G1 X130.133 Y104.334 E.00712
;WIDTH:0.615737
G1 X130.239 Y104.315 E.00768
G1 X130.5 Y104.422 E.02017
;WIDTH:0.57556
G1 X130.762 Y104.53 E.01869
;WIDTH:0.566779
G1 X130.921 Y104.636 E.01241
;WIDTH:0.598176
G1 X131.079 Y104.743 E.0132
G1 X131.181 Y104.862 E.01079
G1 X131.327 Y104.736 E.0133
;WIDTH:0.569638
G1 X131.473 Y104.61 E.01258
;WIDTH:0.5411
G1 X131.635 Y104.553 E.01057
;WIDTH:0.504742
G1 X131.797 Y104.496 E.00976
;WIDTH:0.468384
G1 X131.959 Y104.44 E.00894
;WIDTH:0.480794
G1 X132.116 Y104.412 E.00861
;WIDTH:0.529562
G1 X132.274 Y104.384 E.00963
;WIDTH:0.578329
G1 X132.432 Y104.356 E.01065
;WIDTH:0.627097
G1 X132.59 Y104.328 E.01167
G1 X133.101 Y104.574 E.04129
;WIDTH:0.611267
G1 X133.32 Y104.74 E.01944
G1 X133.406 Y104.85 E.00991
G1 X133.579 Y104.655 E.01847
G1 X133.7 Y104.611 E.00908
;WIDTH:0.563474
G1 X133.821 Y104.568 E.00828
;WIDTH:0.515681
G1 X133.941 Y104.524 E.00748
;WIDTH:0.467888
G1 X134.062 Y104.481 E.00668
;WIDTH:0.456805
G1 X134.559 Y104.399 E.02546
;WIDTH:0.505202
G1 X134.659 Y104.39 E.00571
;WIDTH:0.553599
G1 X134.758 Y104.38 E.00634
;WIDTH:0.601996
G1 X134.858 Y104.37 E.00698
;WIDTH:0.650394
G1 X134.958 Y104.36 E.00761
G1 X135.464 Y104.647 E.04407
;WIDTH:0.639954
G1 X135.649 Y104.831 E.01946
G1 X135.897 Y104.605 E.025
;WIDTH:0.607403
G1 X136.004 Y104.575 E.00779
;WIDTH:0.566287
G1 X136.111 Y104.544 E.00719
;WIDTH:0.525172
G1 X136.217 Y104.514 E.0066
;WIDTH:0.484057
G1 X136.324 Y104.484 E.006
;WIDTH:0.442942
G1 X136.43 Y104.454 E.00541
;WIDTH:0.445284
G1 X136.531 Y104.426 E.00513
;WIDTH:0.488742
G1 X136.632 Y104.397 E.00573
;WIDTH:0.532199
G1 X136.732 Y104.369 E.00632
;WIDTH:0.575657
G1 X136.833 Y104.341 E.00691
;WIDTH:0.619115
G1 X136.934 Y104.313 E.0075
;WIDTH:0.645251
G1 X137.057 Y104.329 E.00934
;WIDTH:0.671388
G1 X137.18 Y104.345 E.00977
G1 X137.59 Y104.547 E.0359
;WIDTH:0.665646
G1 X137.874 Y104.812 E.03023
G1 X138.155 Y104.543 E.03027
G1 X138.366 Y104.433 E.01852
;WIDTH:0.643708
G1 X138.507 Y104.431 E.01054
;WIDTH:0.595831
G1 X138.647 Y104.428 E.00966
;WIDTH:0.547954
G1 X138.788 Y104.425 E.00879
;WIDTH:0.500077
G1 X138.929 Y104.422 E.00791
;WIDTH:0.4522
G1 X139.069 Y104.419 E.00703
;WIDTH:0.432162
G1 X139.221 Y104.432 E.00722
;WIDTH:0.46
G1 X139.373 Y104.446 E.00778
G1 X139.853 Y104.684 E.02735
G1 X140.1 Y104.99 E.02006
G1 X140.5 Y104.587 E.02896
G1 X140.895 Y104.449 E.02138
;WIDTH:0.412901
G1 X141.445 Y104.421 E.02468
;WIDTH:0.45959
G1 X141.655 Y104.469 E.01101
;WIDTH:0.46
G1 X142.07 Y104.672 E.02356
G1 X142.343 Y104.969 E.02059
G1 X142.688 Y104.622 E.02496
G1 X142.864 Y104.52 E.0104
G1 X143.093 Y104.475 E.01187
;WIDTH:0.420004
G1 X143.321 Y104.431 E.01066
;WIDTH:0.418892
G1 X143.788 Y104.446 E.0213
;WIDTH:0.46
G1 X144.187 Y104.591 E.0217
G1 X144.552 Y104.943 E.02584
G1 X144.581 Y104.953 E.0016
G1 X144.95 Y104.599 E.02611
G1 X145.24 Y104.468 E.01619
;WIDTH:0.459369
G1 X145.397 Y104.448 E.00809
;WIDTH:0.424119
G1 X145.555 Y104.427 E.00736
;WIDTH:0.414324
G1 X146.063 Y104.466 E.02299
;WIDTH:0.46
G1 X146.546 Y104.679 E.02692
G1 X146.808 Y104.966 E.01981
G1 X147.126 Y104.641 E.02321
G1 X147.395 Y104.488 E.01579
G1 X147.602 Y104.43 E.01099
G1 X147.879 Y104.433 E.01411
;WIDTH:0.422651
G1 X148.156 Y104.437 E.01276
;WIDTH:0.43183
G1 X148.222 Y104.435 E.00313
;WIDTH:0.478357
G1 X148.288 Y104.432 E.00354
;WIDTH:0.524885
G1 X148.354 Y104.43 E.00394
;WIDTH:0.571412
G1 X148.42 Y104.428 E.00434
;WIDTH:0.617939
G1 X148.486 Y104.426 E.00474
;WIDTH:0.664467
G1 X148.552 Y104.424 E.00514
G1 X148.849 Y104.619 E.0276
G1 X149.041 Y104.805 E.02075
G1 X149.334 Y104.544 E.03044
;WIDTH:0.675992
G1 X149.561 Y104.406 E.02111
G1 X149.784 Y104.325 E.01872
G1 X149.902 Y104.326 E.00941
;WIDTH:0.632502
G1 X150.021 Y104.327 E.00874
;WIDTH:0.589013
G1 X150.148 Y104.362 E.00895
;WIDTH:0.545323
G1 X150.276 Y104.397 E.0082
;WIDTH:0.501633
G1 X150.403 Y104.431 E.00744
;WIDTH:0.457943
G1 X150.53 Y104.466 E.00669
;WIDTH:0.458908
G1 X150.644 Y104.5 E.00604
;WIDTH:0.503563
G1 X150.758 Y104.534 E.00673
;WIDTH:0.548218
G1 X150.872 Y104.567 E.00743
;WIDTH:0.592873
G1 X150.986 Y104.601 E.00812
;WIDTH:0.637528
G1 X151.099 Y104.635 E.00881
G1 X151.276 Y104.83 E.01948
G1 X151.466 Y104.636 E.02017
;WIDTH:0.655049
G1 X151.949 Y104.361 E.04244
G1 X152.255 Y104.294 E.02395
G1 X152.374 Y104.333 E.00961
;WIDTH:0.609259
G1 X152.493 Y104.372 E.00886
;WIDTH:0.56347
G1 X152.613 Y104.411 E.00811
;WIDTH:0.517681
G1 X152.732 Y104.45 E.00736
;WIDTH:0.471892
G1 X152.852 Y104.49 E.00661
;WIDTH:0.472856
G1 X152.972 Y104.534 E.00675
;WIDTH:0.51961
G1 X153.092 Y104.578 E.00753
;WIDTH:0.566364
G1 X153.212 Y104.622 E.00831
;WIDTH:0.613118
G1 X153.333 Y104.666 E.00909
G1 X153.507 Y104.844 E.01773
G1 X153.814 Y104.574 E.02905
;WIDTH:0.627099
G1 X154.325 Y104.328 E.04129
G1 X154.483 Y104.356 E.01164
;WIDTH:0.578395
G1 X154.64 Y104.384 E.01063
;WIDTH:0.529692
G1 X154.798 Y104.412 E.00961
;WIDTH:0.480989
G1 X154.955 Y104.44 E.0086
;WIDTH:0.467186
G1 X155.128 Y104.502 E.00955
;WIDTH:0.502086
G1 X155.301 Y104.565 E.01039
;WIDTH:0.536987
G1 X155.473 Y104.628 E.01123
;WIDTH:0.562435
G1 X155.55 Y104.68 E.00597
;WIDTH:0.587883
G1 X155.627 Y104.731 E.00628
M73 P2 R30
G1 X155.728 Y104.851 E.01057
G1 X155.896 Y104.679 E.01629
G1 X156.089 Y104.573 E.01489
;WIDTH:0.556942
G1 X156.282 Y104.468 E.014
;WIDTH:0.570178
G1 X156.472 Y104.391 E.01338
;WIDTH:0.614354
G1 X156.661 Y104.314 E.01456
G1 X156.798 Y104.345 E.00995
;WIDTH:0.574206
G1 X156.934 Y104.376 E.00922
;WIDTH:0.534059
G1 X157.07 Y104.408 E.00848
;WIDTH:0.493912
G1 X157.207 Y104.439 E.00775
;WIDTH:0.49027
G1 X157.389 Y104.508 E.01072
;WIDTH:0.526775
G1 X157.571 Y104.577 E.01164
;WIDTH:0.56328
G1 X157.754 Y104.646 E.01257
;WIDTH:0.584356
G1 X157.978 Y104.865 E.0211
G1 X158.147 Y104.673 E.01724
G1 X158.419 Y104.552 E.02002
;WIDTH:0.54294
G1 X158.691 Y104.431 E.01841
;WIDTH:0.538656
G1 X158.815 Y104.392 E.00796
;WIDTH:0.575787
G1 X158.939 Y104.353 E.00859
;WIDTH:0.612918
G1 X159.063 Y104.315 E.00922
G1 X159.272 Y104.378 E.01549
;WIDTH:0.571621
G1 X159.48 Y104.442 E.01432
;WIDTH:0.530325
G1 X159.689 Y104.506 E.01314
;WIDTH:0.522999
G1 X159.806 Y104.566 E.00779
;WIDTH:0.556969
G1 X159.923 Y104.626 E.00837
;WIDTH:0.590939
G1 X160.04 Y104.686 E.00895
G1 X160.208 Y104.861 E.0165
G1 X160.375 Y104.686 E.0165
G1 X160.579 Y104.598 E.01509
;WIDTH:0.551268
G1 X160.782 Y104.509 E.01395
;WIDTH:0.511598
G1 X160.985 Y104.421 E.0128
;WIDTH:0.517518
G1 X161.144 Y104.386 E.00949
;WIDTH:0.563109
G1 X161.302 Y104.351 E.01046
;WIDTH:0.6087
G1 X161.461 Y104.317 E.01142
G1 X161.733 Y104.423 E.02062
;WIDTH:0.562157
G1 X162.006 Y104.529 E.01884
;WIDTH:0.559202
G1 X162.129 Y104.602 E.00914
;WIDTH:0.60279
G1 X162.252 Y104.676 E.00995
G1 X162.441 Y104.865 E.01866
G1 X162.579 Y104.745 E.01275
;WIDTH:0.577665
G1 X162.717 Y104.624 E.01215
;WIDTH:0.55254
G1 X162.88 Y104.563 E.01103
;WIDTH:0.516493
G1 X163.044 Y104.501 E.01021
;WIDTH:0.480447
G1 X163.208 Y104.439 E.00939
;WIDTH:0.488109
G1 X163.359 Y104.41 E.00844
;WIDTH:0.531818
G1 X163.511 Y104.381 E.00932
;WIDTH:0.575527
G1 X163.662 Y104.352 E.0102
;WIDTH:0.619236
G1 X163.814 Y104.323 E.01108
G1 X164.073 Y104.446 E.02058
;WIDTH:0.5923
G1 X164.332 Y104.57 E.01957
;WIDTH:0.598032
G1 X164.565 Y104.728 E.01946
G1 X164.674 Y104.859 E.01177
G1 X164.85 Y104.66 E.01833
G1 X164.976 Y104.613 E.00922
;WIDTH:0.553096
G1 X165.101 Y104.567 E.00844
;WIDTH:0.50816
G1 X165.226 Y104.521 E.00765
;WIDTH:0.463224
G1 X165.351 Y104.474 E.00687
;WIDTH:0.448804
G1 X165.613 Y104.429 E.01315
;WIDTH:0.479321
G1 X165.874 Y104.384 E.01421
;WIDTH:0.519528
G1 X165.946 Y104.373 E.00424
;WIDTH:0.559736
G1 X166.017 Y104.363 E.00462
