; HEADER_BLOCK_START
; generated by Creality_Print V5.1.2.9904 on 2024-12-11 at 10:20:38
; total layer number: 36
; filament_density: 0
; filament_diameter: 1.75
; max_z_height: 7.32
; HEADER_BLOCK_END

; MINX = 84.09
; MINY = 87.67
; MINZ = -0.00
; MAXX = 133.12
; MAXY = 132.11
; MAXZ = 7.40

; THUMBNAIL_BLOCK_START

;
; THUMBNAIL_BLOCK_END

; THUMBNAIL_BLOCK_START

;
; THUMBNAIL_BLOCK_END

; external perimeters extrusion width = 0.42mm
; perimeters extrusion width = 0.45mm
; infill extrusion width = 0.45mm
; solid infill extrusion width = 0.42mm
; top infill extrusion width = 0.42mm
; first layer extrusion width = 0.46mm

; external perimeters extrusion width = 0.42mm
; perimeters extrusion width = 0.45mm
; infill extrusion width = 0.45mm
; solid infill extrusion width = 0.42mm
; top infill extrusion width = 0.42mm
; first layer extrusion width = 0.46mm

; external perimeters extrusion width = 0.42mm
; perimeters extrusion width = 0.45mm
; infill extrusion width = 0.45mm
; solid infill extrusion width = 0.42mm
; top infill extrusion width = 0.42mm
; first layer extrusion width = 0.46mm

; external perimeters extrusion width = 0.42mm
; perimeters extrusion width = 0.45mm
; infill extrusion width = 0.45mm
; solid infill extrusion width = 0.42mm
; top infill extrusion width = 0.42mm
; first layer extrusion width = 0.46mm

; external perimeters extrusion width = 0.42mm
; perimeters extrusion width = 0.45mm
; infill extrusion width = 0.45mm
; solid infill extrusion width = 0.42mm
; top infill extrusion width = 0.42mm
; first layer extrusion width = 0.46mm

; external perimeters extrusion width = 0.42mm
; perimeters extrusion width = 0.45mm
; infill extrusion width = 0.45mm
; solid infill extrusion width = 0.42mm
; top infill extrusion width = 0.42mm
; first layer extrusion width = 0.46mm

; EXECUTABLE_BLOCK_START
M73 P0 R23
M201 X5000 Y5000 Z500 E5000
M203 X500 Y500 Z30 E100
M204 P5000 R2500 T5000 ; sets acceleration (P, T) and retract acceleration (R), mm/sec^2
M205 X10.00 Y10.00 Z0.40 E5.00 ; sets the jerk limits, mm/sec
;TYPE:Custom
M220 S100 ;Reset Feedrate 
M221 S100 ;Reset Flowrate 
 
M140 S45 ;Set final bed temp 
G28 ;Home 
 
G92 E0 ;Reset Extruder 
G1 Z2.0 F3000 ;Move Z Axis up 
M104 S200 ;Set final nozzle temp 
G1 X-2.1 Y20 Z0.28 F5000.0 ;Move to start position 
M190 S45 ;Wait for bed temp to stabilize 
M109 S200 ;Wait for nozzle temp to stabilize 
G1 X-2.1 Y145.0 Z0.28 F1500.0 E15 ;Draw the first line 
G1 X-2.4 Y145.0 Z0.28 F5000.0 ;Move to side a little 
G1 X-2.4 Y20 Z0.28 F1500.0 E30 ;Draw the second line 
G92 E0  ;Reset Extruder 
G1 E-1.0000 F1800 ;Retract a bit 
G1 Z2.0 F3000 ;Move Z Axis up 
G1 E0.0000 F1800
G90
G21
M83 ; use relative distances for extrusion
M106 S0
;LAYER_CHANGE
;Z:0.32
;HEIGHT:0.32
;BEFORE_LAYER_CHANGE
;0.32
G92 E0

G1 E-1.2 F1800
;_SET_FAN_SPEED_CHANGING_LAYER
M204 P500
M205 X8 Y8
; printing object 6 Tooth Motor Gear for N20 Motor.stl id:18409018515532711851 copy 0
M204 T500
G1 Z.4 F4200
G1 X121.566 Y102.16
G1 Z.4
M73 P0 R22
G1 Z.32
G1 E1.2 F1800
;TYPE:Inner wall
;WIDTH:0.46
G1 X121.653 Y102.148 E.00448
G1 X121.974 Y101.935 E.01967
G1 X122.604 Y100.988 E.05804
G1 X122.967 Y100.507 E.03075
G1 X123.03 Y100.206 E.01565
G1 X123.027 Y99.901 E.01557
G1 X122.83 Y99.524 E.02173
G1 X121.666 Y98.197 E.09004
G1 X121.523 Y97.883 E.0176
G1 X121.436 Y97.339 E.02812
G1 X121.435 Y96.847 E.02509
G1 X121.545 Y96.17 E.03498
G1 X121.83 Y96.032 E.01619
G1 X122.449 Y96.39 E.03648
G1 X122.925 Y96.784 E.03155
G1 X123.262 Y97.242 E.02898
G1 X123.354 Y97.537 E.01577
G1 X123.652 Y99.283 E.09037
G1 X123.898 Y99.654 E.0227
G1 X124.066 Y99.767 E.01034
G1 X124.476 Y99.901 E.02202
G1 X125.356 Y99.923 E.04495
G1 X125.888 Y100.015 E.02754
G1 X126.315 Y99.936 E.02215
G1 X126.557 Y99.763 E.01517
G1 X126.804 Y99.408 E.02207
G1 X127.396 Y97.679 E.09324
G1 X127.59 Y97.433 E.01601
G1 X128.002 Y97.096 E.02714
G1 X128.455 Y96.844 E.02643
G1 X129.067 Y96.613 E.03338
G1 X129.306 Y96.771 E.01465
G1 X129.348 Y96.984 E.01105
G1 X129.336 Y97.502 E.02646
M73 P1 R22
G1 X129.241 Y98.028 E.02725
G1 X129.091 Y98.443 E.02253
G1 X128.922 Y98.752 E.01797
G1 X127.531 Y99.903 E.09213
G1 X127.389 Y100.067 E.01105
G1 X127.224 Y100.408 E.01936
G1 X127.234 Y100.796 E.0198
G1 X127.314 Y101.037 E.01291
G1 X127.583 Y101.486 E.02674
G1 X127.794 Y102 E.02831
G1 X127.993 Y102.415 E.02349
G1 X128.283 Y102.687 E.02029
G1 X128.564 Y102.771 E.01497
G1 X128.873 Y102.789 E.0158
G1 X130.657 Y102.436 E.09277
G1 X130.98 Y102.473 E.01658
G1 X131.421 Y102.635 E.02396
G1 X132.033 Y103.005 E.0365
G1 X132.441 Y103.347 E.02717
G1 X132.415 Y103.664 E.01624
G1 X131.956 Y103.953 E.02767
G1 X131.324 Y104.196 E.03456
G1 X130.927 Y104.286 E.02077
G1 X130.552 Y104.296 E.01911
G1 X128.805 Y103.657 E.09493
G1 X128.563 Y103.614 E.01255
G1 X128.196 Y103.665 E.01893
G1 X128.011 Y103.766 E.01075
G1 X127.741 Y104.037 E.01952
G1 X127.42 Y104.603 E.03322
G1 X126.895 Y105.273 E.04342
G1 X126.808 Y105.667 E.0206
G1 X126.818 Y105.902 E.01196
G1 X127.017 Y106.289 E.02224
G1 X128.104 Y107.528 E.08407
G1 X128.305 Y107.868 E.02017
G1 X128.402 Y108.37 E.02609
G1 X128.418 Y108.869 E.02545
G1 X128.301 Y109.637 E.03964
G1 X128.007 Y109.776 E.01657
G1 X127.755 Y109.649 E.01441
G1 X127.329 Y109.376 E.02582
G1 X126.92 Y109.027 E.02743
G1 X126.594 Y108.581 E.02818
G1 X126.496 Y108.294 E.01548
G1 X126.198 Y106.544 E.09053
G1 X125.944 Y106.154 E.02375
G1 X125.772 Y106.039 E.01053
G1 X125.356 Y105.911 E.02221
G1 X124.55 Y105.901 E.04113
G1 X123.903 Y105.795 E.03348
G1 X123.56 Y105.867 E.01784
G1 X123.291 Y106.05 E.01664
G1 X123.041 Y106.412 E.02242
G1 X122.501 Y107.999 E.08555
G1 X122.396 Y108.214 E.01221
G1 X122.134 Y108.497 E.01967
G1 X121.555 Y108.891 E.03572
G1 X120.79 Y109.201 E.04212
G1 X120.516 Y109.011 E.01698
G1 X120.497 Y108.605 E.02076
G1 X120.539 Y108.091 E.02632
G1 X120.715 Y107.421 E.03534
G1 X120.925 Y107.061 E.02127
G1 X122.325 Y105.903 E.09268
G1 X122.566 Y105.559 E.02144
G1 X122.636 Y105.24 E.01664
G1 X122.589 Y104.9 E.01752
G1 X122.331 Y104.438 E.02702
G1 X122.094 Y103.927 E.02873
G1 X121.897 Y103.442 E.02669
G1 X121.652 Y103.185 E.01812
G1 X121.399 Y103.065 E.0143
G1 X120.974 Y103.024 E.02176
G1 X119.19 Y103.377 E.09277
G1 X118.867 Y103.34 E.01658
G1 X118.427 Y103.178 E.02396
G1 X117.815 Y102.808 E.0365
G1 X117.407 Y102.466 E.02716
G1 X117.432 Y102.149 E.01624
G1 X117.891 Y101.86 E.02767
G1 X118.523 Y101.617 E.03456
G1 X118.92 Y101.527 E.02077
G1 X119.295 Y101.517 E.01911
G1 X121.042 Y102.156 E.09493
G1 X121.264 Y102.2 E.01154
G1 X121.526 Y102.165 E.01349
G1 X121.488 Y101.786 F4200
;TYPE:Outer wall
G1 F1800
G1 X121.719 Y101.639 E.01396
G1 X122.229 Y100.827 E.04894
G1 X122.582 Y100.4 E.02829
G1 X122.656 Y100.047 E.01839
G1 X122.536 Y99.782 E.01484
G1 X121.334 Y98.412 E.09296
G1 X121.145 Y97.997 E.02325
G1 X121.077 Y97.569 E.0221
G1 X121.037 Y97.043 E.02695
G1 X121.085 Y96.502 E.02769
G1 X121.207 Y95.902 E.03124
G1 X121.842 Y95.599 E.03592
G1 X122.18 Y95.77 E.01932
G1 X122.668 Y96.066 E.02912
G1 X123.132 Y96.444 E.03052
G1 X123.457 Y96.822 E.02544
G1 X123.703 Y97.254 E.02533
G1 X124.022 Y99.126 E.0969
G1 X124.169 Y99.372 E.01465
G1 X124.491 Y99.51 E.01786
G1 X125.271 Y99.51 E.03982
G1 X125.91 Y99.624 E.03312
G1 X126.215 Y99.55 E.01598
G1 X126.435 Y99.278 E.01787
G1 X127.044 Y97.497 E.09601
G1 X127.236 Y97.232 E.01669
G1 X127.651 Y96.869 E.02813
G1 X128.166 Y96.548 E.03096
G1 X128.653 Y96.337 E.02709
G1 X129.131 Y96.186 E.02555
G1 X129.712 Y96.584 E.03597
G1 X129.742 Y97.009 E.0217
G1 X129.726 Y97.544 E.02735
G1 X129.626 Y98.098 E.02868
G1 X129.414 Y98.686 E.03188
G1 X129.211 Y99.021 E.02001
G1 X127.78 Y100.204 E.09474
G1 X127.606 Y100.493 E.0172
G1 X127.65 Y100.836 E.01763
G1 X127.988 Y101.402 E.03367
G1 X128.245 Y102.09 E.03748
G1 X128.47 Y102.343 E.01724
G1 X128.797 Y102.405 E.01701
G1 X130.64 Y102.041 E.09584
G1 X130.923 Y102.072 E.01453
G1 X131.515 Y102.242 E.03143
G1 X132.012 Y102.506 E.02869
G1 X132.465 Y102.835 E.02857
G1 X132.846 Y103.19 E.02654
G1 X132.789 Y103.891 E.03591
G1 X132.132 Y104.305 E.03962
G1 X131.464 Y104.561 E.03651
G1 X130.99 Y104.672 E.02483
G1 X130.476 Y104.685 E.02622
G1 X128.671 Y104.024 E.09811
G1 X128.359 Y104.027 E.01589
G1 X128.128 Y104.174 E.01396
G1 X127.654 Y104.943 E.0461
G1 X127.248 Y105.442 E.03283
G1 X127.192 Y105.765 E.01671
G1 X127.312 Y106.031 E.01491
G1 X128.514 Y107.403 E.09309
G1 X128.68 Y107.743 E.0193
G1 X128.786 Y108.296 E.02872
G1 X128.814 Y108.843 E.02795
G1 X128.756 Y109.402 E.02866
G1 X128.64 Y109.909 E.02654
G1 X128.002 Y110.212 E.036
G1 X127.424 Y109.913 E.0332
G1 X126.787 Y109.433 E.04069
G1 X126.419 Y109.033 E.02773
G1 X126.144 Y108.558 E.02798
G1 X125.825 Y106.687 E.09686
G1 X125.673 Y106.436 E.01497
G1 X125.356 Y106.303 E.01752
G1 X124.576 Y106.303 E.03982
G1 X123.937 Y106.189 E.03312
G1 X123.638 Y106.26 E.01567
G1 X123.412 Y106.535 E.01819
G1 X122.814 Y108.294 E.09478
G1 X122.661 Y108.522 E.01399
G1 X122.377 Y108.803 E.02041
G1 X121.805 Y109.198 E.03544
G1 X121.274 Y109.427 E.02952
G1 X120.721 Y109.628 E.03002
G1 X120.136 Y109.225 E.03626
G1 X120.106 Y108.577 E.03309
G1 X120.202 Y107.767 E.04162
G1 X120.351 Y107.275 E.02624
G1 X120.636 Y106.792 E.0286
G1 X122.066 Y105.61 E.09465
G1 X122.243 Y105.314 E.0176
G1 X122.199 Y104.98 E.01717
G1 X121.859 Y104.411 E.03385
G1 X121.586 Y103.691 E.03926
G1 X121.375 Y103.468 E.01567
G1 X121.05 Y103.408 E.01684
G1 X119.207 Y103.772 E.09584
G1 X118.924 Y103.741 E.01453
G1 X118.332 Y103.571 E.03143
G1 X117.836 Y103.307 E.02869
G1 X117.382 Y102.978 E.02857
G1 X117.001 Y102.624 E.02654
G1 X117.058 Y101.922 E.03591
G1 X117.715 Y101.508 E.03963
G1 X118.383 Y101.252 E.03651
G1 X118.857 Y101.141 E.02483
G1 X119.371 Y101.128 E.02622
G1 X121.177 Y101.789 E.09811
G1 X121.448 Y101.786 E.01385
G1 E-.84
;WIPE_START
G1 X121.719 Y101.639 E-.111
G1 X122.087 Y101.053 E-.249
;WIPE_END
G1 Z.72 F4200
G1 X123.259 Y104.348 Z.72
G1 Z.32
G1 E1.2 F1800
;TYPE:Inner wall
G1 X123.172 Y104.273 E.00587
G1 X122.946 Y103.901 E.02221
G1 X122.786 Y103.498 E.02214
G1 X122.706 Y102.986 E.02641
G1 X122.749 Y102.47 E.02644
G1 X122.907 Y101.982 E.02615
G1 X123.17 Y101.547 E.02592
G1 X123.536 Y101.175 E.02662
G1 X123.966 Y100.905 E.02592
G1 X124.575 Y100.718 E.03249
G1 X125.114 Y100.696 E.02754
G1 X125.657 Y100.824 E.02847
G1 X125.947 Y100.945 E.01603
G1 X126.391 Y101.239 E.02717
G1 X126.779 Y101.694 E.03046
G1 X127.053 Y102.29 E.03351
G1 X127.125 Y102.794 E.02596
G1 X127.128 Y103.135 E.01742
G1 X127.017 Y103.633 E.026
G1 X126.719 Y104.201 E.03273
G1 X126.571 Y104.388 E.01217
G1 X126.306 Y104.516 E.015
G1 X125.356 Y104.528 E.04848
G1 X123.656 Y104.528 E.08673
G1 X123.398 Y104.468 E.01352
G1 X123.289 Y104.374 E.00734
G1 X123.504 Y104.064 F4200
;TYPE:Outer wall
G1 F1800
G1 X123.304 Y103.743 E.01931
G1 X123.17 Y103.426 E.01753
G1 X123.097 Y103.001 E.02202
G1 X123.125 Y102.579 E.02159
G1 X123.29 Y102.082 E.02669
G1 X123.527 Y101.725 E.02188
G1 X123.843 Y101.431 E.02202
G1 X124.28 Y101.204 E.0251
G1 X124.73 Y101.088 E.02371
G1 X125.167 Y101.095 E.02232
G1 X125.7 Y101.252 E.02835
G1 X126.137 Y101.537 E.02663
G1 X126.477 Y101.943 E.02703
G1 X126.691 Y102.439 E.02758
G1 X126.75 Y102.99 E.02827
G1 X126.635 Y103.548 E.02904
G1 X126.381 Y104.004 E.02665
G1 X126.275 Y104.118 E.00791
G1 X125.356 Y104.137 E.04688
G1 X123.656 Y104.137 E.08673
G1 X123.54 Y104.081 E.00655
G1 E-.84
;WIPE_START
G1 X123.304 Y103.743 E-.14859
G1 X123.17 Y103.426 E-.12369
G1 X123.129 Y103.186 E-.08772
;WIPE_END
G1 Z.72 F4200
G1 X130.761 Y102.606
G1 Z.72
G1 Z.32
G1 E1.2 F1800
;TYPE:Bottom surface
;WIDTH:0.462813
G1 F4800
G1 X131.808 Y103.653 E.07613
G1 X131.406 Y103.808 E.02216
G1 X130.42 Y102.822 E.07163
G1 X129.955 Y102.914 E.02438
G1 X130.981 Y103.94 E.07456
G1 X130.788 Y103.972 E.01004
G1 X130.617 Y103.966 E.00881
G1 X130.355 Y103.872 E.01429
G1 X129.489 Y103.006 E.06291
G1 X129.024 Y103.098 E.02438
G1 X129.777 Y103.851 E.05474
G1 E-.84 F1800
;WIPE_START
G1 F4800
G1 X129.07 Y103.144 E-.36
;WIPE_END
G1 Z.72 F4200
G1 X129.15 Y97.651 Z.72
G1 Z.32
G1 E1.2 F1800
G1 F4800
G1 X128.632 Y97.132 E.03765
G1 X128.265 Y97.323 E.02125
G1 X128.913 Y97.971 E.04709
G1 X128.759 Y98.375 E.0222
G1 X127.941 Y97.556 E.0595
G1 X127.786 Y97.706 E.01106
G1 X127.694 Y97.833 E.00807
G1 X127.686 Y97.858 E.00136
G1 X128.498 Y98.671 E.05903
G1 X128.193 Y98.923 E.02034
G1 X127.544 Y98.274 E.04719
G1 X127.402 Y98.689 E.02256
G1 X127.888 Y99.175 E.03535
G1 X127.583 Y99.428 E.02034
G1 X127.26 Y99.104 E.02351
G1 X127.117 Y99.52 E.02256
G1 X127.282 Y99.684 E.01194
G1 X127.107 Y99.889 E.01385
G1 X127.043 Y100.002 E.00668
G1 X126.905 Y99.864 E.01003
G1 X126.806 Y99.983 E.00791
G1 X126.628 Y100.145 E.0124
G1 X126.891 Y100.408 E.0191
G1 X126.876 Y100.547 E.0072
G1 X126.947 Y101.021 E.02463
G1 X126.231 Y100.305 E.05201
G1 X125.876 Y100.349 E.01836
G1 X125.684 Y100.316 E.01002
G1 X125.943 Y100.574 E.01878
G1 X126.085 Y100.639 E.00804
G1 X126.611 Y100.987 E.03241
G1 X127.116 Y101.594 E.04056
G1 X127.232 Y101.863 E.01507
G1 X127.482 Y102.114 E.0182
G1 X127.588 Y102.397 E.01554
G1 X127.738 Y102.629 E.01421
G1 X127.888 Y102.795 E.01149
G1 X128.122 Y102.98 E.01529
G1 X128.364 Y103.069 E.0133
G1 X128.452 Y103.084 E.00456
G1 X128.659 Y103.291 E.01503
G1 X128.491 Y103.285 E.00864
G1 X128.149 Y103.338 E.01779
G1 X127.442 Y102.631 E.05134
G1 X127.472 Y102.935 E.01569
G1 X127.454 Y103.201 E.01367
G1 X127.78 Y103.526 E.02365
G1 X127.666 Y103.617 E.00745
G1 X127.498 Y103.802 E.01286
G1 X127.349 Y103.653 E.0108
G1 X127.313 Y103.809 E.00822
G1 X127.189 Y104.05 E.01395
G1 X127.294 Y104.155 E.00762
G1 X127.128 Y104.444 E.01714
G1 X127.081 Y104.5 E.00372
G1 X126.979 Y104.398 E.00743
G1 X126.902 Y104.525 E.00766
G1 X126.785 Y104.644 E.00858
G1 X126.714 Y104.69 E.00434
G1 X126.829 Y104.805 E.00833
G1 X126.711 Y104.946 E.00944
G1 X126.595 Y105.128 E.01111
G1 X126.315 Y104.849 E.0203
G1 X125.77 Y104.86 E.02805
G1 X126.491 Y105.582 E.05245
G1 X126.467 Y105.782 E.01033
G1 X126.494 Y105.981 E.01032
G1 X126.545 Y106.13 E.0081
G1 X126.625 Y106.273 E.00841
G1 X125.212 Y104.86 E.10265
G1 X124.655 Y104.86 E.02864
G1 X125.374 Y105.579 E.05225
G1 X125.712 Y105.65 E.01774
G1 X126.042 Y105.808 E.01884
G1 X126.176 Y105.915 E.00876
G1 X126.425 Y106.253 E.02158
G1 X126.503 Y106.422 E.0096
G1 X126.565 Y106.771 E.01818
G1 X128.26 Y108.465 E.12316
G1 E-.84 F1800
;WIPE_START
G1 F4800
G1 X127.552 Y107.758 E-.36
;WIPE_END
G1 Z.72 F4200
G1 X126.467 Y107.23 Z.72
G1 Z.32
G1 E1.2 F1800
G1 F4800
G1 X128.086 Y108.849 E.11764
G1 X128.026 Y109.346 E.02575
G1 X126.586 Y107.907 E.10461
G1 E-.84 F1800
;WIPE_START
G1 F4800
G1 X127.293 Y108.614 E-.36
;WIPE_END
G1 Z.72 F4200
G1 X124.992 Y105.755 Z.72
G1 Z.32
G1 E1.2 F1800
G1 F4800
G1 X123.921 Y104.684 E.0778
G1 E-.84 F1800
;WIPE_START
G1 F4800
G1 X124.628 Y105.391 E-.36
;WIPE_END
G1 Z.72 F4200
G1 X125.402 Y100.591 Z.72
G1 Z.32
G1 E1.2 F1800
G1 F4800
G1 X124.869 Y100.058 E.03877
G1 E-.91707 F1800
;WIPE_START
G1 F4800
G1 X125.402 Y100.591 E-.28293
;WIPE_END
G1 Z.72 F4200
G1 X123.255 Y97.887 Z.72
G1 Z.32
G1 E1.2 F1800
G1 F4800
G1 X121.829 Y96.461 E.10362
G1 X121.762 Y96.951 E.02543
G1 X123.37 Y98.559 E.11684
G1 E-.84 F1800
;WIPE_START
G1 F4800
G1 X122.662 Y97.852 E-.36
;WIPE_END
G1 Z.72 F4200
G1 X121.595 Y97.342 Z.72
G1 Z.32
G1 E1.2 F1800
G1 F4800
G1 X123.269 Y99.015 E.12164
G1 X123.31 Y99.258 E.01263
G1 X123.39 Y99.502 E.01321
G1 X123.537 Y99.738 E.01428
G1 X123.666 Y99.894 E.01042
G1 X123.842 Y100.027 E.01131
G1 X124.127 Y100.159 E.01614
G1 X124.487 Y100.234 E.01892
G1 X124.63 Y100.376 E.01034
G1 X124.495 Y100.394 E.00698
G1 X124.18 Y100.484 E.01684
G1 X123.205 Y99.508 E.07088
G1 X123.306 Y99.691 E.01073
G1 X123.349 Y99.818 E.0069
G1 X123.38 Y100.024 E.01072
G1 X123.357 Y100.218 E.01004
G1 X123.776 Y100.638 E.03049
G1 X123.425 Y100.844 E.02093
G1 X123.254 Y100.673 E.01246
G1 X123.175 Y100.817 E.00847
G1 X123.024 Y101 E.01218
G1 X123.131 Y101.107 E.00776
G1 X122.954 Y101.279 E.01266
G1 X122.871 Y101.404 E.00775
G1 X122.772 Y101.305 E.0072
G1 X122.56 Y101.651 E.02083
G1 X122.655 Y101.746 E.00688
G1 X122.596 Y101.865 E.00684
G1 X122.503 Y102.151 E.01547
G1 X122.35 Y101.999 E.01109
