; HEADER_BLOCK_START
; generated by Creality_Print V5.1.2.9904 on 2024-12-12 at 14:35:17
; total layer number: 27
; filament_density: 0
; filament_diameter: 1.75
; max_z_height: 5.52
; HEADER_BLOCK_END

; MINX = 86.00
; MINY = 98.89
; MINZ = -0.00
; MAXX = 134.00
; MAXY = 126.88
; MAXZ = 5.62

; THUMBNAIL_BLOCK_START

;
; THUMBNAIL_BLOCK_END

; THUMBNAIL_BLOCK_START

;
; THUMBNAIL_BLOCK_END

; external perimeters extrusion width = 0.42mm
; perimeters extrusion width = 0.45mm
; infill extrusion width = 0.45mm
; solid infill extrusion width = 0.42mm
; top infill extrusion width = 0.42mm
; first layer extrusion width = 0.46mm

; external perimeters extrusion width = 0.42mm
; perimeters extrusion width = 0.45mm
; infill extrusion width = 0.45mm
; solid infill extrusion width = 0.42mm
; top infill extrusion width = 0.42mm
; first layer extrusion width = 0.46mm

; external perimeters extrusion width = 0.42mm
; perimeters extrusion width = 0.45mm
; infill extrusion width = 0.45mm
; solid infill extrusion width = 0.42mm
; top infill extrusion width = 0.42mm
; first layer extrusion width = 0.46mm

; EXECUTABLE_BLOCK_START
M73 P0 R11
M201 X5000 Y5000 Z500 E5000
M203 X500 Y500 Z30 E100
M204 P5000 R2500 T5000 ; sets acceleration (P, T) and retract acceleration (R), mm/sec^2
M205 X10.00 Y10.00 Z0.40 E5.00 ; sets the jerk limits, mm/sec
;TYPE:Custom
M220 S100 ;Reset Feedrate 
M221 S100 ;Reset Flowrate 
 
M140 S45 ;Set final bed temp 
G28 ;Home 
 
G92 E0 ;Reset Extruder 
G1 Z2.0 F3000 ;Move Z Axis up 
M104 S200 ;Set final nozzle temp 
G1 X-2.1 Y20 Z0.28 F5000.0 ;Move to start position 
M190 S45 ;Wait for bed temp to stabilize 
M109 S200 ;Wait for nozzle temp to stabilize 
G1 X-2.1 Y145.0 Z0.28 F1500.0 E15 ;Draw the first line 
G1 X-2.4 Y145.0 Z0.28 F5000.0 ;Move to side a little 
G1 X-2.4 Y20 Z0.28 F1500.0 E30 ;Draw the second line 
G92 E0  ;Reset Extruder 
G1 E-1.0000 F1800 ;Retract a bit 
M73 P1 R11
G1 Z2.0 F3000 ;Move Z Axis up 
G1 E0.0000 F1800
G90
G21
M83 ; use relative distances for extrusion
M106 S0
;LAYER_CHANGE
;Z:0.32
;HEIGHT:0.32
;BEFORE_LAYER_CHANGE
;0.32
G92 E0

G1 E-1.2 F1800
;_SET_FAN_SPEED_CHANGING_LAYER
M204 P500
M205 X8 Y8
; printing object Upper Support for 40mm Front Lower Base.stl id:18432332285176419958 copy 0
M204 T500
G1 Z.4 F9000
G1 X104.296 Y123.848
G1 Z.4
G1 Z.32
G1 E1.2 F1800
;TYPE:Inner wall
;WIDTH:0.46
G1 X104.219 Y123.864 E.004
G1 X103.76 Y124.117 E.02675
G1 X101.317 Y125.952 E.15591
G1 X100.934 Y126.17 E.02247
G1 X100.532 Y126.256 E.02097
G1 X98.088 Y126.26 E.12474
G1 X98.356 Y126.11 E.01567
G1 X98.738 Y125.729 E.02751
G1 X98.929 Y125.386 E.02007
G1 X99.024 Y125.036 E.0185
G1 X99.038 Y124.673 E.0185
G1 X98.919 Y124.177 E.02607
G1 X98.729 Y123.832 E.02007
G1 X98.527 Y123.609 E.01533
G1 X98.185 Y123.36 E.02163
G1 X97.7 Y123.197 E.02607
G1 X97.308 Y123.174 E.02007
G1 X96.827 Y123.284 E.02515
G1 X96.482 Y123.476 E.02016
G1 X96.101 Y123.86 E.0276
G1 X95.886 Y124.319 E.02588
;WIDTH:0.437171
G1 X95.843 Y124.905 E.02821
;WIDTH:0.389828
G1 X95.948 Y125.361 E.01959
;WIDTH:0.384979
G1 X96.14 Y125.687 E.01562
;WIDTH:0.357823
G1 X96.494 Y126.052 E.01916
;WIDTH:0.367461
G1 X96.956 Y126.298 E.02038
G1 X96.654 Y126.276 E.01181
;WIDTH:0.357823
G1 X96.419 Y126.206 E.00925
G1 X96.023 Y125.984 E.0171
;WIDTH:0.385816
G1 X95.729 Y125.627 E.01912
;WIDTH:0.393725
G1 X95.586 Y125.306 E.0149
;WIDTH:0.396153
G1 X95.513 Y124.673 E.02718
;WIDTH:0.428076
G1 X95.529 Y124.368 E.01432
;WIDTH:0.46
G1 X95.545 Y124.063 E.01559
G1 X95.535 Y119.711 E.22205
;WIDTH:0.441045
G1 X95.52 Y119.067 E.03129
;WIDTH:0.392267
G1 X95.61 Y118.642 E.01833
;WIDTH:0.385369
G1 X95.796 Y118.279 E.01679
;WIDTH:0.42297
G1 X95.871 Y118.236 E.00403
;WIDTH:0.468821
G1 X95.947 Y118.193 E.00455
;WIDTH:0.514672
G1 X96.023 Y118.15 E.00507
;WIDTH:0.560523
G1 X96.099 Y118.107 E.00559
;WIDTH:0.606375
G1 X96.175 Y118.064 E.00611
G1 X96.139 Y118.158 E.00702
;WIDTH:0.562399
G1 X96.104 Y118.252 E.00645
;WIDTH:0.518423
G1 X96.069 Y118.346 E.00587
;WIDTH:0.474447
G1 X96.034 Y118.439 E.0053
;WIDTH:0.430471
G1 X95.999 Y118.533 E.00472
;WIDTH:0.396918
G1 X95.875 Y118.87 E.01535
G1 X95.84 Y119.317 E.01921
;WIDTH:0.428076
G1 X95.879 Y119.558 E.01141
;WIDTH:0.46
G1 X95.918 Y119.798 E.01242
G1 X96.11 Y120.143 E.02017
G1 X96.496 Y120.525 E.02768
G1 X96.952 Y120.75 E.02597
G1 X97.308 Y120.816 E.01845
G1 X97.747 Y120.781 E.02251
G1 X98.258 Y120.591 E.02781
G1 X98.622 Y120.285 E.02425
G1 X98.886 Y119.876 E.02484
G1 X99.024 Y119.448 E.02295
G1 X99.038 Y119.086 E.0185
G1 X98.972 Y118.729 E.0185
G1 X98.745 Y118.271 E.02607
G1 X98.483 Y117.977 E.02007
G1 X98.082 Y117.73 E.02407
G1 X121.9 Y117.735 E1.2152
G1 X121.619 Y117.896 E.01649
M73 P2 R11
G1 X121.353 Y118.141 E.01851
G1 X121.14 Y118.456 E.01935
G1 X120.969 Y119.072 E.03264
G1 X120.985 Y119.498 E.02175
G1 X121.09 Y119.844 E.01845
G1 X121.271 Y120.159 E.0185
G1 X121.618 Y120.499 E.02481
G1 X121.98 Y120.707 E.0213
G1 X122.33 Y120.802 E.0185
G1 X122.788 Y120.808 E.02337
G1 X123.322 Y120.631 E.02872
G1 X123.517 Y120.516 E.01154
G1 X123.899 Y120.13 E.02772
G1 X124.116 Y119.671 E.02591
;WIDTH:0.44004
G1 X124.158 Y119.086 E.0284
;WIDTH:0.393141
G1 X124.091 Y118.737 E.01502
;WIDTH:0.389801
G1 X123.916 Y118.395 E.01607
;WIDTH:0.410444
G1 X123.905 Y118.335 E.00275
;WIDTH:0.450101
G1 X123.894 Y118.274 E.00307
;WIDTH:0.489101
G1 X123.867 Y118.211 E.00372
;WIDTH:0.528102
G1 X123.84 Y118.149 E.00407
;WIDTH:0.567102
G1 X123.813 Y118.087 E.00441
;WIDTH:0.606103
G1 X123.787 Y118.024 E.00476
G1 X123.848 Y118.043 E.00446
;WIDTH:0.579885
G1 X123.912 Y118.081 E.005
;WIDTH:0.538065
G1 X123.977 Y118.119 E.00459
;WIDTH:0.496246
G1 X124.041 Y118.157 E.00418
;WIDTH:0.454426
G1 X124.106 Y118.195 E.00377
;WIDTH:0.412607
G1 X124.17 Y118.233 E.00336
;WIDTH:0.386825
G1 X124.368 Y118.559 E.01579
;WIDTH:0.395056
G1 X124.482 Y119.011 E.01982
G1 X124.483 Y119.317 E.01304
;WIDTH:0.42663
G1 X124.466 Y119.621 E.01418
;WIDTH:0.46
G1 X124.45 Y119.924 E.01551
G1 X124.466 Y124.28 E.22222
;WIDTH:0.437088
G1 X124.48 Y124.924 E.03096
;WIDTH:0.392267
G1 X124.39 Y125.348 E.01829
;WIDTH:0.385451
G1 X124.203 Y125.713 E.01696
;WIDTH:0.42281
G1 X124.127 Y125.756 E.00399
;WIDTH:0.468781
G1 X124.052 Y125.798 E.00451
;WIDTH:0.514752
G1 X123.977 Y125.841 E.00502
;WIDTH:0.560723
G1 X123.902 Y125.883 E.00554
;WIDTH:0.606695
G1 X123.826 Y125.925 E.00606
G1 X123.855 Y125.858 E.00513
;WIDTH:0.567709
G1 X123.884 Y125.791 E.00475
;WIDTH:0.528724
G1 X123.913 Y125.724 E.00438
;WIDTH:0.489739
G1 X123.972 Y125.567 E.00922
;WIDTH:0.454976
G1 X124.03 Y125.41 E.00846
;WIDTH:0.420213
G1 X124.089 Y125.252 E.00769
;WIDTH:0.39613
G1 X124.16 Y124.839 E.01789
;WIDTH:0.437088
G1 X124.114 Y124.319 E.02507
;WIDTH:0.46
G1 X123.981 Y123.984 E.0184
G1 X123.658 Y123.588 E.02607
G1 X123.338 Y123.36 E.02007
G1 X122.857 Y123.198 E.0259
G1 X122.476 Y123.174 E.01947
G1 X122.104 Y123.24 E.01926
G1 X121.694 Y123.429 E.02305
G1 X121.28 Y123.818 E.02896
G1 X121.038 Y124.307 E.02785
G1 X120.982 Y124.526 E.01156
G1 X120.962 Y124.88 E.01808
G1 X121.08 Y125.4 E.02721
G1 X121.271 Y125.747 E.02016
G1 X121.517 Y126.013 E.01851
G1 X121.918 Y126.261 E.02409
G1 X119.681 Y126.261 E.11414
G1 X119.136 Y126.196 E.02802
G1 X118.689 Y125.963 E.02573
G1 X116.143 Y124.051 E.16243
G1 X115.704 Y123.84 E.02486
G1 X115.118 Y123.742 E.0303
G1 X104.824 Y123.742 E.52522
G1 X104.335 Y123.84 E.02544
G1 X104.362 Y124.235 F9000
;TYPE:Outer wall
G1 F1800
G1 X103.998 Y124.428 E.02104
G1 X101.552 Y126.265 E.15605
G1 X101.065 Y126.542 E.02861
G1 X100.574 Y126.647 E.02559
G1 X98.629 Y126.65 E.09924
;WIDTH:0.500087
G1 X97.904 Y126.631 E.04082
;WIDTH:0.547083
G1 X97.534 Y126.608 E.0231
;WIDTH:0.59408
G1 X97.165 Y126.585 E.02537
G1 X97.09 Y126.608 E.00535
;WIDTH:0.548016
G1 X97.015 Y126.631 E.00489
;WIDTH:0.501952
G1 X96.614 Y126.614 E.02271
;WIDTH:0.46
G1 X96.17 Y126.477 E.02368
G1 X95.834 Y126.267 E.02024
G1 X95.46 Y125.857 E.02831
G1 X95.243 Y125.433 E.02428
G1 X95.153 Y124.866 E.02931
G1 X95.153 Y119.152 E.29154
G1 X95.231 Y118.633 E.02677
G1 X95.469 Y118.123 E.02872
G1 X95.84 Y117.725 E.02777
G1 X96.309 Y117.456 E.02756
;WIDTH:0.464619
G1 X96.808 Y117.35 E.02633
;WIDTH:0.504442
G1 X96.974 Y117.367 E.00951
;WIDTH:0.544266
G1 X97.141 Y117.384 E.01038
;WIDTH:0.58409
G1 X97.308 Y117.4 E.01125
G1 X97.597 Y117.383 E.01947
;WIDTH:0.549446
G1 X97.886 Y117.366 E.01816
;WIDTH:0.514803
G1 X98.138 Y117.352 E.01469
;WIDTH:0.487401
G1 X98.39 Y117.338 E.01379
;WIDTH:0.46
G1 X121.805 Y117.343 E1.19462
;WIDTH:0.495974
G1 X121.976 Y117.361 E.00957
;WIDTH:0.531949
M73 P2 R10
G1 X122.146 Y117.379 E.01038
;WIDTH:0.567924
G1 X122.317 Y117.397 E.01119
;WIDTH:0.581432
G1 X122.692 Y117.404 E.02508
G1 X122.852 Y117.386 E.01074
;WIDTH:0.544518
G1 X123.012 Y117.367 E.00996
;WIDTH:0.507605
G1 X123.171 Y117.349 E.00919
;WIDTH:0.470692
G1 X123.49 Y117.388 E.01685
;WIDTH:0.46
G1 X123.891 Y117.551 E.02206
G1 X124.277 Y117.814 E.02385
G1 X124.586 Y118.216 E.02587
G1 X124.78 Y118.65 E.02422
G1 X124.84 Y119.01 E.01866
G1 X124.846 Y124.673 E.28891
G1 X124.805 Y125.219 E.02794
G1 X124.615 Y125.731 E.02787
G1 X124.274 Y126.169 E.02832
G1 X123.801 Y126.486 E.02907
G1 X123.387 Y126.62 E.02219
;WIDTH:0.488148
G1 X123.233 Y126.622 E.00841
;WIDTH:0.516296
G1 X123.079 Y126.623 E.00897
;WIDTH:0.548609
G1 X122.828 Y126.608 E.01578
;WIDTH:0.580922
G1 X122.576 Y126.592 E.01684
G1 X122.389 Y126.612 E.01256
;WIDTH:0.540614
G1 X122.202 Y126.632 E.01157
;WIDTH:0.500307
G1 X122.015 Y126.652 E.01058
;WIDTH:0.46
G1 X120.086 Y126.652 E.09844
G1 X119.442 Y126.635 E.03285
G1 X118.914 Y126.53 E.02747
G1 X118.47 Y126.288 E.0258
G1 X115.908 Y124.363 E.16349
G1 X115.546 Y124.198 E.02031
G1 X115.118 Y124.133 E.02207
G1 X104.882 Y124.133 E.52225
G1 X104.399 Y124.22 E.02509
G1 E-.84
;WIPE_START
G1 X103.998 Y124.428 E-.16261
G1 X103.559 Y124.757 E-.19739
;WIPE_END
G1 Z.72 F9000
G1 X122.47 Y117.931 Z.72
G1 Z.32
G1 E1.2 F1800
;WIDTH:0.58793
G1 X122.75 Y117.92 E.019
G1 X122.898 Y117.998 E.01134
;WIDTH:0.545286
G1 X123.047 Y118.076 E.0104
;WIDTH:0.502643
G1 X123.195 Y118.154 E.00947
;WIDTH:0.46
G1 X123.458 Y118.353 E.01683
G1 X123.724 Y118.765 E.02504
G1 X123.8 Y119.086 E.01681
G1 X123.795 Y119.361 E.01404
G1 X123.725 Y119.637 E.01453
G1 X123.516 Y119.992 E.02105
G1 X123.256 Y120.224 E.01773
G1 X122.77 Y120.412 E.02661
G1 X122.417 Y120.42 E.018
G1 X122.15 Y120.354 E.01404
G1 X121.878 Y120.207 E.01575
G1 X121.602 Y119.951 E.01925
G1 X121.46 Y119.715 E.01404
G1 X121.374 Y119.454 E.01399
G1 X121.351 Y119.158 E.01518
G1 X121.473 Y118.661 E.02609
G1 X121.629 Y118.418 E.01473
G1 X121.827 Y118.227 E.01405
;WIDTH:0.495974
G1 X122.016 Y118.129 E.01183
;WIDTH:0.531949
G1 X122.204 Y118.031 E.01282
;WIDTH:0.567924
G1 X122.393 Y117.933 E.01382
;WIDTH:0.58793
G1 X122.43 Y117.932 E.0025
G1 X123.576 Y117.872 F9000
;TYPE:Inner wall
;WIDTH:0.57564
G1 F1800
G1 X123.681 Y117.948 E.0086
;WIDTH:0.606103
G1 X123.787 Y118.024 E.00912
G1 E-.93965
;WIPE_START
G1 X123.681 Y117.948 E-.13018
G1 X123.576 Y117.872 E-.13018
;WIPE_END
G1 Z.72 F9000
G1 X123.221 Y123.752 Z.72
G1 Z.32
G1 E1.2 F1800
;TYPE:Outer wall
;WIDTH:0.46
G1 X123.367 Y123.849 E.00894
G1 X123.629 Y124.154 E.02051
G1 X123.744 Y124.404 E.01404
G1 X123.8 Y124.839 E.0224
G1 X123.725 Y125.224 E.02003
G1 X123.516 Y125.579 E.02099
G1 X123.212 Y125.841 E.02051
;WIDTH:0.505293
G1 X123.059 Y125.915 E.00966
;WIDTH:0.550586
G1 X122.906 Y125.988 E.01066
;WIDTH:0.59588
G1 X122.753 Y126.061 E.01166
G1 X122.519 Y126.077 E.01609
;WIDTH:0.587172
G1 X122.358 Y126.015 E.01165
;WIDTH:0.544781
G1 X122.197 Y125.954 E.0107
;WIDTH:0.50239
G1 X122.036 Y125.892 E.00974
;WIDTH:0.46
G1 X121.793 Y125.736 E.01473
G1 X121.602 Y125.538 E.01405
G1 X121.456 Y125.292 E.01459
G1 X121.356 Y124.85 E.02313
G1 X121.391 Y124.475 E.01923
G1 X121.629 Y124.01 E.02663
M73 P3 R10
G1 X121.942 Y123.737 E.02123
G1 X122.191 Y123.622 E.014
G1 X122.476 Y123.565 E.0148
G1 X122.749 Y123.574 E.01392
G1 X123.13 Y123.691 E.02034
G1 X123.187 Y123.73 E.00355
G1 E-.84
;WIPE_START
G1 X123.367 Y123.849 E-.07751
G1 X123.629 Y124.154 E-.14469
G1 X123.744 Y124.404 E-.09909
G1 X123.758 Y124.511 E-.03871
;WIPE_END
G1 Z.72 F9000
G1 X123.826 Y125.925 Z.72
G1 Z.32
G1 E1.2 F1800
;TYPE:Inner wall
;WIDTH:0.606695
G1 X123.685 Y126.028 E.01225
;WIDTH:0.570667
G1 X123.543 Y126.13 E.01143
;WIDTH:0.534639
G1 X123.426 Y126.176 E.00763
;WIDTH:0.498676
G1 X123.309 Y126.221 E.00704
;WIDTH:0.462713
G1 X123.192 Y126.267 E.00645
G1 E-.84
;WIPE_START
G1 X123.309 Y126.221 E-.06226
G1 X123.426 Y126.176 E-.06226
G1 X123.543 Y126.13 E-.06226
G1 X123.685 Y126.028 E-.08661
G1 X123.826 Y125.925 E-.08661
;WIPE_END
G1 Z.72 F9000
G1 X97.564 Y126.064 Z.72
G1 Z.32
G1 E1.2 F1800
;TYPE:Outer wall
;WIDTH:0.59408
G1 X97.179 Y126.06 E.0264
G1 X97.143 Y126.029 E.00325
;WIDTH:0.55121
G1 X97.108 Y125.997 E.00298
;WIDTH:0.50834
G1 X97.072 Y125.966 E.00272
;WIDTH:0.46547
G1 X96.675 Y125.764 E.02304
;WIDTH:0.46
G1 X96.371 Y125.424 E.02326
G1 X96.254 Y125.165 E.01455
G1 X96.2 Y124.825 E.01756
G1 X96.256 Y124.404 E.02165
G1 X96.484 Y123.998 E.02374
G1 X96.788 Y123.737 E.02045
G1 X97.159 Y123.594 E.02026
G1 X97.568 Y123.568 E.02091
G1 X97.976 Y123.691 E.02179
G1 X98.251 Y123.886 E.01716
G1 X98.521 Y124.235 E.02253
G1 X98.647 Y124.673 E.02326
G1 X98.576 Y125.216 E.02791
G1 X98.446 Y125.469 E.01453
G1 X98.165 Y125.768 E.02095
;WIDTH:0.499349
G1 X97.976 Y125.867 E.01195
;WIDTH:0.538699
G1 X97.788 Y125.966 E.01304
;WIDTH:0.578049
G1 X97.603 Y126.063 E.01381
G1 E-.84
;WIPE_START
G1 X97.179 Y126.06 E-.15293
G1 X97.143 Y126.029 E-.01706
G1 X97.108 Y125.997 E-.01706
G1 X97.072 Y125.966 E-.01706
G1 X96.686 Y125.77 E-.15588
;WIPE_END
G1 Z.72 F9000
G1 X97.501 Y120.42 Z.72
G1 Z.32
G1 E1.2 F1800
;WIDTH:0.46
G1 X97.159 Y120.396 E.01751
G1 X96.988 Y120.349 E.00902
G1 X96.633 Y120.141 E.02099
G1 X96.371 Y119.837 E.02051
G1 X96.256 Y119.587 E.01404
G1 X96.2 Y119.152 E.02238
G1 X96.276 Y118.765 E.02011
G1 X96.484 Y118.411 E.02098
G1 X96.788 Y118.149 E.02045
;WIDTH:0.499821
G1 X96.942 Y118.074 E.00964
;WIDTH:0.539642
G1 X97.097 Y117.999 E.01053
;WIDTH:0.579463
G1 X97.251 Y117.924 E.01142
;WIDTH:0.590597
G1 X97.597 Y117.919 E.02359
G1 X97.786 Y118.02 E.01455
;WIDTH:0.547064
G1 X97.974 Y118.12 E.01333
;WIDTH:0.503532
G1 X98.163 Y118.221 E.01212
;WIDTH:0.46
G1 X98.403 Y118.461 E.0173
G1 X98.591 Y118.816 E.02051
G1 X98.647 Y119.086 E.01404
G1 X98.642 Y119.361 E.01404
G1 X98.544 Y119.687 E.01737
G1 X98.315 Y120.035 E.02124
G1 X98.038 Y120.262 E.0183
G1 X97.553 Y120.423 E.02609
G1 X97.541 Y120.422 E.00061
G1 E-.84
;WIPE_START
G1 X97.159 Y120.396 E-.13795
G1 X96.988 Y120.349 E-.06363
G1 X96.633 Y120.141 E-.14808
G1 X96.615 Y120.12 E-.01034
;WIPE_END
G1 Z.72 F9000
G1 X96.175 Y118.064 Z.72
G1 Z.32
G1 E1.2 F1800
;TYPE:Inner wall
;WIDTH:0.606375
G1 X96.316 Y117.962 E.01221
;WIDTH:0.570462
G1 X96.457 Y117.86 E.0114
;WIDTH:0.534549
G1 X96.588 Y117.804 E.00868
;WIDTH:0.497465
G1 X96.72 Y117.748 E.00799
G1 E-.84
;WIPE_START
G1 X96.588 Y117.804 E-.08113
G1 X96.457 Y117.86 E-.08113
G1 X96.316 Y117.962 E-.09887
G1 X96.175 Y118.064 E-.09887
;WIPE_END
G1 Z.72 F9000
G1 X120.611 Y117.891
G1 Z.72
G1 Z.32
G1 E1.2 F1800
;TYPE:Bottom surface
;WIDTH:0.461481
G1 F4800
G1 X120.912 Y118.192 E.02178
G1 X120.851 Y118.291 E.00596
G1 X120.74 Y118.575 E.01562
G1 X120.232 Y118.067 E.03678
G1 X119.676 Y118.067 E.02846
G1 X120.808 Y119.199 E.082
G1 E-.84 F1800
;WIPE_START
G1 F4800
G1 X120.101 Y118.492 E-.36
;WIPE_END
G1 Z.72 F9000
G1 X124.295 Y121.019 Z.72
G1 Z.32
G1 E1.2 F1800
G1 F4800
G1 X123.898 Y120.622 E.02874
G1 X123.728 Y120.773 E.01162
G1 X123.581 Y120.86 E.00879
G1 X124.119 Y121.398 E.03898
G1 X124.119 Y121.954 E.02848
G1 X123.194 Y121.029 E.06705
G1 X122.949 Y121.115 E.01328
G1 X122.752 Y121.143 E.01019
G1 X124.12 Y122.511 E.09908
G1 X124.121 Y123.067 E.02848
G1 X122.155 Y121.101 E.14235
G1 X121.926 Y121.045 E.01209
G1 X121.506 Y120.837 E.02397
G1 X121.067 Y120.444 E.03019
G1 X120.863 Y120.136 E.01893
G1 X120.793 Y119.997 E.00798
G1 X120.696 Y119.725 E.01478
G1 X120.68 Y119.626 E.00512
G1 X119.121 Y118.067 E.11297
G1 X118.565 Y118.067 E.02846
G1 X123.682 Y123.183 E.3706
G1 X123.507 Y123.073 E.0106
