; HEADER_BLOCK_START
; generated by Creality_Print V5.1.2.9904 on 2024-12-16 at 09:51:39
; total layer number: 27
; filament_density: 0
; filament_diameter: 1.75
; max_z_height: 5.52
; HEADER_BLOCK_END

; MINX = 84.01
; MINY = 98.89
; MINZ = -0.00
; MAXX = 135.99
; MAXY = 126.88
; MAXZ = 5.62

; THUMBNAIL_BLOCK_START

;
; THUMBNAIL_BLOCK_END

; THUMBNAIL_BLOCK_START

;
; THUMBNAIL_BLOCK_END

; external perimeters extrusion width = 0.42mm
; perimeters extrusion width = 0.45mm
; infill extrusion width = 0.45mm
; solid infill extrusion width = 0.42mm
; top infill extrusion width = 0.42mm
; first layer extrusion width = 0.46mm

; external perimeters extrusion width = 0.42mm
; perimeters extrusion width = 0.45mm
; infill extrusion width = 0.45mm
; solid infill extrusion width = 0.42mm
; top infill extrusion width = 0.42mm
; first layer extrusion width = 0.46mm

; external perimeters extrusion width = 0.42mm
; perimeters extrusion width = 0.45mm
; infill extrusion width = 0.45mm
; solid infill extrusion width = 0.42mm
; top infill extrusion width = 0.42mm
; first layer extrusion width = 0.46mm

; EXECUTABLE_BLOCK_START
M73 P0 R11
M201 X5000 Y5000 Z500 E5000
M203 X500 Y500 Z30 E100
M204 P5000 R2500 T5000 ; sets acceleration (P, T) and retract acceleration (R), mm/sec^2
M205 X10.00 Y10.00 Z0.40 E5.00 ; sets the jerk limits, mm/sec
;TYPE:Custom
M220 S100 ;Reset Feedrate 
M221 S100 ;Reset Flowrate 
 
M140 S45 ;Set final bed temp 
G28 ;Home 
 
G92 E0 ;Reset Extruder 
G1 Z2.0 F3000 ;Move Z Axis up 
M104 S200 ;Set final nozzle temp 
G1 X-2.1 Y20 Z0.28 F5000.0 ;Move to start position 
M190 S45 ;Wait for bed temp to stabilize 
M109 S200 ;Wait for nozzle temp to stabilize 
G1 X-2.1 Y145.0 Z0.28 F1500.0 E15 ;Draw the first line 
G1 X-2.4 Y145.0 Z0.28 F5000.0 ;Move to side a little 
G1 X-2.4 Y20 Z0.28 F1500.0 E30 ;Draw the second line 
G92 E0  ;Reset Extruder 
G1 E-1.0000 F1800 ;Retract a bit 
M73 P1 R11
G1 Z2.0 F3000 ;Move Z Axis up 
G1 E0.0000 F1800
G90
G21
M83 ; use relative distances for extrusion
M106 S0
;LAYER_CHANGE
;Z:0.32
;HEIGHT:0.32
;BEFORE_LAYER_CHANGE
;0.32
G92 E0

G1 E-1.2 F1800
;_SET_FAN_SPEED_CHANGING_LAYER
M204 P500
M205 X8 Y8
; printing object Upper Support for 44mm Front Lower Base.stl id:1000727380202 copy 0
M204 T500
G1 Z.4 F9000
G1 X104.296 Y123.849
G1 Z.4
G1 Z.32
G1 E1.2 F1800
;TYPE:Inner wall
;WIDTH:0.46
G1 X104.219 Y123.865 E.004
G1 X103.76 Y124.118 E.02674
G1 X101.326 Y125.945 E.15532
G1 X100.891 Y126.187 E.02537
G1 X100.554 Y126.256 E.01757
G1 X96.64 Y126.26 E.19969
G1 X96.32 Y126.274 E.01636
;WIDTH:0.432785
G1 X95.999 Y126.288 E.01522
G1 X96.114 Y126.242 E.00586
;WIDTH:0.46
G1 X96.228 Y126.195 E.0063
G1 X96.536 Y125.967 E.01954
G1 X96.865 Y125.518 E.0284
G1 X97.027 Y124.985 E.02841
G1 X96.995 Y124.417 E.02904
G1 X96.819 Y123.964 E.02479
G1 X96.495 Y123.577 E.02579
G1 X96.038 Y123.296 E.02734
G1 X95.636 Y123.185 E.02128
G1 X95.097 Y123.208 E.02753
G1 X94.703 Y123.34 E.0212
G1 X94.383 Y123.55 E.01954
G1 X94.036 Y123.963 E.02753
G1 X93.878 Y124.347 E.02117
;WIDTH:0.436711
G1 X93.849 Y124.982 E.0305
;WIDTH:0.389204
G1 X94.006 Y125.493 E.02236
;WIDTH:0.428183
G1 X94.047 Y125.589 E.00489
;WIDTH:0.473945
G1 X94.088 Y125.685 E.00551
;WIDTH:0.519708
G1 X94.13 Y125.781 E.00613
;WIDTH:0.56547
G1 X94.171 Y125.877 E.00675
;WIDTH:0.611233
G1 X94.212 Y125.972 E.00738
G1 X94.138 Y125.935 E.00588
;WIDTH:0.562825
G1 X94.064 Y125.898 E.00536
;WIDTH:0.514417
G1 X93.989 Y125.86 E.00483
;WIDTH:0.46601
G1 X93.915 Y125.823 E.00431
;WIDTH:0.417602
G1 X93.841 Y125.785 E.00378
;WIDTH:0.382421
G1 X93.744 Y125.661 E.00646
;WIDTH:0.401497
G1 X93.57 Y125.256 E.01911
G1 X93.514 Y124.838 E.0183
;WIDTH:0.429119
G1 X93.529 Y124.439 E.01874
;WIDTH:0.46
G1 X93.545 Y124.041 E.02034
G1 X93.545 Y120.148 E.19864
G1 X93.53 Y119.799 E.01779
;WIDTH:0.431045
G1 X93.516 Y119.451 E.01647
;WIDTH:0.402091
G1 X93.542 Y118.898 E.02408
;WIDTH:0.394793
G1 X93.628 Y118.556 E.01499
G1 X93.827 Y118.214 E.0168
;WIDTH:0.414059
G1 X93.944 Y118.125 E.00661
;WIDTH:0.453497
G1 X94.06 Y118.035 E.00736
;WIDTH:0.492029
G1 X94.142 Y118.008 E.00478
;WIDTH:0.530562
G1 X94.224 Y117.98 E.00522
;WIDTH:0.569095
G1 X94.306 Y117.953 E.00565
G1 X94.247 Y118.065 E.00826
;WIDTH:0.520476
G1 X94.188 Y118.177 E.00746
;WIDTH:0.471858
G1 X94.129 Y118.289 E.00666
;WIDTH:0.423239
G1 X94.07 Y118.401 E.00585
;WIDTH:0.393338
G1 X93.894 Y118.78 E.01767
;WIDTH:0.396641
G1 X93.841 Y119.326 E.02346
;WIDTH:0.42832
G1 X93.892 Y119.587 E.01246
;WIDTH:0.46
G1 X93.942 Y119.848 E.01356
G1 X94.153 Y120.206 E.02119
G1 X94.424 Y120.476 E.01954
G1 X94.9 Y120.731 E.02753
G1 X95.306 Y120.817 E.0212
G1 X95.843 Y120.763 E.02753
G1 X96.228 Y120.607 E.0212
G1 X96.593 Y120.326 E.02349
G1 X96.893 Y119.886 E.0272
G1 X97.029 Y119.385 E.02646
G1 X96.992 Y118.815 E.02913
G1 X96.781 Y118.32 E.02747
G1 X96.508 Y118.005 E.0213
G1 X96.083 Y117.731 E.0258
G1 X123.906 Y117.736 E1.41957
G1 X123.492 Y118.005 E.02514
M73 P2 R11
G1 X123.135 Y118.475 E.03012
G1 X122.996 Y118.85 E.02041
G1 X122.972 Y119.387 E.02743
G1 X123.145 Y119.949 E.03003
G1 X123.369 Y120.281 E.0204
G1 X123.807 Y120.622 E.0283
G1 X124.249 Y120.79 E.02415
G1 X124.825 Y120.804 E.02943
G1 X125.283 Y120.655 E.02456
G1 X125.73 Y120.337 E.02798
G1 X125.957 Y120.048 E.01873
G1 X126.122 Y119.666 E.02127
;WIDTH:0.455513
G1 X126.14 Y119.482 E.00928
;WIDTH:0.42713
G1 X126.159 Y119.299 E.0086
;WIDTH:0.398747
G1 X126.138 Y118.927 E.01607
;WIDTH:0.398264
G1 X125.989 Y118.494 E.01965
;WIDTH:0.417332
G1 X125.936 Y118.391 E.00528
;WIDTH:0.458039
G1 X125.883 Y118.288 E.00589
;WIDTH:0.498746
G1 X125.83 Y118.184 E.00651
;WIDTH:0.539453
G1 X125.777 Y118.081 E.00713
;WIDTH:0.580161
G1 X125.724 Y117.978 E.00774
G1 X125.817 Y118.017 E.00674
;WIDTH:0.531962
G1 X125.91 Y118.056 E.0061
;WIDTH:0.483763
G1 X126.004 Y118.095 E.00547
;WIDTH:0.435564
G1 X126.097 Y118.134 E.00483
;WIDTH:0.387366
G1 X126.172 Y118.22 E.00475
;WIDTH:0.395513
G1 X126.404 Y118.638 E.02034
G1 X126.486 Y119.328 E.02965
;WIDTH:0.429373
G1 X126.471 Y119.626 E.01403
;WIDTH:0.46
G1 X126.455 Y119.924 E.01522
G1 X126.468 Y124.128 E.21447
;WIDTH:0.434967
G1 X126.48 Y124.461 E.01591
;WIDTH:0.409934
G1 X126.463 Y125.103 E.0286
;WIDTH:0.403363
G1 X126.298 Y125.586 E.02225
;WIDTH:0.387
G1 X126.044 Y125.916 E.01728
;WIDTH:0.374831
G1 X125.633 Y126.185 E.01959
G1 X125.115 Y126.3 E.02118
G1 X125.443 Y126.108 E.01514
G1 X125.781 Y125.811 E.01794
;WIDTH:0.390228
G1 X126.064 Y125.342 E.02298
;WIDTH:0.395932
G1 X126.157 Y124.887 E.01983
;WIDTH:0.409934
G1 X126.14 Y124.481 E.01808
;WIDTH:0.434967
G1 X126.094 Y124.297 E.00905
;WIDTH:0.46
G1 X126.047 Y124.113 E.00967
G1 X125.74 Y123.67 E.02753
G1 X125.418 Y123.407 E.0212
G1 X124.882 Y123.2 E.02933
G1 X124.414 Y123.177 E.02388
G1 X123.865 Y123.333 E.02913
G1 X123.417 Y123.656 E.02818
G1 X123.135 Y124.063 E.02523
G1 X122.996 Y124.438 E.02041
G1 X122.972 Y124.975 E.02743
G1 X123.068 Y125.379 E.0212
G1 X123.361 Y125.852 E.0284
G1 X123.656 Y126.122 E.02041
G1 X123.935 Y126.262 E.01593
G1 X119.69 Y126.262 E.21658
G1 X119.205 Y126.216 E.02489
G1 X118.807 Y126.045 E.02207
G1 X116.142 Y124.051 E.16983
G1 X115.704 Y123.841 E.0248
G1 X115.118 Y123.743 E.0303
G1 X104.824 Y123.743 E.52522
G1 X104.335 Y123.841 E.02544
G1 X104.362 Y124.236 F9000
;TYPE:Outer wall
G1 F1800
G1 X103.995 Y124.43 E.02118
G1 X101.405 Y126.375 E.16524
G1 X101.016 Y126.56 E.02199
G1 X100.594 Y126.647 E.02201
G1 X95.29 Y126.653 E.27059
G1 X94.742 Y126.638 E.02797
G1 X94.21 Y126.502 E.02803
G1 X93.779 Y126.227 E.02608
G1 X93.441 Y125.848 E.02591
G1 X93.227 Y125.373 E.02655
G1 X93.153 Y124.87 E.02594
G1 X93.153 Y119.123 E.29326
G1 X93.227 Y118.62 E.0259
G1 X93.442 Y118.141 E.02679
G1 X93.797 Y117.75 E.02696
G1 X94.127 Y117.541 E.01992
G1 X94.528 Y117.39 E.02185
;WIDTH:0.506802
G1 X94.719 Y117.397 E.01095
;WIDTH:0.553604
G1 X94.911 Y117.403 E.01211
;WIDTH:0.600407
G1 X95.652 Y117.405 E.05138
;WIDTH:0.592035
G1 X95.844 Y117.383 E.01321
;WIDTH:0.548023
G1 X96.036 Y117.361 E.0121
;WIDTH:0.504011
G1 X96.229 Y117.339 E.01098
;WIDTH:0.46
G1 X123.773 Y117.345 E1.40535
;WIDTH:0.496312
G1 X123.965 Y117.363 E.01075
;WIDTH:0.532625
G1 X124.157 Y117.381 E.01167
;WIDTH:0.568938
G1 X124.349 Y117.4 E.01258
;WIDTH:0.583646
G1 X124.745 Y117.407 E.02656
G1 X124.928 Y117.389 E.0124
;WIDTH:0.547234
G1 X125.112 Y117.371 E.01152
;WIDTH:0.510822
G1 X125.312 Y117.382 E.01153
;WIDTH:0.485411
G1 X125.512 Y117.394 E.01087
;WIDTH:0.46
G1 X125.955 Y117.59 E.02474
G1 X126.337 Y117.873 E.02426
G1 X126.603 Y118.227 E.0226
G1 X126.778 Y118.649 E.02327
G1 X126.847 Y119.14 E.02532
G1 X126.84 Y124.959 E.29687
G1 X126.747 Y125.423 E.02415
G1 X126.578 Y125.814 E.02172
G1 X126.28 Y126.172 E.02378
G1 X125.834 Y126.475 E.02749
G1 X125.592 Y126.561 E.01312
G1 X125.144 Y126.647 E.02328
;WIDTH:0.493817
G1 X125.057 Y126.632 E.00487
;WIDTH:0.527635
G1 X124.971 Y126.618 E.00526
;WIDTH:0.561453
G1 X124.884 Y126.603 E.00565
;WIDTH:0.591968
G1 X124.354 Y126.588 E.0362
G1 X124.167 Y126.609 E.01282
;WIDTH:0.547978
G1 X123.981 Y126.631 E.01174
;WIDTH:0.503989
G1 X123.794 Y126.653 E.01066
;WIDTH:0.46
G1 X119.69 Y126.653 E.20937
G1 X119.118 Y126.6 E.02932
G1 X118.598 Y126.377 E.02888
G1 X115.908 Y124.364 E.17141
G1 X115.546 Y124.199 E.0203
G1 X115.118 Y124.134 E.02207
G1 X104.882 Y124.134 E.52225
G1 X104.399 Y124.221 E.02508
G1 E-.84
;WIPE_START
G1 X103.995 Y124.43 E-.16357
G1 X103.559 Y124.758 E-.19643
;WIPE_END
G1 Z.72 F9000
G1 X124.542 Y117.918 Z.72
G1 Z.32
G1 E1.2 F1800
;WIDTH:0.592788
G1 X124.798 Y117.926 E.01754
G1 X124.986 Y118.038 E.01494
;WIDTH:0.548525
G1 X125.174 Y118.151 E.01368
;WIDTH:0.504262
G1 X125.362 Y118.263 E.01242
;WIDTH:0.46
G1 X125.652 Y118.611 E.02317
G1 X125.78 Y118.969 E.0194
G1 X125.804 Y119.236 E.01366
G1 X125.72 Y119.652 E.02165
G1 X125.583 Y119.908 E.0148
G1 X125.39 Y120.12 E.01465
G1 X125.018 Y120.35 E.02233
G1 X124.739 Y120.418 E.01465
G1 X124.302 Y120.4 E.02233
G1 X124.005 Y120.282 E.01631
G1 X123.679 Y120.042 E.02062
G1 X123.511 Y119.81 E.01465
G1 X123.363 Y119.387 E.02287
G1 X123.371 Y118.963 E.02162
G1 X123.462 Y118.691 E.01465
G1 X123.72 Y118.323 E.02294
G1 X124.081 Y118.079 E.02221
;WIDTH:0.500019
G1 X124.218 Y118.025 E.00831
;WIDTH:0.540038
G1 X124.356 Y117.971 E.00908
;WIDTH:0.580057
G1 X124.493 Y117.916 E.00985
;WIDTH:0.592788
G1 X124.502 Y117.917 E.00058
G1 X125.597 Y117.89 F9000
;TYPE:Inner wall
;WIDTH:0.580161
G1 F1800
G1 X125.724 Y117.978 E.01031
G1 E-1.04544
;WIPE_START
G1 X125.597 Y117.89 E-.15456
;WIPE_END
G1 Z.72 F9000
G1 X124.263 Y126.012 Z.72
G1 Z.32
G1 E1.2 F1800
;TYPE:Outer wall
;WIDTH:0.591968
G1 X124.207 Y125.982 E.00438
;WIDTH:0.547978
G1 X124.054 Y125.9 E.01083
;WIDTH:0.503989
G1 X123.902 Y125.817 E.00984
;WIDTH:0.46
G1 X123.683 Y125.631 E.01465
G1 X123.443 Y125.264 E.02237
G1 X123.363 Y124.974 E.01535
G1 X123.371 Y124.551 E.02162
G1 X123.462 Y124.278 E.01465
G1 X123.671 Y123.962 E.01936
G1 X124.081 Y123.667 E.02576
G1 X124.492 Y123.564 E.02159
G1 X124.791 Y123.582 E.01529
G1 X125.19 Y123.725 E.02165
G1 X125.43 Y123.907 E.01535
G1 X125.68 Y124.25 E.02165
G1 X125.777 Y124.524 E.01483
G1 X125.804 Y124.824 E.01535
G1 X125.715 Y125.249 E.02216
G1 X125.492 Y125.61 E.02165
G1 X125.274 Y125.802 E.01483
;WIDTH:0.493817
G1 X125.119 Y125.884 E.00973
;WIDTH:0.527635
G1 X124.964 Y125.966 E.0105
;WIDTH:0.561453
G1 X124.809 Y126.048 E.01127
;WIDTH:0.591968
G1 X124.359 Y126.064 E.03069
G1 X124.298 Y126.031 E.00472
G1 E-.84
;WIPE_START
G1 X124.207 Y125.982 E-.03749
G1 X124.054 Y125.9 E-.06238
G1 X123.902 Y125.817 E-.06238
G1 X123.683 Y125.631 E-.10337
G1 X123.539 Y125.412 E-.09437
;WIPE_END
G1 Z.72 F9000
G1 X95.363 Y126.015 Z.72
G1 Z.32
M73 P3 R11
G1 E1.2 F1800
;WIDTH:0.46
G1 X95.354 Y126.016 E.00045
G1 X94.896 Y125.894 E.0242
G1 X94.678 Y125.766 E.01292
G1 X94.47 Y125.563 E.01481
G1 X94.367 Y125.411 E.00938
G1 X94.202 Y124.938 E.02557
G1 X94.234 Y124.479 E.02346
G1 X94.347 Y124.2 E.01535
G1 X94.611 Y123.868 E.02165
G1 X94.85 Y123.703 E.01483
G1 X95.132 Y123.598 E.01535
G1 X95.556 Y123.568 E.02165
G1 X95.849 Y123.639 E.01541
G1 X96.223 Y123.859 E.02214
G1 X96.493 Y124.185 E.02161
G1 X96.607 Y124.464 E.01535
G1 X96.647 Y124.895 E.02212
G1 X96.538 Y125.302 E.02147
G1 X96.289 Y125.663 E.02237
G1 X96.06 Y125.842 E.01483
G1 X95.785 Y125.963 E.01535
G1 X95.403 Y126.01 E.01963
G1 X95.85 Y126.305 F9000
;TYPE:Inner wall
;WIDTH:0.372559
G1 F1800
G1 X95.57 Y126.318 E.01111
;WIDTH:0.34682
G1 X95.29 Y126.331 E.01017
;WIDTH:0.359601
G1 X95.118 Y126.307 E.00659
;WIDTH:0.398122
G1 X94.946 Y126.283 E.00746
;WIDTH:0.436643
G1 X94.774 Y126.259 E.00834
;WIDTH:0.478083
G1 X94.642 Y126.203 E.00762
;WIDTH:0.519524
G1 X94.511 Y126.148 E.00839
;WIDTH:0.560965
G1 X94.38 Y126.092 E.00916
;WIDTH:0.586099
G1 X94.296 Y126.032 E.00694
;WIDTH:0.611233
G1 X94.212 Y125.972 E.00728
G1 E-.84
;WIPE_START
G1 X94.296 Y126.032 E-.03704
G1 X94.38 Y126.092 E-.03704
G1 X94.511 Y126.148 E-.05137
G1 X94.642 Y126.203 E-.05137
G1 X94.774 Y126.259 E-.05137
G1 X94.946 Y126.283 E-.06255
G1 X95.118 Y126.307 E-.06255
G1 X95.136 Y126.31 E-.00672
;WIPE_END
G1 Z.72 F9000
G1 X95.524 Y117.922 Z.72
G1 Z.32
G1 E1.2 F1800
;TYPE:Outer wall
;WIDTH:0.603349
G1 X95.583 Y117.919 E.00409
;WIDTH:0.592035
G1 X95.716 Y117.983 E.01003
;WIDTH:0.548023
G1 X95.849 Y118.046 E.00919
;WIDTH:0.504011
G1 X95.981 Y118.109 E.00835
;WIDTH:0.46
G1 X96.321 Y118.363 E.02165
G1 X96.498 Y118.608 E.01541
G1 X96.637 Y119.019 E.02215
G1 X96.629 Y119.443 E.0216
G1 X96.533 Y119.728 E.01535
G1 X96.289 Y120.075 E.02165
G1 X95.949 Y120.307 E.02102
G1 X95.648 Y120.396 E.01598
G1 X95.364 Y120.43 E.01462
G1 X95.068 Y120.377 E.01535
G1 X94.688 Y120.187 E.02165
G1 X94.477 Y119.987 E.01483
G1 X94.316 Y119.733 E.01535
G1 X94.201 Y119.314 E.02216
G1 X94.234 Y118.891 E.02165
G1 X94.39 Y118.555 E.0189
G1 X94.658 Y118.246 E.02087
;WIDTH:0.507783
G1 X94.807 Y118.145 E.0103
;WIDTH:0.555566
G1 X94.955 Y118.043 E.01142
;WIDTH:0.603349
G1 X95.104 Y117.941 E.01254
G1 X95.484 Y117.924 E.02657
G1 E-.84
;WIPE_START
G1 X95.583 Y117.919 E-.03553
G1 X95.716 Y117.983 E-.05294
G1 X95.849 Y118.046 E-.05294
G1 X95.981 Y118.109 E-.05294
G1 X96.321 Y118.363 E-.15278
G1 X96.342 Y118.392 E-.01288
;WIPE_END
G1 Z.72 F9000
G1 X125.786 Y120.494
G1 Z.72
G1 Z.32
G1 E1.2 F1800
;TYPE:Bottom surface
;WIDTH:0.463059
G1 F4800
G1 X126.123 Y120.83 E.02447
G1 X126.123 Y121.388 E.02868
G1 X125.588 Y120.854 E.03886
G1 X125.454 Y120.94 E.00818
G1 X125.221 Y121.044 E.01315
G1 X126.123 Y121.946 E.06556
G1 X126.123 Y122.504 E.02868
G1 X124.579 Y120.961 E.11222
G1 E-.84 F1800
;WIPE_START
G1 F4800
G1 X125.287 Y121.668 E-.36
;WIPE_END
G1 Z.72 F9000
G1 X123.052 Y118.317 Z.72
G1 Z.32
G1 E1.2 F1800
G1 F4800
G1 X122.803 Y118.069 E.01808
G1 X122.245 Y118.069 E.02869
G1 X122.736 Y118.56 E.03572
G1 X122.675 Y118.763 E.01094
G1 X122.639 Y119.02 E.01331
G1 X121.687 Y118.068 E.06918
G1 X121.13 Y118.068 E.02869
G1 X122.679 Y119.618 E.11271
G1 X122.695 Y119.704 E.00451
G1 X122.909 Y120.221 E.02876
G1 X123.182 Y120.573 E.02289
G1 X123.622 Y120.898 E.02814
G1 X123.845 Y121.011 E.01284
G1 X124.176 Y121.115 E.01787
G1 X126.123 Y123.061 E.14153
G1 X126.123 Y123.619 E.02868
G1 X120.572 Y118.068 E.40366
G1 X120.014 Y118.068 E.02869
G1 X124.799 Y122.853 E.34796
G1 X124.374 Y122.846 E.02185
G1 X124.262 Y122.874 E.00593
G1 X119.456 Y118.068 E.3495
G1 X118.898 Y118.068 E.02869
G1 X123.827 Y122.996 E.35839
G1 X123.617 Y123.094 E.01192
G1 X123.471 Y123.199 E.00921
G1 X118.34 Y118.068 E.37311
G1 X117.782 Y118.068 E.02869
G1 X123.164 Y123.45 E.39138
G1 X123.108 Y123.504 E.00404
G1 X122.929 Y123.772 E.01656
G1 X117.224 Y118.068 E.41485
G1 X116.667 Y118.067 E.02869
G1 X122.739 Y124.14 E.44161
G1 X122.675 Y124.351 E.01133
G1 X122.639 Y124.597 E.0128
G1 X116.109 Y118.067 E.47485
G1 X115.551 Y118.067 E.02869
G1 X122.669 Y125.185 E.51762
G1 X122.753 Y125.486 E.01605
G1 X122.866 Y125.719 E.01331
G1 X123.01 Y125.93 E.01313
G1 X122.855 Y125.93 E.00795
G1 X114.993 Y118.067 E.57175
G1 X114.435 Y118.067 E.02869
G1 X122.298 Y125.93 E.57175
G1 X121.74 Y125.93 E.02868
G1 X113.877 Y118.067 E.57176
G1 X113.319 Y118.067 E.02869
M73 P4 R11
G1 X121.182 Y125.93 E.57177
G1 X120.625 Y125.93 E.02868
