; HEADER_BLOCK_START
; generated by Creality_Print V5.1.2.9904 on 2024-12-12 at 14:36:48
; total layer number: 55
; filament_density: 0
; filament_diameter: 1.75
; max_z_height: 11.12
; HEADER_BLOCK_END

; MINX = 97.04
; MINY = 105.11
; MINZ = -0.00
; MAXX = 122.96
; MAXY = 125.66
; MAXZ = 11.20

; THUMBNAIL_BLOCK_START

;
; THUMBNAIL_BLOCK_END

; THUMBNAIL_BLOCK_START

;
; THUMBNAIL_BLOCK_END

; external perimeters extrusion width = 0.42mm
; perimeters extrusion width = 0.45mm
; infill extrusion width = 0.45mm
; solid infill extrusion width = 0.42mm
; top infill extrusion width = 0.42mm
; first layer extrusion width = 0.46mm

; external perimeters extrusion width = 0.42mm
; perimeters extrusion width = 0.45mm
; infill extrusion width = 0.45mm
; solid infill extrusion width = 0.42mm
; top infill extrusion width = 0.42mm
; first layer extrusion width = 0.46mm

; external perimeters extrusion width = 0.42mm
; perimeters extrusion width = 0.45mm
; infill extrusion width = 0.45mm
; solid infill extrusion width = 0.42mm
; top infill extrusion width = 0.42mm
; first layer extrusion width = 0.46mm

; external perimeters extrusion width = 0.42mm
; perimeters extrusion width = 0.45mm
; infill extrusion width = 0.45mm
; solid infill extrusion width = 0.42mm
; top infill extrusion width = 0.42mm
; first layer extrusion width = 0.46mm

; EXECUTABLE_BLOCK_START
M73 P0 R11
M201 X5000 Y5000 Z500 E5000
M203 X500 Y500 Z30 E100
M204 P5000 R2500 T5000 ; sets acceleration (P, T) and retract acceleration (R), mm/sec^2
M205 X10.00 Y10.00 Z0.40 E5.00 ; sets the jerk limits, mm/sec
;TYPE:Custom
M220 S100 ;Reset Feedrate 
M221 S100 ;Reset Flowrate 
 
M140 S45 ;Set final bed temp 
G28 ;Home 
 
G92 E0 ;Reset Extruder 
G1 Z2.0 F3000 ;Move Z Axis up 
M104 S200 ;Set final nozzle temp 
G1 X-2.1 Y20 Z0.28 F5000.0 ;Move to start position 
M190 S45 ;Wait for bed temp to stabilize 
M109 S200 ;Wait for nozzle temp to stabilize 
G1 X-2.1 Y145.0 Z0.28 F1500.0 E15 ;Draw the first line 
G1 X-2.4 Y145.0 Z0.28 F5000.0 ;Move to side a little 
G1 X-2.4 Y20 Z0.28 F1500.0 E30 ;Draw the second line 
G92 E0  ;Reset Extruder 
G1 E-1.0000 F1800 ;Retract a bit 
M73 P1 R11
G1 Z2.0 F3000 ;Move Z Axis up 
G1 E0.0000 F1800
G90
G21
M83 ; use relative distances for extrusion
M106 S0
;LAYER_CHANGE
;Z:0.32
;HEIGHT:0.32
;BEFORE_LAYER_CHANGE
;0.32
G92 E0

G1 E-1.2 F1800
;_SET_FAN_SPEED_CHANGING_LAYER
M204 P500
M205 X8 Y8
; printing object Upper Knuckle Mount.stl id:4292801525 copy 0
M204 T500
G1 Z.4 F9000
G1 X116.276 Y124.975
G1 Z.4
G1 Z.32
G1 E1.2 F1800
;TYPE:Inner wall
;WIDTH:0.586549
G1 X115.368 Y124.975 E.06129
G1 X115.656 Y124.746 E.02486
G1 X115.802 Y124.563 E.01579
;WIDTH:0.578684
G1 X115.854 Y124.412 E.01058
;WIDTH:0.539106
G1 X115.906 Y124.262 E.00976
;WIDTH:0.499529
G1 X115.958 Y124.112 E.00894
;WIDTH:0.459951
G1 X116.01 Y123.961 E.00812
;WIDTH:0.420374
G1 X116.039 Y123.454 E.02328
;WIDTH:0.424904
G1 X115.994 Y123.201 E.01197
;WIDTH:0.450231
G1 X115.948 Y122.947 E.01282
;WIDTH:0.46
G1 X115.855 Y122.758 E.01075
G1 X115.585 Y122.411 E.02245
G1 X115.391 Y122.249 E.01289
G1 X114.841 Y121.991 E.03101
G1 X114.461 Y121.968 E.0194
G1 X114.097 Y121.989 E.01861
G1 X113.632 Y122.187 E.02579
G1 X113.408 Y122.345 E.01398
G1 X113.058 Y122.755 E.02749
G1 X112.881 Y123.198 E.02439
G1 X112.846 Y123.716 E.02646
G1 X112.997 Y124.243 E.02799
G1 X113.094 Y124.432 E.01085
G1 X113.436 Y124.812 E.0261
G1 X113.807 Y125.038 E.02214
G1 X112.406 Y125.038 E.07146
G1 X111.56 Y125.013 E.04322
G1 X107.387 Y124.258 E.21633
G1 X107.079 Y124.225 E.0158
;WIDTH:0.416409
G1 X106.772 Y124.191 E.01404
;WIDTH:0.378717
G1 X106.185 Y124.079 E.02413
G1 X105.49 Y123.82 E.02998
;WIDTH:0.371866
G1 X105.056 Y123.557 E.02009
;WIDTH:0.371532
G1 X104.489 Y123.049 E.03004
G1 X104.189 Y122.661 E.01935
;WIDTH:0.371994
G1 X103.843 Y121.988 E.02994
G1 X103.7 Y121.508 E.0198
;WIDTH:0.371476
G1 X103.628 Y121.005 E.02005
;WIDTH:0.37105
G1 X103.66 Y120.249 E.02983
G1 X103.775 Y119.758 E.0199
;WIDTH:0.369933
G1 X104.07 Y119.08 E.02904
;WIDTH:0.371934
G1 X104.496 Y118.489 E.02878
G1 X104.806 Y118.186 E.01714
;WIDTH:0.376757
G1 X105.249 Y117.862 E.02204
G1 X105.582 Y117.694 E.01499
;WIDTH:0.362989
G1 X106.125 Y117.48 E.02242
;WIDTH:0.372562
G1 X106.652 Y117.365 E.02137
;WIDTH:0.416281
G1 X106.952 Y117.334 E.01364
;WIDTH:0.46
G1 X107.251 Y117.302 E.01536
G1 X111.26 Y116.585 E.20779
G1 X111.978 Y116.507 E.03688
G1 X113.799 Y116.507 E.09291
G1 X113.418 Y116.748 E.02303
G1 X113.113 Y117.094 E.0235
G1 X112.901 Y117.545 E.02545
G1 X112.843 Y118.011 E.02396
G1 X112.866 Y118.224 E.01091
G1 X113.033 Y118.747 E.02801
G1 X113.344 Y119.155 E.02621
G1 X113.806 Y119.45 E.02795
G1 X114.061 Y119.541 E.01383
G1 X114.644 Y119.59 E.02981
G1 X115.188 Y119.417 E.02914
G1 X115.378 Y119.31 E.01111
G1 X115.75 Y118.946 E.02655
G1 X115.958 Y118.557 E.02252
;WIDTH:0.445893
G1 X116.015 Y118.316 E.01218
;WIDTH:0.415741
G1 X116.024 Y117.664 E.0295
;WIDTH:0.453181
G1 X115.979 Y117.496 E.00874
;WIDTH:0.492098
G1 X115.934 Y117.327 E.00963
;WIDTH:0.531016
G1 X115.889 Y117.159 E.01051
;WIDTH:0.56192
G1 X115.764 Y116.971 E.0145
;WIDTH:0.592824
G1 X115.639 Y116.784 E.01541
G1 X115.365 Y116.574 E.02354
G1 X116.273 Y116.574 E.06199
G1 X116.295 Y116.821 E.01693
;WIDTH:0.548022
G1 X116.317 Y117.068 E.01548
;WIDTH:0.50322
G1 X116.34 Y117.314 E.01404
;WIDTH:0.458419
G1 X116.355 Y117.596 E.01435
;WIDTH:0.428996
G1 X116.369 Y117.878 E.01327
;WIDTH:0.420375
G1 X116.359 Y118.404 E.02409
;WIDTH:0.46
G1 X116.339 Y119.099 E.03548
G1 X116.344 Y122.887 E.19328
;WIDTH:0.450231
G1 X116.357 Y123.177 E.01441
;WIDTH:0.424904
G1 X116.369 Y123.466 E.01346
;WIDTH:0.431944
G1 X116.353 Y123.856 E.01847
;WIDTH:0.464311
M73 P2 R11
G1 X116.337 Y124.245 E.02011
;WIDTH:0.505057
G1 X116.316 Y124.489 E.01389
;WIDTH:0.545803
G1 X116.296 Y124.732 E.01518
;WIDTH:0.586549
G1 X116.279 Y124.935 E.01378
G1 E-.84
;WIPE_START
G1 X115.368 Y124.975 E-.3283
G1 X115.437 Y124.92 E-.0317
;WIPE_END
G1 Z.72 F9000
G1 X114.715 Y116.746 Z.72
G1 Z.32
G1 E1.2 F1800
;TYPE:Outer wall
;WIDTH:0.587862
G1 X114.817 Y116.8 E.00779
;WIDTH:0.545241
G1 X115.014 Y116.905 E.01389
;WIDTH:0.50262
G1 X115.211 Y117.009 E.01265
;WIDTH:0.46
G1 X115.552 Y117.42 E.02719
G1 X115.679 Y117.841 E.02244
G1 X115.622 Y118.37 E.02718
G1 X115.363 Y118.811 E.02607
G1 X115.062 Y119.047 E.01951
G1 X114.565 Y119.202 E.0266
G1 X114.063 Y119.143 E.02578
G1 X113.624 Y118.879 E.02615
G1 X113.371 Y118.542 E.02146
G1 X113.233 Y118.04 E.0266
G1 X113.25 Y117.805 E.01199
G1 X113.37 Y117.413 E.02094
G1 X113.711 Y117.007 E.02703
;WIDTH:0.497541
G1 X113.807 Y116.938 E.00661
;WIDTH:0.535082
G1 X113.903 Y116.869 E.00719
;WIDTH:0.572623
G1 X113.999 Y116.8 E.00777
;WIDTH:0.610164
G1 X114.095 Y116.731 E.00835
G1 X114.619 Y116.695 E.0371
;WIDTH:0.587862
G1 X114.68 Y116.727 E.00463
G1 E-.84
;WIPE_START
G1 X114.817 Y116.8 E-.05584
G1 X115.014 Y116.905 E-.08048
G1 X115.211 Y117.009 E-.08048
G1 X115.465 Y117.316 E-.14319
;WIPE_END
G1 Z.72 F9000
G1 X113.266 Y123.282 Z.72
G1 Z.32
G1 E1.2 F1800
;WIDTH:0.46
G1 X113.267 Y123.272 E.0005
G1 X113.406 Y122.941 E.0183
G1 X113.772 Y122.552 E.02722
G1 X114.235 Y122.357 E.02566
G1 X114.762 Y122.374 E.02692
G1 X115.211 Y122.597 E.02559
G1 X115.547 Y122.998 E.02667
G1 X115.679 Y123.428 E.02295
G1 X115.622 Y123.958 E.02718
G1 X115.363 Y124.398 E.02607
G1 X115.062 Y124.635 E.01951
;WIDTH:0.501308
G1 X114.899 Y124.707 E.01008
;WIDTH:0.542617
G1 X114.736 Y124.78 E.01105
;WIDTH:0.583926
G1 X114.572 Y124.852 E.01201
;WIDTH:0.610292
G1 X114.096 Y124.814 E.03371
G1 X113.982 Y124.73 E.01
;WIDTH:0.572719
G1 X113.868 Y124.646 E.00931
;WIDTH:0.535146
G1 X113.754 Y124.562 E.00862
;WIDTH:0.497573
G1 X113.64 Y124.478 E.00792
;WIDTH:0.46
G1 X113.371 Y124.13 E.02244
G1 X113.233 Y123.628 E.0266
G1 X113.262 Y123.321 E.01569
G1 E-.84
;WIPE_START
G1 X113.267 Y123.272 E-.01791
G1 X113.406 Y122.941 E-.12915
G1 X113.772 Y122.552 E-.1921
G1 X113.825 Y122.53 E-.02084
;WIPE_END
G1 Z.72 F9000
G1 X106.02 Y123.707 Z.72
G1 Z.32
G1 E1.2 F1800
;TYPE:Inner wall
;WIDTH:0.378717
G1 X105.868 Y123.662 E.00641
;WIDTH:0.362629
G1 X105.401 Y123.43 E.01999
G1 X104.976 Y123.109 E.02038
;WIDTH:0.363961
G1 X104.579 Y122.693 E.02215
G1 X104.271 Y122.206 E.02218
;WIDTH:0.36378
G1 X104.052 Y121.674 E.02214
;WIDTH:0.364715
G1 X103.936 Y121.11 E.02223
G1 X103.931 Y120.534 E.02224
;WIDTH:0.364902
G1 X104.024 Y119.966 E.02223
G1 X104.227 Y119.427 E.02225
;WIDTH:0.358368
G1 X104.522 Y118.933 E.02174
;WIDTH:0.363227
G1 X104.9 Y118.5 E.02207
;WIDTH:0.376757
G1 X105.425 Y118.115 E.02614
G1 X105.695 Y117.959 E.01251
;WIDTH:0.362989
G1 X106.199 Y117.765 E.02073
;WIDTH:0.372571
G1 X106.702 Y117.665 E.02032
;WIDTH:0.416285
G1 X106.99 Y117.638 E.01313
;WIDTH:0.46
G1 X107.279 Y117.612 E.01478
G1 X107.855 Y117.71 E.02984
G1 X108.404 Y117.912 E.02984
G1 X108.907 Y118.211 E.02984
G1 X109.345 Y118.597 E.02984
G1 X109.705 Y119.057 E.0298
G1 X110.03 Y119.754 E.03922
G1 X110.142 Y120.167 E.02183
G1 X110.201 Y120.534 E.01896
G1 X110.2 Y121.041 E.02589
G1 X110.103 Y121.588 E.0283
G1 X109.901 Y122.136 E.0298
G1 X109.434 Y122.845 E.04333
G1 X108.993 Y123.269 E.03121
G1 X108.501 Y123.585 E.02984
G1 X107.959 Y123.806 E.02984
G1 X107.386 Y123.923 E.02984
G1 X107.094 Y123.906 E.01492
;WIDTH:0.41682
G1 X106.802 Y123.89 E.01328
;WIDTH:0.378717
G1 X106.276 Y123.783 E.02173
G1 X106.058 Y123.719 E.00917
G1 X106.116 Y123.385 F9000
;TYPE:Outer wall
;WIDTH:0.46
G1 F1800
G1 X106.062 Y123.373 E.00282
G1 X105.592 Y123.145 E.02662
G1 X105.181 Y122.838 E.02617
G1 X104.833 Y122.462 E.02617
G1 X104.56 Y122.027 E.02617
G1 X104.372 Y121.55 E.02617
G1 X104.274 Y121.047 E.02617
G1 X104.271 Y120.534 E.02617
G1 X104.362 Y120.029 E.02617
G1 X104.544 Y119.55 E.02617
G1 X104.811 Y119.112 E.02617
G1 X105.154 Y118.731 E.02613
G1 X105.817 Y118.276 E.04105
G1 X106.297 Y118.094 E.02617
G1 X106.802 Y118.003 E.02617
G1 X107.315 Y118.007 E.02617
G1 X107.818 Y118.104 E.02617
G1 X108.295 Y118.293 E.02617
G1 X108.729 Y118.565 E.02617
G1 X109.106 Y118.913 E.02617
G1 X109.407 Y119.314 E.02554
G1 X109.672 Y119.912 E.03341
G1 X109.806 Y120.498 E.03065
G1 X109.809 Y121.011 E.02617
G1 X109.718 Y121.516 E.02617
G1 X109.536 Y121.994 E.02613
G1 X109.111 Y122.624 E.03876
G1 X108.729 Y122.979 E.02662
G1 X108.295 Y123.252 E.02617
G1 X107.818 Y123.441 E.02617
G1 X107.314 Y123.538 E.02617
G1 X106.802 Y123.542 E.02613
G1 X106.155 Y123.394 E.0339
G1 E-.84
;WIPE_START
G1 X106.062 Y123.373 E-.0343
G1 X105.592 Y123.145 E-.18785
G1 X105.285 Y122.916 E-.13785
;WIPE_END
G1 Z.72 F9000
G1 X116.61 Y125.36 Z.72
G1 Z.32
G1 E1.2 F1800
G1 X116.438 Y125.43 E.00946
G1 X115.194 Y125.43 E.06346
;WIDTH:0.501308
G1 X114.987 Y125.409 E.01175
;WIDTH:0.542617
G1 X114.779 Y125.388 E.01287
;WIDTH:0.583926
G1 X114.572 Y125.368 E.01399
;WIDTH:0.610292
G1 X114.066 Y125.354 E.03572
G1 X113.893 Y125.373 E.01231
;WIDTH:0.572719
G1 X113.72 Y125.392 E.01146
;WIDTH:0.535146
G1 X113.546 Y125.411 E.0106
;WIDTH:0.497573
G1 X113.373 Y125.43 E.00975
;WIDTH:0.46
G1 X112.406 Y125.43 E.04932
G1 X111.513 Y125.403 E.04561
G1 X106.104 Y124.424 E.28043
G1 X105.325 Y124.129 E.04253
G1 X104.859 Y123.846 E.02781
G1 X104.224 Y123.277 E.0435
G1 X103.902 Y122.86 E.02685
G1 X103.52 Y122.119 E.04257
G1 X103.362 Y121.595 E.02791
G1 X103.281 Y121.051 E.02804
G1 X103.312 Y120.218 E.04253
G1 X103.431 Y119.686 E.02782
G1 X103.757 Y118.922 E.04238
G1 X104.241 Y118.249 E.04232
G1 X104.652 Y117.857 E.02896
G1 X105.084 Y117.551 E.02703
G1 X105.84 Y117.199 E.04253
G1 X106.379 Y117.061 E.0284
G1 X111.422 Y116.158 E.2614
G1 X111.967 Y116.115 E.02787
G1 X113.564 Y116.116 E.08147
;WIDTH:0.497541
G1 X113.689 Y116.134 E.00709
;WIDTH:0.535082
G1 X113.814 Y116.153 E.00771
;WIDTH:0.572623
G1 X113.94 Y116.172 E.00833
;WIDTH:0.610164
G1 X114.065 Y116.191 E.00895
G1 X114.442 Y116.173 E.02668
;WIDTH:0.574369
G1 X114.82 Y116.155 E.02491
;WIDTH:0.538574
G1 X115.124 Y116.136 E.01867
;WIDTH:0.499287
G1 X115.428 Y116.116 E.01711
;WIDTH:0.46
G1 X116.561 Y116.139 E.05783
G1 X116.677 Y116.241 E.00784
G1 X116.73 Y116.44 E.01052
G1 X116.73 Y125.076 E.44065
G1 X116.677 Y125.305 E.01196
G1 X116.641 Y125.335 E.00241
G1 E-.84
;WIPE_START
G1 X116.438 Y125.43 E-.08063
G1 X115.662 Y125.43 E-.27937
;WIPE_END
G1 Z.72 F9000
G1 X115.672 Y119.267
G1 Z.72
G1 Z.32
G1 E1.2 F1800
;TYPE:Bottom surface
;WIDTH:0.466568
G1 F4800
G1 X116.006 Y119.602 E.02455
G1 X116.006 Y120.164 E.02919
G1 X115.475 Y119.633 E.03896
G1 X115.308 Y119.728 E.01
G1 X115.083 Y119.804 E.01227
G1 X116.006 Y120.727 E.06771
G1 X116.006 Y121.29 E.02919
G1 X114.459 Y119.743 E.11351
G1 E-.84 F1800
;WIPE_START
G1 F4800
G1 X115.166 Y120.45 E-.36
;WIPE_END
G1 Z.72 F9000
G1 X112.935 Y117.093 Z.72
G1 Z.32
G1 E1.2 F1800
G1 F4800
G1 X112.681 Y116.839 E.01858
G1 X112.119 Y116.839 E.0292
G1 X112.622 Y117.343 E.03696
G1 X112.534 Y117.677 E.0179
G1 X112.524 Y117.807 E.00681
G1 X111.582 Y116.865 E.06912
G1 X111.105 Y116.951 E.02515
G1 X112.587 Y118.433 E.10873
M73 P3 R11
G1 X112.729 Y118.886 E.02465
G1 X113.016 Y119.288 E.02563
G1 X113.119 Y119.401 E.00794
G1 X113.258 Y119.505 E.00898
G1 X113.654 Y119.747 E.02408
G1 X113.83 Y119.829 E.01007
G1 X114.026 Y119.872 E.0104
G1 X116.006 Y121.852 E.14532
G1 X116.006 Y122.41 E.02895
G1 X115.838 Y122.195 E.01419
G1 X115.547 Y121.956 E.01954
G1 X110.627 Y117.036 E.36093
G1 X110.15 Y117.122 E.02515
G1 X114.681 Y121.652 E.33241
G1 X114.21 Y121.63 E.02447
G1 X114.118 Y121.652 E.0049
G1 X109.673 Y117.207 E.32612
G1 X109.195 Y117.292 E.02515
G1 X113.698 Y121.795 E.33036
G1 X113.474 Y121.892 E.01266
G1 X113.325 Y121.985 E.00911
G1 X108.718 Y117.378 E.33802
G1 X108.241 Y117.463 E.02515
G1 X108.296 Y117.518 E.00404
G1 X108.667 Y117.671 E.02081
G1 X109.091 Y117.934 E.02591
G1 X109.578 Y118.359 E.03349
G1 X110.034 Y118.95 E.03876
G1 X110.282 Y119.505 E.03153
G1 X113.045 Y122.268 E.2027
G1 X112.783 Y122.568 E.02069
G1 X110.493 Y120.278 E.168
G1 X110.533 Y120.523 E.01288
G1 X110.532 Y120.88 E.01854
G1 X112.615 Y122.963 E.15281
G1 X112.57 Y123.073 E.00619
G1 X112.521 Y123.432 E.01877
G1 X110.474 Y121.384 E.15021
G1 X110.411 Y121.731 E.01825
G1 X110.368 Y121.841 E.00616
G1 X112.597 Y124.07 E.16351
G1 X112.682 Y124.352 E.01526
G1 X112.824 Y124.628 E.01614
G1 X112.889 Y124.706 E.00523
G1 X112.67 Y124.706 E.01137
G1 X110.21 Y122.246 E.18045
G1 X110.169 Y122.351 E.00587
G1 X110.001 Y122.6 E.01555
G1 X112.107 Y124.706 E.15449
G1 X111.504 Y124.665 E.03136
G1 X109.775 Y122.936 E.12688
G1 X109.705 Y123.039 E.00648
G1 X109.517 Y123.241 E.01429
G1 X110.817 Y124.541 E.09536
G1 X110.13 Y124.416 E.03622
G1 X109.223 Y123.509 E.06655
G1 X108.884 Y123.733 E.02107
G1 X109.443 Y124.292 E.04101
G1 X108.756 Y124.168 E.03622
G1 X108.387 Y123.799 E.02708
G1 E-.84 F1800
;WIPE_START
G1 F4800
G1 X108.756 Y124.168 E-.18789
G1 X109.226 Y124.253 E-.17211
;WIPE_END
G1 Z.72 F9000
G1 X115.011 Y121.701 Z.72
G1 Z.32
G1 E1.2 F1800
;TYPE:Gap infill
;WIDTH:0.147039
G1 X114.837 Y121.791 E.002
G1 X115.18 Y121.899 F9000
;WIDTH:0.133115
G1 F1800
G1 X114.881 Y121.691 E.00306
G1 E-.84
;WIPE_START
G1 X115.18 Y121.899 E-.36
;WIPE_END
G1 Z.72 F9000
G1 X112.648 Y123.821 Z.72
G1 Z.32
G1 E1.2 F1800
;WIDTH:0.147883
G1 X112.556 Y123.631 E.00218
G1 E-.98903
;WIPE_START
G1 X112.648 Y123.821 E-.21097
;WIPE_END
G1 Z.72 F9000
G1 X108.149 Y124.197 Z.72
G1 Z.32
G1 E1.2 F1800
;WIDTH:0.172021
G1 X108.221 Y123.909 E.00399
G1 E-.90356
;WIPE_START
G1 X108.149 Y124.197 E-.29644
;WIPE_END
G1 Z.72 F9000
G1 X110.437 Y120.083 Z.72
G1 Z.32
G1 E1.2 F1800
;WIDTH:0.164157
G1 X110.282 Y119.806 E.00395
; stop printing object Upper Knuckle Mount.stl id:4292801525 copy 0
; printing object Knuckle Mount Connector.stl id:18432332285176419958 copy 0
G1 E-.88239
;WIPE_START
G1 X110.437 Y120.083 E-.31761
;WIPE_END
G1 Z.72 F9000
G1 X122.254 Y105.817 Z.72
G1 Z.32
G1 E1.2 F1800
;TYPE:Inner wall
;WIDTH:0.6254
G1 X122.273 Y106.097 E.02036
;WIDTH:0.587594
G1 X122.292 Y106.377 E.01898
;WIDTH:0.549789
G1 X122.309 Y106.608 E.01453
;WIDTH:0.515794
G1 X122.326 Y106.839 E.01351
;WIDTH:0.481799
G1 X122.343 Y107.07 E.01248
;WIDTH:0.468724
G1 X122.337 Y108.276 E.06292
;WIDTH:0.46
G1 X122.343 Y112.715 E.22644
;WIDTH:0.482101
