; HEADER_BLOCK_START
; generated by Creality_Print V5.1.2.9904 on 2024-12-16 at 10:03:10
; total layer number: 27
; filament_density: 0
; filament_diameter: 1.75
; max_z_height: 5.52
; HEADER_BLOCK_END

; MINX = 83.00
; MINY = 98.89
; MINZ = -0.00
; MAXX = 137.00
; MAXY = 126.88
; MAXZ = 5.62

; THUMBNAIL_BLOCK_START

;
; THUMBNAIL_BLOCK_END

; THUMBNAIL_BLOCK_START

;
; THUMBNAIL_BLOCK_END

; external perimeters extrusion width = 0.42mm
; perimeters extrusion width = 0.45mm
; infill extrusion width = 0.45mm
; solid infill extrusion width = 0.42mm
; top infill extrusion width = 0.42mm
; first layer extrusion width = 0.46mm

; external perimeters extrusion width = 0.42mm
; perimeters extrusion width = 0.45mm
; infill extrusion width = 0.45mm
; solid infill extrusion width = 0.42mm
; top infill extrusion width = 0.42mm
; first layer extrusion width = 0.46mm

; external perimeters extrusion width = 0.42mm
; perimeters extrusion width = 0.45mm
; infill extrusion width = 0.45mm
; solid infill extrusion width = 0.42mm
; top infill extrusion width = 0.42mm
; first layer extrusion width = 0.46mm

; EXECUTABLE_BLOCK_START
M73 P0 R11
M201 X5000 Y5000 Z500 E5000
M203 X500 Y500 Z30 E100
M204 P5000 R2500 T5000 ; sets acceleration (P, T) and retract acceleration (R), mm/sec^2
M205 X10.00 Y10.00 Z0.40 E5.00 ; sets the jerk limits, mm/sec
;TYPE:Custom
M220 S100 ;Reset Feedrate 
M221 S100 ;Reset Flowrate 
 
M140 S45 ;Set final bed temp 
G28 ;Home 
 
G92 E0 ;Reset Extruder 
G1 Z2.0 F3000 ;Move Z Axis up 
M104 S200 ;Set final nozzle temp 
G1 X-2.1 Y20 Z0.28 F5000.0 ;Move to start position 
M190 S45 ;Wait for bed temp to stabilize 
M109 S200 ;Wait for nozzle temp to stabilize 
G1 X-2.1 Y145.0 Z0.28 F1500.0 E15 ;Draw the first line 
G1 X-2.4 Y145.0 Z0.28 F5000.0 ;Move to side a little 
G1 X-2.4 Y20 Z0.28 F1500.0 E30 ;Draw the second line 
G92 E0  ;Reset Extruder 
G1 E-1.0000 F1800 ;Retract a bit 
M73 P1 R11
G1 Z2.0 F3000 ;Move Z Axis up 
G1 E0.0000 F1800
G90
G21
M83 ; use relative distances for extrusion
M106 S0
;LAYER_CHANGE
;Z:0.32
;HEIGHT:0.32
;BEFORE_LAYER_CHANGE
;0.32
G92 E0

G1 E-1.2 F1800
;_SET_FAN_SPEED_CHANGING_LAYER
M204 P500
M205 X8 Y8
; printing object Upper Support for 46mm Front Lower Base.stl id:140189773334824 copy 0
M204 T500
G1 Z.4 F9000
G1 X115.666 Y123.84
G1 Z.4
G1 Z.32
G1 E1.2 F1800
;TYPE:Inner wall
;WIDTH:0.46
G1 X115.117 Y123.742 E.02848
G1 X104.882 Y123.742 E.52219
G1 X104.547 Y123.774 E.01721
G1 X104.161 Y123.889 E.0205
G1 X103.76 Y124.117 E.02355
G1 X101.326 Y125.944 E.1553
G1 X100.891 Y126.186 E.02537
G1 X100.554 Y126.255 E.01757
G1 X95.09 Y126.26 E.27879
G1 X95.561 Y125.936 E.02918
G1 X95.823 Y125.603 E.0216
G1 X96.011 Y125.087 E.02805
G1 X96.013 Y124.505 E.02972
G1 X95.888 Y124.1 E.02159
G1 X95.635 Y123.712 E.02366
G1 X95.185 Y123.358 E.0292
G1 X94.725 Y123.203 E.02476
G1 X94.299 Y123.175 E.02182
G1 X93.768 Y123.313 E.028
G1 X93.288 Y123.64 E.02963
G1 X92.954 Y124.118 E.02975
G1 X92.903 Y124.324 E.01083
;WIDTH:0.433629
G1 X92.852 Y124.53 E.0101
;WIDTH:0.407259
G1 X92.849 Y124.982 E.01995
;WIDTH:0.389133
G1 X92.982 Y125.435 E.01973
;WIDTH:0.388245
G1 X93.207 Y125.78 E.01717
;WIDTH:0.405687
G1 X93.334 Y125.918 E.00822
;WIDTH:0.451621
G1 X93.461 Y126.056 E.00934
;WIDTH:0.497555
G1 X93.587 Y126.193 E.01046
G1 X93.444 Y126.156 E.0083
;WIDTH:0.451621
G1 X93.3 Y126.118 E.00741
;WIDTH:0.405687
G1 X93.156 Y126.081 E.00652
;WIDTH:0.359754
G1 X93.006 Y125.97 E.00709
;WIDTH:0.382676
G1 X92.744 Y125.659 E.01664
;WIDTH:0.401525
G1 X92.562 Y125.221 E.02058
G1 X92.513 Y124.664 E.02426
;WIDTH:0.428327
G1 X92.529 Y124.334 E.0155
;WIDTH:0.46
G1 X92.545 Y124.004 E.01686
G1 X92.545 Y119.918 E.20846
G1 X92.529 Y119.622 E.01513
;WIDTH:0.428327
G1 X92.513 Y119.326 E.01391
;WIDTH:0.398604
G1 X92.561 Y118.769 E.02404
G1 X92.71 Y118.392 E.01746
;WIDTH:0.424061
G1 X92.891 Y118.172 E.01319
;WIDTH:0.467189
G1 X92.974 Y118.134 E.00474
;WIDTH:0.510317
G1 X93.056 Y118.095 E.00525
;WIDTH:0.553445
G1 X93.139 Y118.057 E.00577
;WIDTH:0.596573
G1 X93.222 Y118.018 E.00628
G1 X93.192 Y118.093 E.00555
;WIDTH:0.553445
G1 X93.163 Y118.168 E.0051
;WIDTH:0.510317
G1 X93.133 Y118.243 E.00464
;WIDTH:0.467189
G1 X93.103 Y118.318 E.00419
;WIDTH:0.424061
G1 X93.011 Y118.506 E.00967
;WIDTH:0.398604
G1 X92.884 Y118.829 E.01494
G1 X92.841 Y119.326 E.02146
;WIDTH:0.428327
G1 X92.894 Y119.592 E.01269
;WIDTH:0.46
G1 X92.947 Y119.857 E.01381
G1 X93.274 Y120.337 E.02964
G1 X93.753 Y120.671 E.02976
G1 X94.158 Y120.798 E.02169
G1 X94.638 Y120.809 E.02448
G1 X95.187 Y120.632 E.0294
G1 X95.556 Y120.352 E.02367
G1 X95.84 Y119.988 E.02353
G1 X96.011 Y119.499 E.02643
G1 X96.037 Y119.077 E.0216
G1 X95.899 Y118.545 E.02805
G1 X95.681 Y118.182 E.0216
G1 X95.4 Y117.911 E.01991
G1 X95.063 Y117.73 E.01954
G1 X124.925 Y117.735 E1.52358
G1 X124.569 Y117.939 E.02091
M73 P2 R11
G1 X124.299 Y118.215 E.01968
G1 X124.089 Y118.564 E.02079
G1 X123.98 Y118.936 E.01981
G1 X123.963 Y119.326 E.01991
G1 X124.039 Y119.709 E.01991
G1 X124.301 Y120.192 E.02805
G1 X124.66 Y120.539 E.02548
G1 X125.161 Y120.766 E.02806
G1 X125.702 Y120.815 E.02772
G1 X126.232 Y120.678 E.02795
G1 X126.712 Y120.35 E.02963
G1 X127.046 Y119.872 E.02976
G1 X127.098 Y119.666 E.01082
;WIDTH:0.434651
G1 X127.149 Y119.461 E.01012
;WIDTH:0.409302
G1 X127.143 Y118.944 E.02295
;WIDTH:0.435557
G1 X126.909 Y118.3 E.03278
;WIDTH:0.481589
G1 X126.878 Y118.231 E.00406
;WIDTH:0.527622
G1 X126.846 Y118.163 E.00451
;WIDTH:0.573654
G1 X126.815 Y118.094 E.00496
;WIDTH:0.619687
G1 X126.783 Y118.026 E.00541
G1 X126.873 Y118.057 E.00682
;WIDTH:0.572991
G1 X126.934 Y118.091 E.0046
;WIDTH:0.532604
G1 X126.995 Y118.125 E.00423
;WIDTH:0.492217
G1 X127.056 Y118.159 E.00386
;WIDTH:0.451831
G1 X127.117 Y118.194 E.0035
;WIDTH:0.411444
G1 X127.178 Y118.228 E.00313
;WIDTH:0.395861
G1 X127.403 Y118.637 E.01991
;WIDTH:0.396656
G1 X127.487 Y119.139 E.02179
;WIDTH:0.402106
G1 X127.484 Y119.451 E.01357
;WIDTH:0.431053
G1 X127.47 Y119.719 E.01266
;WIDTH:0.46
G1 X127.455 Y119.986 E.01367
G1 X127.457 Y124.072 E.20845
;WIDTH:0.457234
G1 X127.472 Y124.389 E.01608
;WIDTH:0.427325
G1 X127.487 Y124.706 E.01484
;WIDTH:0.397417
G1 X127.433 Y125.251 E.02348
;WIDTH:0.393344
G1 X127.26 Y125.649 E.01835
;WIDTH:0.429095
G1 X127.107 Y125.818 E.0107
;WIDTH:0.472063
G1 X127.026 Y125.855 E.00466
;WIDTH:0.515032
G1 X126.946 Y125.892 E.00516
;WIDTH:0.558
G1 X126.865 Y125.929 E.00565
;WIDTH:0.600969
G1 X126.785 Y125.966 E.00615
G1 X126.817 Y125.894 E.00541
;WIDTH:0.558
G1 X126.848 Y125.823 E.00497
;WIDTH:0.515032
G1 X126.88 Y125.752 E.00454
;WIDTH:0.472063
G1 X126.912 Y125.681 E.0041
;WIDTH:0.429095
G1 X127.118 Y125.172 E.02582
;WIDTH:0.396782
G1 X127.159 Y124.663 E.02181
;WIDTH:0.427008
G1 X127.105 Y124.399 E.01262
;WIDTH:0.457234
G1 X127.051 Y124.134 E.01369
;WIDTH:0.46
G1 X126.955 Y123.947 E.01075
G1 X126.726 Y123.654 E.01898
G1 X126.247 Y123.32 E.02976
G1 X125.906 Y123.208 E.0183
G1 X125.452 Y123.175 E.02325
G1 X125.014 Y123.268 E.02285
G1 X124.523 Y123.557 E.02906
G1 X124.198 Y123.948 E.02593
G1 X124.1 Y124.135 E.0108
G1 X123.964 Y124.702 E.02971
G1 X124.024 Y125.246 E.02794
G1 X124.199 Y125.632 E.02165
G1 X124.558 Y126.047 E.028
G1 X124.886 Y126.258 E.0199
G1 X124.74 Y126.261 E.00749
G1 X119.69 Y126.261 E.25762
G1 X119.205 Y126.215 E.02489
G1 X118.807 Y126.044 E.02207
G1 X116.126 Y124.04 E.17081
G1 X115.75 Y123.856 E.02134
G1 X115.706 Y123.848 E.00231
G1 X115.588 Y124.212 F9000
;TYPE:Outer wall
G1 F1800
G1 X115.117 Y124.133 E.02437
G1 X104.882 Y124.133 E.52218
G1 X104.589 Y124.164 E.01506
G1 X104.286 Y124.26 E.01622
G1 X103.995 Y124.43 E.01718
G1 X101.405 Y126.374 E.16522
G1 X101.016 Y126.559 E.02199
G1 X100.594 Y126.646 E.02201
G1 X95.08 Y126.651 E.28132
;WIDTH:0.501607
G1 X94.892 Y126.631 E.01065
;WIDTH:0.543214
G1 X94.705 Y126.61 E.01168
;WIDTH:0.584821
G1 X94.517 Y126.589 E.0127
G1 X94.233 Y126.603 E.01913
;WIDTH:0.543214
G1 X93.949 Y126.617 E.01759
;WIDTH:0.501607
G1 X93.665 Y126.63 E.01604
;WIDTH:0.46
G1 X93.231 Y126.497 E.02318
G1 X92.796 Y126.24 E.02577
G1 X92.441 Y125.847 E.02703
G1 X92.227 Y125.372 E.02654
G1 X92.153 Y124.869 E.02594
G1 X92.153 Y119.122 E.29326
G1 X92.227 Y118.619 E.02592
G1 X92.442 Y118.14 E.02677
G1 X92.797 Y117.748 E.027
G1 X93.26 Y117.472 E.02748
G1 X93.725 Y117.364 E.02438
;WIDTH:0.495545
G1 X93.864 Y117.373 E.00774
;WIDTH:0.53109
G1 X94.003 Y117.382 E.00838
;WIDTH:0.566635
G1 X94.141 Y117.391 E.00902
;WIDTH:0.596399
G1 X94.703 Y117.406 E.03866
G1 X94.892 Y117.384 E.0131
;WIDTH:0.550932
G1 X95.081 Y117.361 E.01197
;WIDTH:0.505466
G1 X95.27 Y117.338 E.01084
;WIDTH:0.46
G1 X124.729 Y117.344 E1.50305
;WIDTH:0.505695
G1 X124.899 Y117.367 E.00973
;WIDTH:0.55139
G1 X125.068 Y117.39 E.01074
;WIDTH:0.597085
G1 X125.237 Y117.413 E.01176
G1 X125.824 Y117.411 E.04045
;WIDTH:0.592971
G1 X125.941 Y117.391 E.00812
;WIDTH:0.55359
G1 X126.058 Y117.371 E.00751
;WIDTH:0.514209
G1 X126.176 Y117.352 E.0069
;WIDTH:0.474828
G1 X126.464 Y117.386 E.0154
;WIDTH:0.46
G1 X126.922 Y117.554 E.02487
G1 X127.296 Y117.835 E.02385
G1 X127.634 Y118.269 E.02811
G1 X127.81 Y118.773 E.0272
G1 X127.847 Y119.139 E.0188
G1 X127.847 Y124.851 E.29142
G1 X127.78 Y125.339 E.02514
G1 X127.556 Y125.853 E.0286
G1 X127.265 Y126.185 E.02248
G1 X126.834 Y126.474 E.02648
G1 X126.364 Y126.628 E.02524
;WIDTH:0.504122
G1 X126.185 Y126.614 E.01019
;WIDTH:0.548244
G1 X126.007 Y126.6 E.01122
;WIDTH:0.592366
G1 X125.828 Y126.586 E.01225
;WIDTH:0.59636
G1 X125.298 Y126.584 E.03647
G1 X125.161 Y126.607 E.00956
;WIDTH:0.550906
G1 X125.023 Y126.63 E.00874
;WIDTH:0.505453
G1 X124.886 Y126.652 E.00791
;WIDTH:0.46
G1 X119.69 Y126.652 E.26511
G1 X119.118 Y126.599 E.02932
G1 X118.598 Y126.376 E.02889
G1 X115.892 Y124.353 E.17238
G1 X115.624 Y124.229 E.01505
G1 E-.84
;WIPE_START
G1 X115.117 Y124.133 E-.18587
G1 X114.633 Y124.133 E-.17413
;WIPE_END
G1 Z.72 F9000
G1 X125.439 Y117.935 Z.72
G1 Z.32
G1 E1.2 F1800
;WIDTH:0.593112
G1 X125.824 Y117.935 E.0263
;WIDTH:0.592972
G1 X125.971 Y118.017 E.01151
;WIDTH:0.548648
G1 X126.118 Y118.1 E.01054
;WIDTH:0.504324
G1 X126.265 Y118.182 E.00957
;WIDTH:0.46
G1 X126.614 Y118.547 E.02578
G1 X126.741 Y118.816 E.01515
G1 X126.799 Y119.139 E.01677
G1 X126.794 Y119.373 E.01193
G1 X126.711 Y119.67 E.0157
G1 X126.471 Y120.042 E.02262
G1 X126.116 Y120.304 E.02252
G1 X125.692 Y120.424 E.02248
G1 X125.264 Y120.388 E.02188
G1 X124.859 Y120.199 E.02279
G1 X124.636 Y119.99 E.01564
G1 X124.419 Y119.615 E.02206
G1 X124.354 Y119.326 E.01512
G1 X124.36 Y119.03 E.01512
G1 X124.436 Y118.744 E.01508
G1 X124.578 Y118.489 E.01493
G1 X124.908 Y118.172 E.02331
;WIDTH:0.50437
G1 X125.048 Y118.093 E.00914
;WIDTH:0.548741
G1 X125.188 Y118.014 E.01007
;WIDTH:0.593112
G1 X125.328 Y117.935 E.011
G1 X125.399 Y117.935 E.00489
G1 X126.399 Y117.791 F9000
;TYPE:Inner wall
;WIDTH:0.538749
G1 F1800
G1 X126.527 Y117.869 E.0092
;WIDTH:0.579218
G1 X126.655 Y117.948 E.00999
;WIDTH:0.619687
G1 X126.783 Y118.026 E.01078
G1 E-.84
;WIPE_START
G1 X126.655 Y117.948 E-.12
G1 X126.527 Y117.869 E-.12
G1 X126.399 Y117.791 E-.12
;WIPE_END
G1 Z.72 F9000
G1 X125.718 Y126.069 Z.72
G1 Z.32
G1 E1.2 F1800
;TYPE:Outer wall
;WIDTH:0.59636
G1 X125.313 Y126.057 E.02782
G1 X125.136 Y125.946 E.0144
;WIDTH:0.550906
G1 X124.958 Y125.836 E.01316
;WIDTH:0.505453
G1 X124.78 Y125.725 E.01192
;WIDTH:0.46
G1 X124.478 Y125.339 E.02502
G1 X124.377 Y125.05 E.01564
G1 X124.363 Y124.607 E.02258
G1 X124.489 Y124.215 E.02104
G1 X124.788 Y123.848 E.02416
G1 X125.163 Y123.632 E.02206
G1 X125.452 Y123.566 E.01512
G1 X125.813 Y123.588 E.01845
G1 X126.045 Y123.654 E.01231
G1 X126.417 Y123.895 E.02262
G1 X126.679 Y124.25 E.02252
G1 X126.799 Y124.675 E.02252
G1 X126.76 Y125.116 E.02258
G1 X126.574 Y125.507 E.02206
G1 X126.365 Y125.73 E.01564
;WIDTH:0.504122
G1 X126.165 Y125.844 E.01305
;WIDTH:0.548244
G1 X125.965 Y125.957 E.01437
;WIDTH:0.592366
G1 X125.765 Y126.07 E.01569
;WIDTH:0.59636
G1 X125.758 Y126.07 E.00051
G1 X126.785 Y125.966 F9000
;TYPE:Inner wall
;WIDTH:0.600969
G1 F1800
G1 X126.591 Y126.104 E.01652
;WIDTH:0.551657
G1 X126.467 Y126.156 E.00846
;WIDTH:0.513614
G1 X126.343 Y126.207 E.00779
;WIDTH:0.475571
G1 X126.219 Y126.259 E.00713
M73 P3 R11
G1 E-.84
;WIPE_START
G1 X126.343 Y126.207 E-.07544
G1 X126.467 Y126.156 E-.07544
G1 X126.591 Y126.104 E-.07544
G1 X126.785 Y125.966 E-.13367
;WIPE_END
G1 Z.72 F9000
G1 X94.48 Y126.071 Z.72
G1 Z.32
G1 E1.2 F1800
;TYPE:Outer wall
;WIDTH:0.596365
G1 X94.16 Y126.057 E.02203
G1 X94.009 Y125.967 E.01211
;WIDTH:0.550909
G1 X93.857 Y125.877 E.01107
;WIDTH:0.505454
G1 X93.706 Y125.787 E.01002
;WIDTH:0.46
G1 X93.468 Y125.557 E.0169
G1 X93.347 Y125.382 E.01085
G1 X93.201 Y124.914 E.02502
G1 X93.206 Y124.618 E.01512
G1 X93.289 Y124.321 E.01571
G1 X93.529 Y123.949 E.02262
G1 X93.884 Y123.687 E.02252
G1 X94.299 Y123.566 E.02202
G1 X94.609 Y123.577 E.01586
G1 X95.029 Y123.723 E.02267
G1 X95.359 Y123.993 E.02177
G1 X95.522 Y124.239 E.01506
G1 X95.623 Y124.529 E.01564
G1 X95.637 Y124.971 E.02258
G1 X95.501 Y125.381 E.02206
G1 X95.319 Y125.628 E.01564
G1 X94.963 Y125.891 E.02258
;WIDTH:0.501607
G1 X94.82 Y125.952 E.00881
;WIDTH:0.543214
G1 X94.676 Y126.013 E.00965
;WIDTH:0.584821
G1 X94.532 Y126.074 E.0105
;WIDTH:0.596365
G1 X94.52 Y126.073 E.00088
G1 X93.698 Y126.232 F9000
;TYPE:Inner wall
;WIDTH:0.497555
G1 F1800
G1 X93.587 Y126.193 E.00657
G1 E-1.08256
;WIPE_START
G1 X93.698 Y126.232 E-.11744
;WIPE_END
G1 Z.72 F9000
G1 X94.345 Y117.918 Z.72
G1 Z.32
G1 E1.2 F1800
;TYPE:Outer wall
;WIDTH:0.596399
G1 X94.687 Y117.934 E.02357
G1 X94.838 Y118.024 E.01211
;WIDTH:0.550932
G1 X94.99 Y118.114 E.01107
;WIDTH:0.505466
G1 X95.141 Y118.204 E.01002
;WIDTH:0.46
G1 X95.359 Y118.404 E.01512
G1 X95.526 Y118.661 E.01564
G1 X95.646 Y119.077 E.02206
G1 X95.637 Y119.383 E.01564
G1 X95.501 Y119.793 E.02206
G1 X95.315 Y120.044 E.01592
G1 X94.958 Y120.305 E.02256
G1 X94.547 Y120.424 E.02183
G1 X94.187 Y120.403 E.01839
G1 X93.955 Y120.336 E.01231
G1 X93.583 Y120.096 E.02262
G1 X93.321 Y119.74 E.02252
G1 X93.201 Y119.326 E.02201
G1 X93.235 Y118.915 E.02103
G1 X93.315 Y118.69 E.01223
G1 X93.529 Y118.361 E.02002
G1 X93.884 Y118.099 E.02252
;WIDTH:0.50169
G1 X94.028 Y118.038 E.00879
;WIDTH:0.543381
G1 X94.171 Y117.977 E.00963
;WIDTH:0.585072
G1 X94.306 Y117.92 E.00984
G1 X93.222 Y118.018 F9000
;TYPE:Inner wall
;WIDTH:0.596573
G1 F1800
G1 X93.404 Y117.893 E.01524
G1 E-.97854
;WIPE_START
G1 X93.222 Y118.018 E-.22146
;WIPE_END
G1 Z.72 F9000
G1 X126.791 Y120.488
G1 Z.72
G1 Z.32
G1 E1.2 F1800
;TYPE:Bottom surface
;WIDTH:0.460752
G1 F4800
G1 X127.123 Y120.82 E.02405
G1 X127.124 Y121.375 E.02836
G1 X126.603 Y120.855 E.03761
G1 X126.343 Y120.991 E.01502
G1 X126.223 Y121.029 E.00644
G1 X127.124 Y121.93 E.06514
G1 X127.124 Y122.485 E.02836
G1 X125.605 Y120.965 E.10985
G1 E-.84 F1800
;WIPE_START
G1 F4800
G1 X126.312 Y121.672 E-.36
;WIPE_END
G1 Z.72 F9000
G1 X124.049 Y118.301 Z.72
G1 Z.32
G1 E1.2 F1800
G1 F4800
G1 X123.816 Y118.068 E.01683
G1 X123.262 Y118.068 E.02835
G1 X123.741 Y118.547 E.03464
G1 X123.655 Y118.865 E.01684
G1 X123.638 Y118.999 E.00691
G1 X122.707 Y118.068 E.06733
G1 X122.152 Y118.067 E.02835
G1 X123.665 Y119.58 E.10934
G1 X123.719 Y119.798 E.01147
G1 X123.808 Y120.021 E.01228
G1 X124.102 Y120.485 E.0281
G1 X124.474 Y120.817 E.02549
G1 X124.979 Y121.053 E.02848
G1 X125.201 Y121.116 E.01178
G1 X127.125 Y123.04 E.13911
G1 X127.125 Y123.595 E.02836
G1 X121.598 Y118.067 E.39958
G1 X121.043 Y118.067 E.02835
G1 X125.834 Y122.858 E.34631
G1 X125.444 Y122.843 E.01996
G1 X125.284 Y122.862 E.00824
G1 X120.489 Y118.067 E.34664
G1 X119.934 Y118.067 E.02835
G1 X124.847 Y122.98 E.35519
G1 X124.496 Y123.184 E.02074
G1 X119.38 Y118.067 E.3699
G1 X118.825 Y118.067 E.02835
G1 X124.185 Y123.427 E.38749
G1 X123.941 Y123.738 E.02019
G1 X118.27 Y118.067 E.40998
G1 X117.716 Y118.067 E.02835
G1 X123.759 Y124.11 E.4369
G1 X123.668 Y124.405 E.01578
G1 X123.65 Y124.555 E.00773
G1 X117.161 Y118.066 E.46907
G1 X116.607 Y118.066 E.02835
G1 X123.658 Y125.118 E.50978
G1 X123.709 Y125.354 E.01236
G1 X123.804 Y125.606 E.01376
G1 X123.931 Y125.83 E.01317
G1 X124.01 Y125.929 E.00644
G1 X123.914 Y125.929 E.00488
G1 X116.052 Y118.066 E.56839
