; HEADER_BLOCK_START
; generated by Creality_Print V5.1.2.9904 on 2024-12-16 at 09:45:48
; total layer number: 27
; filament_density: 0
; filament_diameter: 1.75
; max_z_height: 5.52
; HEADER_BLOCK_END

; MINX = 81.01
; MINY = 98.89
; MINZ = -0.00
; MAXX = 138.99
; MAXY = 126.88
; MAXZ = 5.62

; THUMBNAIL_BLOCK_START

;
; THUMBNAIL_BLOCK_END

; THUMBNAIL_BLOCK_START

;
; THUMBNAIL_BLOCK_END

; external perimeters extrusion width = 0.42mm
; perimeters extrusion width = 0.45mm
; infill extrusion width = 0.45mm
; solid infill extrusion width = 0.42mm
; top infill extrusion width = 0.42mm
; first layer extrusion width = 0.46mm

; external perimeters extrusion width = 0.42mm
; perimeters extrusion width = 0.45mm
; infill extrusion width = 0.45mm
; solid infill extrusion width = 0.42mm
; top infill extrusion width = 0.42mm
; first layer extrusion width = 0.46mm

; external perimeters extrusion width = 0.42mm
; perimeters extrusion width = 0.45mm
; infill extrusion width = 0.45mm
; solid infill extrusion width = 0.42mm
; top infill extrusion width = 0.42mm
; first layer extrusion width = 0.46mm

; EXECUTABLE_BLOCK_START
M73 P0 R12
M201 X5000 Y5000 Z500 E5000
M203 X500 Y500 Z30 E100
M204 P5000 R2500 T5000 ; sets acceleration (P, T) and retract acceleration (R), mm/sec^2
M205 X10.00 Y10.00 Z0.40 E5.00 ; sets the jerk limits, mm/sec
;TYPE:Custom
M220 S100 ;Reset Feedrate 
M221 S100 ;Reset Flowrate 
 
M140 S45 ;Set final bed temp 
G28 ;Home 
 
G92 E0 ;Reset Extruder 
G1 Z2.0 F3000 ;Move Z Axis up 
M104 S200 ;Set final nozzle temp 
G1 X-2.1 Y20 Z0.28 F5000.0 ;Move to start position 
M190 S45 ;Wait for bed temp to stabilize 
M109 S200 ;Wait for nozzle temp to stabilize 
G1 X-2.1 Y145.0 Z0.28 F1500.0 E15 ;Draw the first line 
G1 X-2.4 Y145.0 Z0.28 F5000.0 ;Move to side a little 
G1 X-2.4 Y20 Z0.28 F1500.0 E30 ;Draw the second line 
G92 E0  ;Reset Extruder 
G1 E-1.0000 F1800 ;Retract a bit 
M73 P1 R12
G1 Z2.0 F3000 ;Move Z Axis up 
G1 E0.0000 F1800
G90
G21
M83 ; use relative distances for extrusion
M106 S0
;LAYER_CHANGE
;Z:0.32
;HEIGHT:0.32
;BEFORE_LAYER_CHANGE
;0.32
G92 E0

G1 E-1.2 F1800
;_SET_FAN_SPEED_CHANGING_LAYER
M204 P500
M205 X8 Y8
; printing object Upper Support for 50mm Front Lower Base.stl id:1911260447164 copy 0
M204 T500
G1 Z.4 F9000
G1 X115.526 Y123.803
G1 Z.4
G1 Z.32
G1 E1.2 F1800
;TYPE:Inner wall
;WIDTH:0.46
G1 X115.118 Y123.744 E.02102
G1 X104.882 Y123.744 E.52224
G1 X104.547 Y123.776 E.01721
G1 X104.161 Y123.891 E.0205
G1 X103.76 Y124.119 E.02355
G1 X101.192 Y126.047 E.16382
G1 X100.893 Y126.178 E.01669
G1 X100.429 Y126.263 E.02404
G1 X93.482 Y126.263 E.35445
G1 X93.179 Y126.282 E.01548
;WIDTH:0.421394
G1 X92.876 Y126.302 E.01395
;WIDTH:0.424011
G1 X93.077 Y126.248 E.00963
;WIDTH:0.46
G1 X93.425 Y126.058 E.0202
G1 X93.591 Y125.907 E.01145
G1 X93.827 Y125.59 E.02018
G1 X93.996 Y125.174 E.0229
G1 X94.026 Y124.592 E.02974
G1 X93.982 Y124.371 E.01146
G1 X93.834 Y124.005 E.02018
G1 X93.707 Y123.813 E.0117
G1 X93.349 Y123.461 E.02563
G1 X92.9 Y123.25 E.02535
G1 X92.535 Y123.175 E.01901
G1 X92.023 Y123.222 E.02624
G1 X91.491 Y123.475 E.03004
G1 X91.171 Y123.766 E.02205
G1 X90.9 Y124.277 E.02955
;WIDTH:0.446308
G1 X90.862 Y124.492 E.01076
;WIDTH:0.410657
G1 X90.859 Y125.06 E.0253
;WIDTH:0.397258
G1 X91.006 Y125.479 E.01901
;WIDTH:0.416187
G1 X91.068 Y125.605 E.00639
;WIDTH:0.45145
G1 X91.129 Y125.732 E.00704
;WIDTH:0.497302
G1 X91.168 Y125.82 E.00536
;WIDTH:0.543154
G1 X91.206 Y125.908 E.00594
;WIDTH:0.589007
G1 X91.245 Y125.996 E.00651
G1 X91.167 Y125.956 E.00596
;WIDTH:0.546068
G1 X91.088 Y125.916 E.00546
;WIDTH:0.503129
G1 X91.01 Y125.877 E.00497
;WIDTH:0.46019
G1 X90.932 Y125.837 E.00448
;WIDTH:0.417251
G1 X90.853 Y125.797 E.00399
;WIDTH:0.391805
G1 X90.627 Y125.429 E.01822
;WIDTH:0.39261
G1 X90.523 Y125 E.01864
;WIDTH:0.410657
G1 X90.52 Y124.481 E.02312
;WIDTH:0.46
G1 X90.545 Y123.799 E.03482
G1 X90.545 Y119.965 E.19565
G1 X90.53 Y119.55 E.02115
;WIDTH:0.431292
G1 X90.516 Y119.136 E.0196
;WIDTH:0.402585
G1 X90.596 Y118.642 E.02178
;WIDTH:0.394686
G1 X90.824 Y118.236 E.01981
;WIDTH:0.417465
G1 X90.891 Y118.198 E.0035
;WIDTH:0.461152
G1 X90.958 Y118.16 E.00394
;WIDTH:0.50484
G1 X91.025 Y118.123 E.00438
;WIDTH:0.548527
G1 X91.093 Y118.085 E.00482
;WIDTH:0.592215
G1 X91.16 Y118.047 E.00526
G1 X91.143 Y118.116 E.00484
;WIDTH:0.549394
G1 X91.125 Y118.185 E.00444
;WIDTH:0.506574
G1 X91.108 Y118.254 E.00404
;WIDTH:0.463753
G1 X91.091 Y118.322 E.00365
;WIDTH:0.420933
G1 X90.888 Y118.798 E.02374
;WIDTH:0.397114
G1 X90.842 Y119.336 E.02312
;WIDTH:0.428557
G1 X90.903 Y119.616 E.01347
;WIDTH:0.46
G1 X90.965 Y119.897 E.01465
G1 X91.075 Y120.092 E.01142
G1 X91.331 Y120.393 E.02017
G1 X91.7 Y120.651 E.023
G1 X92.261 Y120.81 E.02974
G1 X92.747 Y120.792 E.02482
G1 X93.228 Y120.599 E.02643
G1 X93.431 Y120.467 E.01236
G1 X93.778 Y120.095 E.02593
G1 X93.987 Y119.601 E.02736
G1 X94.028 Y119.378 E.01159
G1 X94.022 Y118.983 E.02016
G1 X93.978 Y118.768 E.01119
G1 X93.833 Y118.415 E.01947
G1 X93.707 Y118.226 E.01157
G1 X93.42 Y117.935 E.02087
G1 X93.06 Y117.732 E.02111
G1 X126.903 Y117.738 E1.72674
G1 X126.732 Y117.828 E.00988
G1 X126.422 Y118.075 E.02024
G1 X126.276 Y118.246 E.01146
G1 X126.083 Y118.591 E.02018
G1 X126.012 Y118.804 E.01145
G1 X125.962 Y119.196 E.02018
G1 X125.977 Y119.42 E.01145
G1 X126.133 Y119.94 E.02768
G1 X126.447 Y120.364 E.02692
G1 X126.916 Y120.676 E.02875
G1 X127.126 Y120.754 E.01141
G1 X127.622 Y120.824 E.0256
G1 X127.924 Y120.768 E.01567
G1 X128.332 Y120.631 E.02193
G1 X128.656 Y120.404 E.02018
G1 X128.811 Y120.244 E.01142
G1 X129.027 Y119.912 E.02018
G1 X129.112 Y119.704 E.01148
G1 X129.138 Y119.454 E.01283
;WIDTH:0.426487
G1 X129.164 Y119.203 E.01173
;WIDTH:0.392974
G1 X129.078 Y118.71 E.02119
;WIDTH:0.390805
G1 X128.972 Y118.477 E.01075
;WIDTH:0.427591
G1 X128.928 Y118.381 E.00492
;WIDTH:0.469563
G1 X128.885 Y118.285 E.0055
;WIDTH:0.511535
G1 X128.842 Y118.189 E.00607
;WIDTH:0.553507
G1 X128.799 Y118.093 E.00665
;WIDTH:0.595479
G1 X128.756 Y117.997 E.00722
G1 X128.829 Y118.029 E.00547
;WIDTH:0.557308
M73 P2 R12
G1 X128.902 Y118.061 E.00507
;WIDTH:0.519138
G1 X128.975 Y118.093 E.00467
;WIDTH:0.480967
G1 X129.048 Y118.124 E.00428
;WIDTH:0.442797
G1 X129.137 Y118.206 E.0059
;WIDTH:0.414208
G1 X129.226 Y118.289 E.00545
;WIDTH:0.390805
G1 X129.39 Y118.631 E.01593
;WIDTH:0.394254
G1 X129.489 Y119.203 E.02468
;WIDTH:0.426487
G1 X129.472 Y119.47 E.01246
;WIDTH:0.459948
G1 X129.455 Y119.737 E.01363
G1 X129.455 Y124.03 E.21903
G1 X129.469 Y124.444 E.02111
;WIDTH:0.431049
G1 X129.483 Y124.857 E.01955
;WIDTH:0.40215
G1 X129.401 Y125.352 E.02181
;WIDTH:0.392277
G1 X129.179 Y125.767 E.01984
;WIDTH:0.425549
G1 X129.101 Y125.805 E.00404
;WIDTH:0.472388
G1 X129.023 Y125.843 E.00457
;WIDTH:0.519228
G1 X128.945 Y125.881 E.0051
;WIDTH:0.566067
G1 X128.867 Y125.92 E.00563
;WIDTH:0.612907
G1 X128.789 Y125.958 E.00616
G1 X128.814 Y125.897 E.00466
;WIDTH:0.572667
G1 X128.839 Y125.836 E.00431
;WIDTH:0.532428
G1 X128.864 Y125.775 E.00397
;WIDTH:0.492189
G1 X128.888 Y125.715 E.00363
;WIDTH:0.45195
G1 X128.913 Y125.654 E.00328
;WIDTH:0.411711
G1 X129.116 Y125.183 E.02294
;WIDTH:0.397257
G1 X129.158 Y124.658 E.02257
;WIDTH:0.428602
G1 X129.096 Y124.378 E.01344
;WIDTH:0.46
G1 X129.035 Y124.098 E.01462
G1 X128.925 Y123.903 E.01141
G1 X128.669 Y123.602 E.02018
G1 X128.493 Y123.462 E.01148
G1 X127.977 Y123.222 E.02904
G1 X127.63 Y123.186 E.01777
G1 X127.312 Y123.199 E.01625
G1 X126.828 Y123.353 E.02592
G1 X126.423 Y123.662 E.02601
G1 X126.287 Y123.817 E.01052
G1 X126.043 Y124.266 E.02607
G1 X125.962 Y124.784 E.02675
G1 X125.977 Y125.008 E.01144
G1 X126.077 Y125.389 E.02012
G1 X126.174 Y125.591 E.01141
G1 X126.545 Y126.039 E.02967
G1 X126.895 Y126.261 E.02114
G1 X119.571 Y126.263 E.37367
G1 X119.182 Y126.199 E.02012
G1 X118.807 Y126.046 E.02064
G1 X116.127 Y124.042 E.17075
G1 X115.607 Y123.814 E.02897
G1 X115.565 Y123.808 E.00214
G1 X115.478 Y124.184 F9000
;TYPE:Outer wall
G1 F1800
G1 X115.463 Y124.178 E.00084
G1 X115.118 Y124.135 E.01772
G1 X104.882 Y124.135 E.52223
G1 X104.589 Y124.166 E.01506
G1 X104.286 Y124.262 E.01622
G1 X103.995 Y124.432 E.01718
G1 X102.277 Y125.722 E.10961
G1 X101.292 Y126.436 E.06207
G1 X100.928 Y126.575 E.01988
G1 X100.445 Y126.654 E.02498
G1 X92.276 Y126.654 E.41677
G1 X91.508 Y126.598 E.03931
G1 X91.085 Y126.435 E.02314
G1 X90.676 Y126.138 E.02579
G1 X90.366 Y125.715 E.02677
G1 X90.195 Y125.242 E.02566
G1 X90.153 Y124.874 E.01886
G1 X90.153 Y119.461 E.2762
G1 X90.177 Y118.849 E.03126
G1 X90.305 Y118.41 E.0233
G1 X90.547 Y118.024 E.02328
G1 X90.803 Y117.75 E.01912
G1 X91.28 Y117.468 E.02827
G1 X91.651 Y117.365 E.01966
;WIDTH:0.506427
G1 X91.823 Y117.38 E.00984
;WIDTH:0.552854
G1 X91.995 Y117.395 E.01089
;WIDTH:0.599281
G1 X92.738 Y117.409 E.05141
;WIDTH:0.597228
G1 X92.91 Y117.386 E.01194
;WIDTH:0.551485
G1 X93.082 Y117.363 E.01091
;WIDTH:0.505742
G1 X93.253 Y117.34 E.00988
;WIDTH:0.46
G1 X126.934 Y117.347 E1.71841
;WIDTH:0.500018
G1 X127.121 Y117.367 E.01058
;WIDTH:0.540036
G1 X127.308 Y117.387 E.01156
;WIDTH:0.580054
G1 X127.495 Y117.407 E.01254
G1 X127.723 Y117.387 E.01531
;WIDTH:0.540036
G1 X127.952 Y117.367 E.01411
;WIDTH:0.500018
G1 X128.181 Y117.347 E.01291
;WIDTH:0.46
G1 X128.535 Y117.402 E.01829
G1 X128.966 Y117.588 E.02393
G1 X129.356 Y117.893 E.02524
G1 X129.65 Y118.31 E.02604
G1 X129.802 Y118.751 E.0238
G1 X129.847 Y119.143 E.02013
G1 X129.847 Y124.658 E.28138
G1 X129.808 Y125.165 E.02597
G1 X129.68 Y125.632 E.0247
G1 X129.414 Y126.032 E.02448
G1 X129.074 Y126.329 E.02305
G1 X128.716 Y126.531 E.02099
G1 X128.349 Y126.63 E.01938
;WIDTH:0.503837
G1 X128.177 Y126.616 E.00981
;WIDTH:0.547675
G1 X128.004 Y126.602 E.0108
;WIDTH:0.591513
G1 X127.832 Y126.589 E.01179
;WIDTH:0.593943
G1 X127.33 Y126.588 E.03439
G1 X127.185 Y126.61 E.01005
;WIDTH:0.549295
G1 X127.04 Y126.632 E.0092
;WIDTH:0.504647
G1 X126.895 Y126.654 E.00834
;WIDTH:0.46
G1 X119.474 Y126.648 E.37861
G1 X119 Y126.554 E.02463
G1 X118.598 Y126.378 E.02242
G1 X115.892 Y124.356 E.17233
G1 X115.515 Y124.2 E.02085
G1 E-.84
;WIPE_START
G1 X115.463 Y124.178 E-.02033
G1 X115.118 Y124.135 E-.12506
G1 X114.522 Y124.135 E-.21461
;WIPE_END
G1 Z.72 F9000
G1 X127.305 Y117.992 Z.72
G1 Z.32
G1 E1.2 F1800
;WIDTH:0.540036
G1 X127.339 Y117.978 E.00225
;WIDTH:0.580054
G1 X127.487 Y117.918 E.01065
;WIDTH:0.584234
G1 X127.749 Y117.924 E.01764
G1 X127.904 Y118 E.01162
;WIDTH:0.542822
G1 X128.06 Y118.076 E.01069
;WIDTH:0.501411
G1 X128.215 Y118.152 E.00975
;WIDTH:0.46
G1 X128.483 Y118.376 E.01782
G1 X128.728 Y118.778 E.02401
G1 X128.803 Y119.241 E.02393
G1 X128.7 Y119.699 E.02395
G1 X128.432 Y120.083 E.02393
G1 X128.039 Y120.34 E.02394
G1 X127.578 Y120.431 E.02398
G1 X127.118 Y120.342 E.02387
G1 X126.725 Y120.087 E.02389
G1 X126.456 Y119.703 E.02394
G1 X126.35 Y119.246 E.02394
G1 X126.424 Y118.783 E.02394
G1 X126.666 Y118.381 E.02394
G1 X127.043 Y118.098 E.02401
;WIDTH:0.500018
G1 X127.191 Y118.038 E.00898
;WIDTH:0.540036
G1 X127.268 Y118.007 E.00511
G1 X128.635 Y117.913 F9000
;TYPE:Inner wall
;WIDTH:0.595479
G1 F1800
G1 X128.756 Y117.997 E.01015
G1 E-1.05222
;WIPE_START
G1 X128.635 Y117.913 E-.14778
;WIPE_END
G1 Z.72 F9000
G1 X126.609 Y124.063 Z.72
G1 Z.32
G1 E1.2 F1800
;TYPE:Outer wall
;WIDTH:0.46
G1 X126.667 Y123.968 E.00566
G1 X127.043 Y123.686 E.02396
G1 X127.497 Y123.567 E.02399
G1 X127.961 Y123.626 E.02387
G1 X128.371 Y123.856 E.02395
G1 X128.664 Y124.222 E.02393
G1 X128.798 Y124.67 E.02388
G1 X128.754 Y125.137 E.02394
G1 X128.537 Y125.555 E.02401
G1 X128.178 Y125.861 E.02408
;WIDTH:0.502569
G1 X128.03 Y125.931 E.00927
;WIDTH:0.545139
G1 X127.882 Y126.001 E.01018
;WIDTH:0.587709
G1 X127.734 Y126.072 E.01109
;WIDTH:0.593943
G1 X127.338 Y126.062 E.02709
G1 X127.148 Y125.947 E.01519
;WIDTH:0.549295
G1 X126.959 Y125.833 E.0139
;WIDTH:0.504647
G1 X126.769 Y125.718 E.01261
;WIDTH:0.46
G1 X126.455 Y125.29 E.02707
G1 X126.35 Y124.834 E.02388
G1 X126.424 Y124.369 E.024
G1 X126.589 Y124.097 E.01622
G1 E-.84
;WIPE_START
G1 X126.667 Y123.968 E-.05436
G1 X127.043 Y123.686 E-.16907
G1 X127.409 Y123.59 E-.13657
;WIPE_END
G1 Z.72 F9000
G1 X128.789 Y125.958 Z.72
G1 Z.32
G1 E1.2 F1800
;TYPE:Inner wall
;WIDTH:0.612907
G1 X128.661 Y126.049 E.01118
;WIDTH:0.576091
G1 X128.533 Y126.141 E.01042
;WIDTH:0.539275
G1 X128.424 Y126.187 E.00728
;WIDTH:0.505758
G1 X128.315 Y126.234 E.00676
G1 E-.84
;WIPE_START
G1 X128.424 Y126.187 E-.07734
G1 X128.533 Y126.141 E-.07734
G1 X128.661 Y126.049 E-.10266
G1 X128.789 Y125.958 E-.10266
;WIPE_END
G1 Z.72 F9000
G1 X92.806 Y123.638 Z.72
G1 Z.32
G1 E1.2 F1800
;TYPE:Outer wall
;WIDTH:0.46
G1 X93.142 Y123.797 E.01896
G1 X93.471 Y124.152 E.02471
G1 X93.634 Y124.592 E.02394
G1 X93.625 Y125.051 E.0234
G1 X93.513 Y125.356 E.01659
G1 X93.221 Y125.723 E.02394
G1 X92.813 Y125.955 E.02394
G1 X92.348 Y126.016 E.02394
G1 X91.894 Y125.898 E.02394
G1 X91.517 Y125.619 E.02394
G1 X91.261 Y125.177 E.02604
G1 X91.202 Y124.911 E.01391
G1 X91.247 Y124.444 E.02393
G1 X91.453 Y124.037 E.0233
G1 X91.675 Y123.82 E.01583
G1 X92.147 Y123.601 E.02655
M73 P3 R12
G1 X92.571 Y123.571 E.02167
G1 X92.743 Y123.608 E.00899
G1 X92.77 Y123.621 E.00151
G1 E-.84
;WIPE_START
G1 X93.142 Y123.797 E-.14815
G1 X93.471 Y124.152 E-.17432
G1 X93.507 Y124.25 E-.03753
;WIPE_END
G1 Z.72 F9000
G1 X92.876 Y126.302 Z.72
G1 Z.32
G1 E1.2 F1800
;TYPE:Inner wall
;WIDTH:0.382789
G1 X92.576 Y126.316 E.0123
;WIDTH:0.353338
G1 X92.276 Y126.331 E.01115
;WIDTH:0.371135
G1 X92.074 Y126.295 E.00812
;WIDTH:0.418384
G1 X91.871 Y126.258 E.00938
;WIDTH:0.465633
G1 X91.669 Y126.222 E.01065
;WIDTH:0.506757
G1 X91.527 Y126.146 E.00914
;WIDTH:0.547882
G1 X91.386 Y126.071 E.01
;WIDTH:0.589007
G1 X91.245 Y125.996 E.01086
G1 E-.84
;WIPE_START
G1 X91.386 Y126.071 E-.05764
G1 X91.527 Y126.146 E-.05763
G1 X91.669 Y126.222 E-.05763
G1 X91.871 Y126.258 E-.07409
G1 X92.074 Y126.295 E-.07409
G1 X92.18 Y126.314 E-.03891
;WIPE_END
G1 Z.72 F9000
G1 X92.512 Y117.924 Z.72
G1 Z.32
G1 E1.2 F1800
;TYPE:Outer wall
;WIDTH:0.586507
G1 X92.563 Y117.918 E.00346
G1 X92.75 Y117.974 E.01318
;WIDTH:0.550515
G1 X92.946 Y118.092 E.01436
;WIDTH:0.505257
G1 X93.142 Y118.21 E.01301
;WIDTH:0.46
G1 X93.471 Y118.564 E.02466
G1 X93.631 Y118.988 E.02315
G1 X93.623 Y119.458 E.02397
G1 X93.407 Y119.929 E.02643
G1 X93.07 Y120.242 E.02346
G1 X92.654 Y120.409 E.02284
G1 X92.31 Y120.42 E.01755
G1 X91.903 Y120.317 E.02143
G1 X91.629 Y120.139 E.01665
G1 X91.337 Y119.773 E.02392
G1 X91.202 Y119.323 E.02396
G1 X91.246 Y118.856 E.02393
G1 X91.396 Y118.545 E.0176
G1 X91.659 Y118.24 E.02055
;WIDTH:0.509114
G1 X91.872 Y118.105 E.0145
;WIDTH:0.558228
G1 X92.086 Y117.971 E.01611
;WIDTH:0.586507
G1 X92.472 Y117.928 E.02625
G1 X91.208 Y118.032 F9000
;TYPE:Inner wall
;WIDTH:0.609945
G1 F1800
G1 X91.349 Y117.938 E.01193
;WIDTH:0.570423
G1 X91.489 Y117.844 E.01106
;WIDTH:0.530901
G1 X91.632 Y117.792 E.00913
;WIDTH:0.489732
G1 X91.774 Y117.741 E.00832
G1 E-.84
;WIPE_START
G1 X91.632 Y117.792 E-.08508
G1 X91.489 Y117.844 E-.08508
G1 X91.349 Y117.938 E-.09492
G1 X91.208 Y118.032 E-.09492
;WIPE_END
G1 Z.72 F9000
G1 X128.791 Y120.485
G1 Z.72
G1 Z.32
G1 E1.2 F1800
;TYPE:Bottom surface
;WIDTH:0.462105
G1 F4800
G1 X129.123 Y120.817 E.02409
G1 X129.123 Y121.373 E.02854
G1 X128.599 Y120.85 E.03799
G1 X128.511 Y120.911 E.0055
G1 X128.229 Y121.036 E.01583
G1 X129.123 Y121.93 E.06484
G1 X129.123 Y122.486 E.02854
G1 X127.615 Y120.979 E.10935
G1 E-.84 F1800
;WIPE_START
G1 F4800
G1 X128.322 Y121.686 E-.36
;WIPE_END
G1 Z.72 F9000
G1 X126.06 Y118.311 Z.72
G1 Z.32
G1 E1.2 F1800
G1 F4800
G1 X125.82 Y118.07 E.01746
G1 X125.263 Y118.07 E.02855
G1 X125.748 Y118.555 E.03517
G1 X125.684 Y118.749 E.01046
G1 X125.65 Y119.014 E.01369
G1 X124.707 Y118.07 E.06844
G1 X124.15 Y118.07 E.02855
G1 X125.68 Y119.6 E.11098
G1 X125.758 Y119.896 E.01569
G1 X125.84 Y120.099 E.01125
G1 X126.201 Y120.59 E.03125
G1 X126.384 Y120.744 E.01228
G1 X126.821 Y121.004 E.02605
G1 X127.064 Y121.081 E.0131
G1 X127.176 Y121.096 E.00582
G1 X129.123 Y123.043 E.14119
G1 X129.123 Y123.599 E.02854
G1 X123.594 Y118.07 E.40109
G1 X123.037 Y118.07 E.02855
G1 X127.846 Y122.879 E.34887
G1 X127.398 Y122.843 E.02307
