; HEADER_BLOCK_START
; generated by Creality_Print V5.1.2.9904 on 2024-12-12 at 14:40:04
; total layer number: 14
; filament_density: 0
; filament_diameter: 1.75
; max_z_height: 2.92
; HEADER_BLOCK_END

; MINX = 101.18
; MINY = 100.34
; MINZ = 0.00
; MAXX = 120.55
; MAXY = 119.67
; MAXZ = 3.00

; THUMBNAIL_BLOCK_START

;
; THUMBNAIL_BLOCK_END

; THUMBNAIL_BLOCK_START

;
; THUMBNAIL_BLOCK_END

; external perimeters extrusion width = 0.42mm
; perimeters extrusion width = 0.45mm
; infill extrusion width = 0.45mm
; solid infill extrusion width = 0.42mm
; top infill extrusion width = 0.42mm
; first layer extrusion width = 0.46mm

; external perimeters extrusion width = 0.42mm
; perimeters extrusion width = 0.45mm
; infill extrusion width = 0.45mm
; solid infill extrusion width = 0.42mm
; top infill extrusion width = 0.42mm
; first layer extrusion width = 0.46mm

; external perimeters extrusion width = 0.42mm
; perimeters extrusion width = 0.45mm
; infill extrusion width = 0.45mm
; solid infill extrusion width = 0.42mm
; top infill extrusion width = 0.42mm
; first layer extrusion width = 0.46mm

; external perimeters extrusion width = 0.42mm
; perimeters extrusion width = 0.45mm
; infill extrusion width = 0.45mm
; solid infill extrusion width = 0.42mm
; top infill extrusion width = 0.42mm
; first layer extrusion width = 0.46mm

; external perimeters extrusion width = 0.42mm
; perimeters extrusion width = 0.45mm
; infill extrusion width = 0.45mm
; solid infill extrusion width = 0.42mm
; top infill extrusion width = 0.42mm
; first layer extrusion width = 0.46mm

; external perimeters extrusion width = 0.42mm
; perimeters extrusion width = 0.45mm
; infill extrusion width = 0.45mm
; solid infill extrusion width = 0.42mm
; top infill extrusion width = 0.42mm
; first layer extrusion width = 0.46mm

; external perimeters extrusion width = 0.42mm
; perimeters extrusion width = 0.45mm
; infill extrusion width = 0.45mm
; solid infill extrusion width = 0.42mm
; top infill extrusion width = 0.42mm
; first layer extrusion width = 0.46mm

; external perimeters extrusion width = 0.42mm
; perimeters extrusion width = 0.45mm
; infill extrusion width = 0.45mm
; solid infill extrusion width = 0.42mm
; top infill extrusion width = 0.42mm
; first layer extrusion width = 0.46mm

; external perimeters extrusion width = 0.42mm
; perimeters extrusion width = 0.45mm
; infill extrusion width = 0.45mm
; solid infill extrusion width = 0.42mm
; top infill extrusion width = 0.42mm
; first layer extrusion width = 0.46mm

; external perimeters extrusion width = 0.42mm
; perimeters extrusion width = 0.45mm
; infill extrusion width = 0.45mm
; solid infill extrusion width = 0.42mm
; top infill extrusion width = 0.42mm
; first layer extrusion width = 0.46mm

; external perimeters extrusion width = 0.42mm
; perimeters extrusion width = 0.45mm
; infill extrusion width = 0.45mm
; solid infill extrusion width = 0.42mm
; top infill extrusion width = 0.42mm
; first layer extrusion width = 0.46mm

; external perimeters extrusion width = 0.42mm
; perimeters extrusion width = 0.45mm
; infill extrusion width = 0.45mm
; solid infill extrusion width = 0.42mm
; top infill extrusion width = 0.42mm
; first layer extrusion width = 0.46mm

; external perimeters extrusion width = 0.42mm
; perimeters extrusion width = 0.45mm
; infill extrusion width = 0.45mm
; solid infill extrusion width = 0.42mm
; top infill extrusion width = 0.42mm
; first layer extrusion width = 0.46mm

; external perimeters extrusion width = 0.42mm
; perimeters extrusion width = 0.45mm
; infill extrusion width = 0.45mm
; solid infill extrusion width = 0.42mm
; top infill extrusion width = 0.42mm
; first layer extrusion width = 0.46mm

; external perimeters extrusion width = 0.42mm
; perimeters extrusion width = 0.45mm
; infill extrusion width = 0.45mm
; solid infill extrusion width = 0.42mm
; top infill extrusion width = 0.42mm
; first layer extrusion width = 0.46mm

; external perimeters extrusion width = 0.42mm
; perimeters extrusion width = 0.45mm
; infill extrusion width = 0.45mm
; solid infill extrusion width = 0.42mm
; top infill extrusion width = 0.42mm
; first layer extrusion width = 0.46mm

; EXECUTABLE_BLOCK_START
M73 P0 R4
M201 X5000 Y5000 Z500 E5000
M203 X500 Y500 Z30 E100
M204 P5000 R2500 T5000 ; sets acceleration (P, T) and retract acceleration (R), mm/sec^2
M205 X10.00 Y10.00 Z0.40 E5.00 ; sets the jerk limits, mm/sec
;TYPE:Custom
M220 S100 ;Reset Feedrate 
M221 S100 ;Reset Flowrate 
 
M140 S45 ;Set final bed temp 
G28 ;Home 
 
G92 E0 ;Reset Extruder 
G1 Z2.0 F3000 ;Move Z Axis up 
M104 S200 ;Set final nozzle temp 
G1 X-2.1 Y20 Z0.28 F5000.0 ;Move to start position 
M190 S45 ;Wait for bed temp to stabilize 
M109 S200 ;Wait for nozzle temp to stabilize 
G1 X-2.1 Y145.0 Z0.28 F1500.0 E15 ;Draw the first line 
G1 X-2.4 Y145.0 Z0.28 F5000.0 ;Move to side a little 
M73 P1 R4
G1 X-2.4 Y20 Z0.28 F1500.0 E30 ;Draw the second line 
G92 E0  ;Reset Extruder 
G1 E-1.0000 F1800 ;Retract a bit 
M73 P3 R4
G1 Z2.0 F3000 ;Move Z Axis up 
G1 E0.0000 F1800
G90
G21
M83 ; use relative distances for extrusion
M106 S0
;LAYER_CHANGE
;Z:0.32
;HEIGHT:0.32
;BEFORE_LAYER_CHANGE
;0.32
G92 E0

G1 E-1.2 F1800
;_SET_FAN_SPEED_CHANGING_LAYER
M204 P500
M205 X8 Y8
; printing object 3mm Steering Linkage Spacer.stl id:0 copy 0
M204 T500
G1 Z.4 F9000
G1 X103.783 Y116.838
G1 Z.4
M73 P4 R4
G1 Z.32
G1 E1.2 F1800
;TYPE:Outer wall
;WIDTH:0.409316
G1 X103.764 Y116.84 E.00082
G1 X103.298 Y116.71 E.02151
;WIDTH:0.417533
G1 X102.951 Y116.499 E.01847
G1 X102.72 Y116.27 E.01478
;WIDTH:0.409196
G1 X102.475 Y115.828 E.02246
;WIDTH:0.417637
G1 X102.396 Y115.5 E.01531
G1 X102.399 Y115.077 E.01928
;WIDTH:0.409006
G1 X102.563 Y114.575 E.02341
G1 X102.867 Y114.188 E.02183
;WIDTH:0.41758
G1 X103.186 Y113.954 E.01799
G1 X103.489 Y113.826 E.01498
;WIDTH:0.410941
G1 X103.997 Y113.767 E.02284
;WIDTH:0.417733
G1 X104.371 Y113.834 E.01727
G1 X104.719 Y113.988 E.01734
;WIDTH:0.408754
G1 X105.115 Y114.326 E.02308
G1 X105.359 Y114.761 E.02213
;WIDTH:0.417649
G1 X105.458 Y115.341 E.02678
;WIDTH:0.417351
G1 X105.397 Y115.746 E.01863
G1 X105.276 Y116.041 E.01448
;WIDTH:0.410705
G1 X104.962 Y116.44 E.02264
;WIDTH:0.417636
G1 X104.64 Y116.666 E.01791
G1 X104.298 Y116.799 E.01669
;WIDTH:0.409316
G1 X103.823 Y116.835 E.02115
G1 E-.84
;WIPE_START
G1 X103.764 Y116.84 E-.02108
G1 X103.298 Y116.71 E-.17434
G1 X102.951 Y116.499 E-.14619
G1 X102.915 Y116.463 E-.01838
;WIPE_END
G1 Z.72 F9000
G1 X103.566 Y114.159 Z.72
G1 Z.32
G1 E1.2 F1800
;WIDTH:0.411077
G1 X103.575 Y114.154 E.00043
G1 X104.083 Y114.115 E.02277
;WIDTH:0.408706
G1 X104.518 Y114.261 E.02034
;WIDTH:0.409283
G1 X104.866 Y114.56 E.02036
;WIDTH:0.410034
G1 X105.076 Y114.967 E.02041
;WIDTH:0.411104
G1 X105.118 Y115.43 E.02073
;WIDTH:0.412083
G1 X104.979 Y115.875 E.02089
G1 X104.656 Y116.256 E.02238
;WIDTH:0.409073
G1 X104.246 Y116.463 E.02036
;WIDTH:0.409765
G1 X103.789 Y116.5 E.02039
;WIDTH:0.410185
G1 X103.351 Y116.363 E.02042
G1 X102.995 Y116.069 E.0206
;WIDTH:0.409254
G1 X102.761 Y115.615 E.02266
;WIDTH:0.408881
G1 X102.729 Y115.158 E.02033
;WIDTH:0.409516
G1 X102.871 Y114.722 E.02037
;WIDTH:0.410319
G1 X103.166 Y114.37 E.02043
;WIDTH:0.411077
G1 X103.531 Y114.177 E.01843
; stop printing object 3mm Steering Linkage Spacer.stl id:0 copy 0
; printing object 3mm Steering Linkage Spacer.stl id:0 copy 0
G1 E-.84
;WIPE_START
G1 X103.575 Y114.154 E-.0179
G1 X104.083 Y114.115 E-.18365
G1 X104.5 Y114.255 E-.15845
;WIPE_END
G1 Z.72 F9000
G1 X111.416 Y119.449 Z.72
G1 Z.32
G1 E1.2 F1800
;WIDTH:0.409316
G1 X111.398 Y119.451 E.00082
G1 X110.931 Y119.321 E.02151
;WIDTH:0.417533
G1 X110.584 Y119.11 E.01847
G1 X110.353 Y118.881 E.01478
;WIDTH:0.409196
G1 X110.108 Y118.439 E.02246
;WIDTH:0.417637
G1 X110.029 Y118.111 E.01531
G1 X110.033 Y117.688 E.01928
;WIDTH:0.409006
G1 X110.196 Y117.186 E.02341
G1 X110.5 Y116.799 E.02183
;WIDTH:0.41758
G1 X110.819 Y116.565 E.01799
G1 X111.122 Y116.437 E.01498
;WIDTH:0.410941
G1 X111.63 Y116.378 E.02284
;WIDTH:0.417733
G1 X112.004 Y116.445 E.01727
G1 X112.352 Y116.599 E.01734
;WIDTH:0.408754
G1 X112.748 Y116.937 E.02308
G1 X112.993 Y117.372 E.02213
;WIDTH:0.417649
G1 X113.092 Y117.952 E.02678
;WIDTH:0.417351
G1 X113.03 Y118.357 E.01863
G1 X112.909 Y118.652 E.01448
;WIDTH:0.410705
G1 X112.595 Y119.051 E.02264
;WIDTH:0.417636
G1 X112.273 Y119.277 E.01791
G1 X111.931 Y119.41 E.01669
;WIDTH:0.409316
G1 X111.456 Y119.446 E.02115
G1 E-.84
;WIPE_START
G1 X111.398 Y119.451 E-.02108
G1 X110.931 Y119.321 E-.17434
G1 X110.584 Y119.11 E-.14619
M73 P5 R4
G1 X110.548 Y119.074 E-.01838
;WIPE_END
G1 Z.72 F9000
G1 X111.199 Y116.77 Z.72
G1 Z.32
G1 E1.2 F1800
;WIDTH:0.411077
G1 X111.208 Y116.765 E.00043
G1 X111.716 Y116.726 E.02277
;WIDTH:0.408706
G1 X112.151 Y116.872 E.02034
;WIDTH:0.409283
G1 X112.499 Y117.171 E.02036
;WIDTH:0.410034
G1 X112.71 Y117.578 E.02041
;WIDTH:0.411104
G1 X112.751 Y118.041 E.02073
;WIDTH:0.412083
G1 X112.612 Y118.486 E.02089
G1 X112.289 Y118.867 E.02238
;WIDTH:0.409073
G1 X111.879 Y119.074 E.02036
;WIDTH:0.409765
G1 X111.422 Y119.111 E.02039
;WIDTH:0.410185
G1 X110.984 Y118.974 E.02042
G1 X110.628 Y118.68 E.0206
;WIDTH:0.409254
G1 X110.394 Y118.226 E.02266
;WIDTH:0.408881
G1 X110.363 Y117.769 E.02033
;WIDTH:0.409516
G1 X110.504 Y117.333 E.02037
;WIDTH:0.410319
G1 X110.799 Y116.981 E.02043
;WIDTH:0.411077
G1 X111.164 Y116.788 E.01843
; stop printing object 3mm Steering Linkage Spacer.stl id:0 copy 0
; printing object 3mm Steering Linkage Spacer.stl id:4292801525 copy 0
G1 E-.84
;WIPE_START
G1 X111.208 Y116.765 E-.0179
G1 X111.716 Y116.726 E-.18365
G1 X112.134 Y116.866 E-.15845
;WIPE_END
G1 Z.72 F9000
G1 X115.762 Y118.291 Z.72
G1 Z.32
G1 E1.2 F1800
;WIDTH:0.409316
G1 X115.743 Y118.292 E.00082
G1 X115.277 Y118.162 E.02151
;WIDTH:0.417533
G1 X114.93 Y117.952 E.01847
G1 X114.699 Y117.723 E.01478
;WIDTH:0.409196
G1 X114.453 Y117.281 E.02246
;WIDTH:0.417637
G1 X114.375 Y116.953 E.01531
G1 X114.378 Y116.53 E.01928
;WIDTH:0.409006
G1 X114.542 Y116.028 E.02341
G1 X114.845 Y115.641 E.02183
;WIDTH:0.41758
G1 X115.164 Y115.407 E.01799
G1 X115.467 Y115.279 E.01498
;WIDTH:0.410941
G1 X115.976 Y115.22 E.02284
;WIDTH:0.417733
G1 X116.349 Y115.287 E.01727
G1 X116.698 Y115.441 E.01734
;WIDTH:0.408754
G1 X117.093 Y115.779 E.02308
G1 X117.338 Y116.214 E.02213
;WIDTH:0.417649
G1 X117.437 Y116.794 E.02678
;WIDTH:0.417351
G1 X117.375 Y117.199 E.01863
G1 X117.255 Y117.494 E.01448
;WIDTH:0.410705
G1 X116.941 Y117.893 E.02264
;WIDTH:0.417636
G1 X116.618 Y118.119 E.01791
G1 X116.276 Y118.252 E.01669
;WIDTH:0.409316
G1 X115.801 Y118.288 E.02115
G1 E-.84
;WIPE_START
G1 X115.743 Y118.292 E-.02108
G1 X115.277 Y118.162 E-.17434
G1 X114.93 Y117.952 E-.14619
G1 X114.893 Y117.916 E-.01838
;WIPE_END
G1 Z.72 F9000
G1 X115.545 Y115.612 Z.72
G1 Z.32
G1 E1.2 F1800
;WIDTH:0.411077
G1 X115.553 Y115.607 E.00043
G1 X116.062 Y115.568 E.02277
;WIDTH:0.408706
G1 X116.497 Y115.714 E.02034
;WIDTH:0.409283
G1 X116.844 Y116.013 E.02036
;WIDTH:0.410034
G1 X117.055 Y116.42 E.02041
;WIDTH:0.411104
G1 X117.096 Y116.883 E.02073
;WIDTH:0.412083
G1 X116.958 Y117.328 E.02089
G1 X116.635 Y117.709 E.02238
;WIDTH:0.409073
G1 X116.225 Y117.916 E.02036
;WIDTH:0.409765
G1 X115.768 Y117.953 E.02039
;WIDTH:0.410185
G1 X115.33 Y117.816 E.02042
G1 X114.973 Y117.522 E.0206
;WIDTH:0.409254
G1 X114.74 Y117.068 E.02266
;WIDTH:0.408881
G1 X114.708 Y116.611 E.02033
;WIDTH:0.409516
G1 X114.85 Y116.175 E.02037
;WIDTH:0.410319
G1 X115.144 Y115.823 E.02043
;WIDTH:0.411077
G1 X115.509 Y115.63 E.01843
; stop printing object 3mm Steering Linkage Spacer.stl id:4292801525 copy 0
; printing object 3mm Steering Linkage Spacer.stl id:257 copy 0
G1 E-.84
;WIPE_START
G1 X115.553 Y115.607 E-.0179
G1 X116.062 Y115.568 E-.18365
G1 X116.479 Y115.708 E-.15845
;WIPE_END
G1 Z.72 F9000
G1 X116.93 Y113.95 Z.72
G1 Z.32
G1 E1.2 F1800
;WIDTH:0.409316
G1 X116.912 Y113.951 E.00082
G1 X116.445 Y113.821 E.02151
;WIDTH:0.417533
G1 X116.098 Y113.61 E.01847
G1 X115.867 Y113.382 E.01478
;WIDTH:0.409196
G1 X115.622 Y112.939 E.02246
;WIDTH:0.417637
G1 X115.543 Y112.612 E.01531
G1 X115.547 Y112.188 E.01928
;WIDTH:0.409006
G1 X115.71 Y111.687 E.02341
G1 X116.014 Y111.3 E.02183
;WIDTH:0.41758
G1 X116.333 Y111.066 E.01799
G1 X116.636 Y110.937 E.01498
;WIDTH:0.410941
G1 X117.144 Y110.879 E.02284
;WIDTH:0.417733
G1 X117.518 Y110.945 E.01727
G1 X117.866 Y111.099 E.01734
;WIDTH:0.408754
G1 X118.262 Y111.437 E.02308
G1 X118.507 Y111.872 E.02213
;WIDTH:0.417649
G1 X118.606 Y112.453 E.02678
;WIDTH:0.417351
G1 X118.544 Y112.858 E.01863
G1 X118.423 Y113.153 E.01448
;WIDTH:0.410705
G1 X118.109 Y113.552 E.02264
;WIDTH:0.417636
G1 X117.787 Y113.777 E.01791
M73 P6 R4
G1 X117.445 Y113.91 E.01669
;WIDTH:0.409316
G1 X116.97 Y113.947 E.02115
G1 E-.84
;WIPE_START
G1 X116.912 Y113.951 E-.02108
G1 X116.445 Y113.821 E-.17434
G1 X116.098 Y113.61 E-.14619
G1 X116.062 Y113.574 E-.01838
;WIPE_END
G1 Z.72 F9000
G1 X116.713 Y111.27 Z.72
G1 Z.32
G1 E1.2 F1800
;WIDTH:0.411077
G1 X116.722 Y111.266 E.00043
G1 X117.231 Y111.226 E.02277
;WIDTH:0.408706
G1 X117.665 Y111.373 E.02034
;WIDTH:0.409283
G1 X118.013 Y111.672 E.02036
;WIDTH:0.410034
G1 X118.224 Y112.079 E.02041
;WIDTH:0.411104
G1 X118.265 Y112.541 E.02073
;WIDTH:0.412083
G1 X118.126 Y112.987 E.02089
G1 X117.803 Y113.368 E.02238
;WIDTH:0.409073
G1 X117.393 Y113.574 E.02036
;WIDTH:0.409765
G1 X116.936 Y113.612 E.02039
;WIDTH:0.410185
G1 X116.499 Y113.475 E.02042
G1 X116.142 Y113.18 E.0206
;WIDTH:0.409254
G1 X115.909 Y112.726 E.02266
;WIDTH:0.408881
G1 X115.877 Y112.269 E.02033
;WIDTH:0.409516
G1 X116.018 Y111.833 E.02037
;WIDTH:0.410319
G1 X116.313 Y111.482 E.02043
;WIDTH:0.411077
G1 X116.678 Y111.289 E.01843
; stop printing object 3mm Steering Linkage Spacer.stl id:257 copy 0
; printing object 3mm Steering Linkage Spacer.stl id:854698491968 copy 0
G1 E-.84
;WIPE_START
G1 X116.722 Y111.266 E-.0179
G1 X117.231 Y111.226 E-.18365
G1 X117.648 Y111.367 E-.15845
;WIPE_END
G1 Z.72 F9000
G1 X114.205 Y110.374 Z.72
G1 Z.32
G1 E1.2 F1800
;WIDTH:0.409316
G1 X114.186 Y110.376 E.00082
G1 X113.72 Y110.246 E.02151
;WIDTH:0.417533
G1 X113.373 Y110.035 E.01847
G1 X113.142 Y109.806 E.01478
;WIDTH:0.409196
G1 X112.896 Y109.364 E.02246
;WIDTH:0.417637
G1 X112.818 Y109.037 E.01531
G1 X112.821 Y108.613 E.01928
;WIDTH:0.409006
G1 X112.985 Y108.111 E.02341
G1 X113.289 Y107.724 E.02183
;WIDTH:0.41758
G1 X113.607 Y107.49 E.01799
G1 X113.91 Y107.362 E.01498
;WIDTH:0.410941
G1 X114.419 Y107.304 E.02284
;WIDTH:0.417733
G1 X114.792 Y107.37 E.01727
G1 X115.141 Y107.524 E.01734
;WIDTH:0.408754
G1 X115.536 Y107.862 E.02308
G1 X115.781 Y108.297 E.02213
;WIDTH:0.417649
G1 X115.88 Y108.877 E.02678
;WIDTH:0.417351
G1 X115.818 Y109.282 E.01863
G1 X115.698 Y109.577 E.01448
;WIDTH:0.410705
G1 X115.384 Y109.976 E.02264
;WIDTH:0.417636
G1 X115.061 Y110.202 E.01791
G1 X114.719 Y110.335 E.01669
;WIDTH:0.409316
G1 X114.245 Y110.371 E.02115
G1 E-.84
;WIPE_START
G1 X114.186 Y110.376 E-.02108
G1 X113.72 Y110.246 E-.17434
G1 X113.373 Y110.035 E-.14619
G1 X113.336 Y109.999 E-.01838
;WIPE_END
G1 Z.72 F9000
G1 X113.988 Y107.695 Z.72
G1 Z.32
G1 E1.2 F1800
;WIDTH:0.411077
G1 X113.996 Y107.69 E.00043
G1 X114.505 Y107.651 E.02277
;WIDTH:0.408706
G1 X114.94 Y107.798 E.02034
;WIDTH:0.409283
G1 X115.287 Y108.096 E.02036
;WIDTH:0.410034
G1 X115.498 Y108.504 E.02041
;WIDTH:0.411104
G1 X115.54 Y108.966 E.02073
;WIDTH:0.412083
G1 X115.401 Y109.412 E.02089
G1 X115.078 Y109.793 E.02238
;WIDTH:0.409073
G1 X114.668 Y109.999 E.02036
;WIDTH:0.409765
G1 X114.211 Y110.036 E.02039
;WIDTH:0.410185
G1 X113.773 Y109.9 E.02042
G1 X113.416 Y109.605 E.0206
;WIDTH:0.409254
G1 X113.183 Y109.151 E.02266
;WIDTH:0.408881
G1 X113.151 Y108.694 E.02033
;WIDTH:0.409516
G1 X113.293 Y108.258 E.02037
;WIDTH:0.410319
G1 X113.587 Y107.907 E.02043
;WIDTH:0.411077
G1 X113.952 Y107.714 E.01843
; stop printing object 3mm Steering Linkage Spacer.stl id:854698491968 copy 0
; printing object 3mm Steering Linkage Spacer.stl id:20628384325304577 copy 0
G1 E-.84
;WIPE_START
G1 X113.996 Y107.69 E-.0179
G1 X114.505 Y107.651 E-.18365
