; HEADER_BLOCK_START
; generated by Creality_Print V5.1.2.9904 on 2024-12-13 at 09:30:54
; total layer number: 7
; filament_density: 0
; filament_diameter: 1.75
; max_z_height: 1.52
; HEADER_BLOCK_END

; MINX = 97.97
; MINY = 97.99
; MINZ = 0.00
; MAXX = 122.10
; MAXY = 122.35
; MAXZ = 1.50

; THUMBNAIL_BLOCK_START

;
; THUMBNAIL_BLOCK_END

; THUMBNAIL_BLOCK_START

;
; THUMBNAIL_BLOCK_END

; external perimeters extrusion width = 0.42mm
; perimeters extrusion width = 0.45mm
; infill extrusion width = 0.45mm
; solid infill extrusion width = 0.42mm
; top infill extrusion width = 0.42mm
; first layer extrusion width = 0.46mm

; external perimeters extrusion width = 0.42mm
; perimeters extrusion width = 0.45mm
; infill extrusion width = 0.45mm
; solid infill extrusion width = 0.42mm
; top infill extrusion width = 0.42mm
; first layer extrusion width = 0.46mm

; external perimeters extrusion width = 0.42mm
; perimeters extrusion width = 0.45mm
; infill extrusion width = 0.45mm
; solid infill extrusion width = 0.42mm
; top infill extrusion width = 0.42mm
; first layer extrusion width = 0.46mm

; external perimeters extrusion width = 0.42mm
; perimeters extrusion width = 0.45mm
; infill extrusion width = 0.45mm
; solid infill extrusion width = 0.42mm
; top infill extrusion width = 0.42mm
; first layer extrusion width = 0.46mm

; external perimeters extrusion width = 0.42mm
; perimeters extrusion width = 0.45mm
; infill extrusion width = 0.45mm
; solid infill extrusion width = 0.42mm
; top infill extrusion width = 0.42mm
; first layer extrusion width = 0.46mm

; EXECUTABLE_BLOCK_START
M73 P0 R2
M201 X5000 Y5000 Z500 E5000
M203 X500 Y500 Z30 E100
M204 P5000 R2500 T5000 ; sets acceleration (P, T) and retract acceleration (R), mm/sec^2
M205 X10.00 Y10.00 Z0.40 E5.00 ; sets the jerk limits, mm/sec
;TYPE:Custom
M220 S100 ;Reset Feedrate 
M221 S100 ;Reset Flowrate 
 
M140 S45 ;Set final bed temp 
G28 ;Home 
 
G92 E0 ;Reset Extruder 
G1 Z2.0 F3000 ;Move Z Axis up 
M104 S200 ;Set final nozzle temp 
G1 X-2.1 Y20 Z0.28 F5000.0 ;Move to start position 
M190 S45 ;Wait for bed temp to stabilize 
M109 S200 ;Wait for nozzle temp to stabilize 
G1 X-2.1 Y145.0 Z0.28 F1500.0 E15 ;Draw the first line 
G1 X-2.4 Y145.0 Z0.28 F5000.0 ;Move to side a little 
M73 P4 R2
G1 X-2.4 Y20 Z0.28 F1500.0 E30 ;Draw the second line 
G92 E0  ;Reset Extruder 
G1 E-1.0000 F1800 ;Retract a bit 
M73 P8 R1
G1 Z2.0 F3000 ;Move Z Axis up 
G1 E0.0000 F1800
G90
G21
M83 ; use relative distances for extrusion
M106 S0
;LAYER_CHANGE
;Z:0.32
;HEIGHT:0.32
;BEFORE_LAYER_CHANGE
;0.32
G92 E0

G1 E-1.2 F1800
;_SET_FAN_SPEED_CHANGING_LAYER
M204 P500
M205 X8 Y8
; printing object 17.7mm Steering Servo to Center Link Link.stl id:0 copy 0
M204 T500
G1 Z.4 F9000
G1 X101.436 Y102.886
G1 Z.4
M73 P9 R1
G1 Z.32
G1 E1.2 F1800
;TYPE:Inner wall
;WIDTH:0.647497
G1 X101.422 Y102.612 E.0207
G1 X101.326 Y102.318 E.02339
G1 X115.424 Y99.758 E1.08134
;WIDTH:0.643131
G1 X115.421 Y99.856 E.00739
G1 X115.526 Y100.323 E.03582
G1 X115.21 Y100.381 E.02402
;WIDTH:0.647497
G1 X101.475 Y102.879 E1.05356
G1 E-.84
;WIPE_START
M73 P10 R1
G1 X101.422 Y102.612 E-.09789
G1 X101.326 Y102.318 E-.1116
G1 X101.737 Y102.243 E-.15051
;WIPE_END
G1 Z.72 F9000
G1 X117.439 Y100.886 Z.72
G1 Z.32
G1 E1.2 F1800
;TYPE:Outer wall
;WIDTH:0.399524
G1 X117.259 Y100.943 E.00816
;WIDTH:0.403882
G1 X116.787 Y100.897 E.02074
;WIDTH:0.409997
G1 X116.338 Y100.654 E.02274
;WIDTH:0.434998
G1 X116.174 Y100.457 E.01219
;WIDTH:0.46
G1 X116.011 Y100.261 E.01302
G1 X115.903 Y99.872 E.02061
G1 X115.914 Y99.531 E.01737
G1 X116.022 Y99.3 E.01304
;WIDTH:0.430678
G1 X116.129 Y99.068 E.01206
;WIDTH:0.401357
G1 X116.494 Y98.714 E.02205
;WIDTH:0.401218
G1 X116.809 Y98.573 E.01497
;WIDTH:0.40005
G1 X117.295 Y98.536 E.02105
;WIDTH:0.407411
G1 X117.671 Y98.657 E.01745
;WIDTH:0.407731
G1 X117.906 Y98.808 E.01233
G1 X118.194 Y99.145 E.01961
;WIDTH:0.400296
G1 X118.344 Y99.627 E.02181
G1 X118.295 Y100.101 E.02059
;WIDTH:0.40005
G1 X118.051 Y100.536 E.02157
;WIDTH:0.399524
M73 P11 R1
G1 X117.74 Y100.79 E.01731
G1 X117.477 Y100.874 E.0119
G1 E-.84
;WIPE_START
G1 X117.259 Y100.943 E-.08252
G1 X116.787 Y100.897 E-.17086
G1 X116.526 Y100.756 E-.10662
;WIPE_END
G1 Z.72 F9000
G1 X101.187 Y103.515 Z.72
G1 Z.32
G1 E1.2 F1800
;WIDTH:0.46
G1 X101.179 Y103.52 E.00049
;WIDTH:0.435927
G1 X100.916 Y103.869 E.02088
;WIDTH:0.398997
G1 X100.586 Y104.174 E.01938
;WIDTH:0.411513
G1 X100.187 Y104.367 E.01983
G1 X99.936 Y104.423 E.01147
;WIDTH:0.405621
G1 X99.426 Y104.413 E.02241
G1 X99.241 Y104.359 E.00847
;WIDTH:0.399313
G1 X98.812 Y104.137 E.02082
;WIDTH:0.411213
G1 X98.477 Y103.806 E.02104
G1 X98.349 Y103.595 E.01102
;WIDTH:0.398433
G1 X98.206 Y103.174 E.01912
;WIDTH:0.404036
G1 X98.189 Y102.715 E.02006
;WIDTH:0.411991
G1 X98.285 Y102.344 E.01715
G1 X98.503 Y101.952 E.02011
;WIDTH:0.400357
G1 X98.878 Y101.613 E.02184
;WIDTH:0.398903
G1 X99.255 Y101.432 E.01803
;WIDTH:0.404194
G1 X99.791 Y101.356 E.02367
G1 X100.109 Y101.406 E.01406
;WIDTH:0.403231
G1 X100.533 Y101.582 E.02003
;WIDTH:0.451656
G1 X100.856 Y101.808 E.01967
;WIDTH:0.46
G1 X101.188 Y101.85 E.01709
G1 X115.398 Y99.272 E.73684
G1 X115.695 Y99.117 E.01709
;WIDTH:0.455022
M73 P12 R1
G1 X115.812 Y98.954 E.01013
;WIDTH:0.426379
G1 X115.929 Y98.79 E.00938
;WIDTH:0.401218
G1 X116.279 Y98.461 E.02085
G1 X116.713 Y98.253 E.02084
;WIDTH:0.400685
G1 X117.246 Y98.204 E.02316
;WIDTH:0.398535
G1 X117.59 Y98.266 E.01507
;WIDTH:0.395717
G1 X118.007 Y98.467 E.01973
;WIDTH:0.4058
G1 X118.385 Y98.828 E.02297
;WIDTH:0.411936
G1 X118.578 Y99.194 E.01853
G1 X118.676 Y99.578 E.0177
;WIDTH:0.408599
G1 X118.665 Y99.95 E.01649
G1 X118.572 Y100.314 E.01664
G1 X118.301 Y100.749 E.02272
;WIDTH:0.396032
G1 X117.948 Y101.048 E.01975
;WIDTH:0.404927
G1 X117.453 Y101.25 E.02346
G1 X117.257 Y101.272 E.00861
;WIDTH:0.398423
G1 X116.773 Y101.234 E.02089
;WIDTH:0.410739
G1 X116.33 Y101.052 E.02136
;WIDTH:0.436811
G1 X116.004 Y100.836 E.01875
;WIDTH:0.46
G1 X115.673 Y100.787 E.01709
G1 X101.375 Y103.391 E.7415
G1 X101.22 Y103.493 E.00946
G1 X100.34 Y101.869 F9000
;WIDTH:0.405163
G1 F1800
G1 X100.444 Y101.922 E.00513
;WIDTH:0.432581
G1 X100.622 Y102.101 E.01196
;WIDTH:0.46
G1 X100.8 Y102.279 E.01286
G1 X100.956 Y102.789 E.02721
G1 X100.894 Y103.269 E.0247
;WIDTH:0.435927
G1 X100.634 Y103.697 E.02396
;WIDTH:0.400149
G1 X100.323 Y103.951 E.01735
;WIDTH:0.400713
G1 X99.842 Y104.105 E.02189
M73 P13 R1
G1 X99.37 Y104.055 E.02051
;WIDTH:0.401598
G1 X98.923 Y103.811 E.0221
G1 X98.623 Y103.412 E.02167
;WIDTH:0.40033
G1 X98.516 Y103.033 E.01704
G1 X98.541 Y102.632 E.01736
;WIDTH:0.400815
G1 X98.753 Y102.17 E.02199
G1 X99.121 Y101.847 E.02124
;WIDTH:0.408979
G1 X99.477 Y101.72 E.01676
G1 X99.847 Y101.691 E.01645
;WIDTH:0.401062
G1 X100.085 Y101.74 E.01055
;WIDTH:0.405163
G1 X100.304 Y101.851 E.01076
; stop printing object 17.7mm Steering Servo to Center Link Link.stl id:0 copy 0
; printing object 17.7mm Steering Servo to Center Link Link.stl id:105553118367248 copy 0
G1 E-.84
;WIPE_START
G1 X100.444 Y101.922 E-.05646
G1 X100.622 Y102.101 E-.09075
G1 X100.8 Y102.279 E-.09075
G1 X100.899 Y102.603 E-.12204
;WIPE_END
G1 Z.72 F9000
G1 X102.228 Y107.313 Z.72
G1 Z.32
G1 E1.2 F1800
;TYPE:Inner wall
;WIDTH:0.647497
G1 X102.214 Y107.039 E.0207
G1 X102.118 Y106.744 E.02339
G1 X116.216 Y104.184 E1.08134
;WIDTH:0.643131
G1 X116.213 Y104.283 E.00739
G1 X116.318 Y104.75 E.03582
G1 X116.002 Y104.807 E.02402
;WIDTH:0.647497
M73 P14 R1
G1 X102.267 Y107.306 E1.05356
G1 E-.84
;WIPE_START
G1 X102.214 Y107.039 E-.09789
G1 X102.118 Y106.744 E-.1116
G1 X102.529 Y106.67 E-.15051
;WIPE_END
G1 Z.72 F9000
G1 X118.231 Y105.312 Z.72
G1 Z.32
G1 E1.2 F1800
;TYPE:Outer wall
;WIDTH:0.399524
G1 X118.051 Y105.37 E.00816
;WIDTH:0.403882
G1 X117.579 Y105.324 E.02074
;WIDTH:0.409997
G1 X117.13 Y105.08 E.02274
;WIDTH:0.434998
G1 X116.966 Y104.884 E.01219
;WIDTH:0.46
G1 X116.803 Y104.687 E.01302
G1 X116.695 Y104.298 E.02061
G1 X116.706 Y103.958 E.01737
G1 X116.814 Y103.726 E.01304
;WIDTH:0.430678
G1 X116.921 Y103.494 E.01206
;WIDTH:0.401357
G1 X117.286 Y103.14 E.02205
;WIDTH:0.401218
M73 P15 R1
G1 X117.601 Y102.999 E.01497
;WIDTH:0.40005
G1 X118.087 Y102.962 E.02105
;WIDTH:0.407411
G1 X118.463 Y103.084 E.01745
;WIDTH:0.407731
G1 X118.698 Y103.235 E.01233
G1 X118.986 Y103.572 E.01961
;WIDTH:0.400296
G1 X119.136 Y104.053 E.02181
G1 X119.087 Y104.527 E.02059
;WIDTH:0.40005
G1 X118.843 Y104.963 E.02157
;WIDTH:0.399524
G1 X118.532 Y105.217 E.01731
G1 X118.269 Y105.3 E.0119
G1 E-.84
;WIPE_START
G1 X118.051 Y105.37 E-.08252
G1 X117.579 Y105.324 E-.17086
G1 X117.318 Y105.182 E-.10662
;WIPE_END
G1 Z.72 F9000
G1 X101.979 Y107.942 Z.72
G1 Z.32
G1 E1.2 F1800
;WIDTH:0.46
G1 X101.971 Y107.947 E.00049
;WIDTH:0.435927
G1 X101.708 Y108.295 E.02088
;WIDTH:0.398997
G1 X101.378 Y108.601 E.01938
;WIDTH:0.411513
G1 X100.979 Y108.793 E.01983
G1 X100.728 Y108.849 E.01147
;WIDTH:0.405621
G1 X100.218 Y108.84 E.02241
G1 X100.033 Y108.785 E.00847
;WIDTH:0.399313
G1 X99.604 Y108.563 E.02082
;WIDTH:0.411213
G1 X99.269 Y108.232 E.02104
G1 X99.141 Y108.021 E.01102
;WIDTH:0.398433
G1 X98.998 Y107.6 E.01912
;WIDTH:0.404036
G1 X98.981 Y107.142 E.02006
;WIDTH:0.411991
G1 X99.077 Y106.771 E.01715
G1 X99.295 Y106.378 E.02011
;WIDTH:0.400357
G1 X99.67 Y106.04 E.02184
;WIDTH:0.398903
G1 X100.047 Y105.858 E.01803
;WIDTH:0.404194
G1 X100.583 Y105.782 E.02367
G1 X100.901 Y105.833 E.01406
;WIDTH:0.403231
G1 X101.325 Y106.009 E.02003
;WIDTH:0.451656
G1 X101.648 Y106.235 E.01967
;WIDTH:0.46
G1 X101.98 Y106.276 E.01709
G1 X116.19 Y103.698 E.73684
G1 X116.487 Y103.544 E.01709
;WIDTH:0.455022
M73 P16 R1
G1 X116.604 Y103.38 E.01013
;WIDTH:0.426379
G1 X116.721 Y103.217 E.00938
;WIDTH:0.401218
G1 X117.071 Y102.887 E.02085
G1 X117.505 Y102.68 E.02084
;WIDTH:0.400685
G1 X118.038 Y102.63 E.02316
;WIDTH:0.398535
G1 X118.382 Y102.693 E.01507
;WIDTH:0.395717
G1 X118.799 Y102.894 E.01973
;WIDTH:0.4058
G1 X119.177 Y103.255 E.02297
;WIDTH:0.411936
G1 X119.37 Y103.621 E.01853
G1 X119.468 Y104.004 E.0177
;WIDTH:0.408599
G1 X119.457 Y104.376 E.01649
G1 X119.364 Y104.74 E.01664
G1 X119.093 Y105.175 E.02272
;WIDTH:0.396032
G1 X118.74 Y105.474 E.01975
;WIDTH:0.404927
G1 X118.245 Y105.676 E.02346
G1 X118.049 Y105.698 E.00861
;WIDTH:0.398423
G1 X117.565 Y105.661 E.02089
;WIDTH:0.410739
G1 X117.122 Y105.478 E.02136
;WIDTH:0.436811
G1 X116.796 Y105.263 E.01875
;WIDTH:0.46
G1 X116.465 Y105.214 E.01709
G1 X102.167 Y107.817 E.7415
G1 X102.012 Y107.92 E.00946
G1 X101.132 Y106.296 F9000
;WIDTH:0.405163
G1 F1800
M73 P17 R1
G1 X101.236 Y106.349 E.00513
;WIDTH:0.432581
G1 X101.414 Y106.527 E.01196
;WIDTH:0.46
G1 X101.592 Y106.706 E.01286
G1 X101.748 Y107.215 E.02721
G1 X101.686 Y107.695 E.0247
;WIDTH:0.435927
G1 X101.426 Y108.123 E.02396
;WIDTH:0.400149
G1 X101.115 Y108.377 E.01735
;WIDTH:0.400713
G1 X100.634 Y108.531 E.02189
G1 X100.162 Y108.481 E.02051
;WIDTH:0.401598
G1 X99.715 Y108.237 E.0221
G1 X99.415 Y107.838 E.02167
;WIDTH:0.40033
G1 X99.308 Y107.459 E.01704
G1 X99.333 Y107.058 E.01736
;WIDTH:0.400815
G1 X99.545 Y106.597 E.02199
G1 X99.913 Y106.273 E.02124
;WIDTH:0.408979
G1 X100.269 Y106.147 E.01676
G1 X100.639 Y106.118 E.01645
;WIDTH:0.401062
G1 X100.877 Y106.167 E.01055
;WIDTH:0.405163
G1 X101.096 Y106.278 E.01076
; stop printing object 17.7mm Steering Servo to Center Link Link.stl id:105553118367248 copy 0
; printing object 17.7mm Steering Servo to Center Link Link.stl id:0 copy 0
G1 E-.84
;WIPE_START
G1 X101.236 Y106.349 E-.05646
G1 X101.414 Y106.527 E-.09075
G1 X101.592 Y106.706 E-.09075
G1 X101.691 Y107.03 E-.12204
;WIPE_END
G1 Z.72 F9000
G1 X102.865 Y111.768 Z.72
G1 Z.32
G1 E1.2 F1800
;TYPE:Inner wall
;WIDTH:0.647497
G1 X102.852 Y111.494 E.0207
G1 X102.756 Y111.2 E.02339
G1 X116.854 Y108.64 E1.08134
;WIDTH:0.643131
G1 X116.851 Y108.738 E.00739
M73 P18 R1
G1 X116.955 Y109.205 E.03582
G1 X116.64 Y109.263 E.02402
;WIDTH:0.647497
G1 X102.905 Y111.761 E1.05356
G1 E-.84
;WIPE_START
G1 X102.852 Y111.494 E-.09789
G1 X102.756 Y111.2 E-.1116
G1 X103.167 Y111.125 E-.15051
;WIPE_END
G1 Z.72 F9000
G1 X118.869 Y109.768 Z.72
G1 Z.32
G1 E1.2 F1800
;TYPE:Outer wall
;WIDTH:0.399524
G1 X118.689 Y109.825 E.00816
;WIDTH:0.403882
M73 P19 R1
G1 X118.216 Y109.779 E.02074
;WIDTH:0.409997
G1 X117.767 Y109.536 E.02274
;WIDTH:0.434998
G1 X117.604 Y109.339 E.01219
;WIDTH:0.46
G1 X117.441 Y109.143 E.01302
G1 X117.333 Y108.754 E.02061
G1 X117.344 Y108.413 E.01737
G1 X117.451 Y108.182 E.01304
;WIDTH:0.430678
G1 X117.559 Y107.95 E.01206
;WIDTH:0.401357
G1 X117.924 Y107.596 E.02205
;WIDTH:0.401218
G1 X118.239 Y107.455 E.01497
;WIDTH:0.40005
G1 X118.725 Y107.418 E.02105
;WIDTH:0.407411
G1 X119.101 Y107.539 E.01745
;WIDTH:0.407731
G1 X119.336 Y107.69 E.01233
G1 X119.623 Y108.027 E.01961
;WIDTH:0.400296
G1 X119.774 Y108.509 E.02181
G1 X119.725 Y108.983 E.02059
;WIDTH:0.40005
G1 X119.481 Y109.418 E.02157
;WIDTH:0.399524
G1 X119.17 Y109.672 E.01731
G1 X118.907 Y109.756 E.0119
G1 E-.84
;WIPE_START
G1 X118.689 Y109.825 E-.08252
G1 X118.216 Y109.779 E-.17086
G1 X117.956 Y109.638 E-.10662
;WIPE_END
G1 Z.72 F9000
G1 X102.617 Y112.397 Z.72
G1 Z.32
G1 E1.2 F1800
;WIDTH:0.46
G1 X102.609 Y112.402 E.00049
;WIDTH:0.435927
G1 X102.346 Y112.751 E.02088
;WIDTH:0.398997
G1 X102.016 Y113.056 E.01938
;WIDTH:0.411513
G1 X101.616 Y113.249 E.01983
G1 X101.366 Y113.305 E.01147
;WIDTH:0.405621
G1 X100.856 Y113.295 E.02241
G1 X100.671 Y113.241 E.00847
;WIDTH:0.399313
G1 X100.242 Y113.019 E.02082
;WIDTH:0.411213
G1 X99.907 Y112.688 E.02104
G1 X99.779 Y112.477 E.01102
;WIDTH:0.398433
G1 X99.636 Y112.056 E.01912
;WIDTH:0.404036
G1 X99.618 Y111.597 E.02006
;WIDTH:0.411991
G1 X99.715 Y111.226 E.01715
G1 X99.933 Y110.834 E.02011
;WIDTH:0.400357
G1 X100.308 Y110.495 E.02184
;WIDTH:0.398903
G1 X100.685 Y110.314 E.01803
;WIDTH:0.404194
G1 X101.221 Y110.238 E.02367
G1 X101.539 Y110.288 E.01406
;WIDTH:0.403231
G1 X101.963 Y110.464 E.02003
;WIDTH:0.451656
G1 X102.285 Y110.69 E.01967
;WIDTH:0.46
G1 X102.618 Y110.732 E.01709
M73 P20 R1
G1 X116.828 Y108.154 E.73684
G1 X117.125 Y107.999 E.01709
;WIDTH:0.455022
G1 X117.242 Y107.836 E.01013
;WIDTH:0.426379
G1 X117.359 Y107.672 E.00938
;WIDTH:0.401218
G1 X117.709 Y107.343 E.02085
G1 X118.143 Y107.135 E.02084
;WIDTH:0.400685
G1 X118.676 Y107.086 E.02316
;WIDTH:0.398535
G1 X119.02 Y107.148 E.01507
;WIDTH:0.395717
G1 X119.437 Y107.349 E.01973
;WIDTH:0.4058
G1 X119.815 Y107.71 E.02297
;WIDTH:0.411936
G1 X120.008 Y108.076 E.01853
G1 X120.105 Y108.46 E.0177
;WIDTH:0.408599
G1 X120.095 Y108.832 E.01649
G1 X120.002 Y109.196 E.01664
G1 X119.731 Y109.631 E.02272
;WIDTH:0.396032
G1 X119.378 Y109.93 E.01975
;WIDTH:0.404927
G1 X118.882 Y110.132 E.02346
G1 X118.687 Y110.154 E.00861
;WIDTH:0.398423
G1 X118.203 Y110.116 E.02089
;WIDTH:0.410739
G1 X117.76 Y109.934 E.02136
;WIDTH:0.436811
G1 X117.434 Y109.718 E.01875
;WIDTH:0.46
G1 X117.103 Y109.669 E.01709
G1 X102.804 Y112.273 E.7415
G1 X102.65 Y112.375 E.00946
M73 P21 R1
G1 X101.769 Y110.751 F9000
;WIDTH:0.405163
G1 F1800
G1 X101.874 Y110.804 E.00513
;WIDTH:0.432581
G1 X102.052 Y110.983 E.01196
;WIDTH:0.46
G1 X102.23 Y111.161 E.01286
G1 X102.386 Y111.671 E.02721
G1 X102.323 Y112.151 E.0247
;WIDTH:0.435927
G1 X102.064 Y112.579 E.02396
;WIDTH:0.400149
G1 X101.753 Y112.833 E.01735
;WIDTH:0.400713
G1 X101.271 Y112.987 E.02189
G1 X100.8 Y112.937 E.02051
;WIDTH:0.401598
G1 X100.353 Y112.693 E.0221
G1 X100.053 Y112.294 E.02167
;WIDTH:0.40033
G1 X99.946 Y111.915 E.01704
G1 X99.971 Y111.514 E.01736
;WIDTH:0.400815
G1 X100.183 Y111.052 E.02199
G1 X100.551 Y110.729 E.02124
;WIDTH:0.408979
G1 X100.907 Y110.602 E.01676
G1 X101.277 Y110.573 E.01645
;WIDTH:0.401062
G1 X101.515 Y110.622 E.01055
;WIDTH:0.405163
G1 X101.734 Y110.733 E.01076
; stop printing object 17.7mm Steering Servo to Center Link Link.stl id:0 copy 0
; printing object 17.7mm Steering Servo to Center Link Link.stl id:0 copy 0
G1 E-.84
;WIPE_START
G1 X101.874 Y110.804 E-.05646
G1 X102.052 Y110.983 E-.09075
G1 X102.23 Y111.161 E-.09075
G1 X102.329 Y111.485 E-.12204
;WIPE_END
G1 Z.72 F9000
G1 X103.839 Y116.164 Z.72
G1 Z.32
G1 E1.2 F1800
;TYPE:Inner wall
;WIDTH:0.647497
