; HEADER_BLOCK_START
; generated by Creality_Print V5.1.2.9904 on 2024-12-12 at 14:27:56
; total layer number: 23
; filament_density: 0
; filament_diameter: 1.75
; max_z_height: 4.72
; HEADER_BLOCK_END

; MINX = 98.33
; MINY = 99.91
; MINZ = -0.00
; MAXX = 128.18
; MAXY = 124.32
; MAXZ = 4.75

; THUMBNAIL_BLOCK_START

;
; THUMBNAIL_BLOCK_END

; THUMBNAIL_BLOCK_START

;
; THUMBNAIL_BLOCK_END

; external perimeters extrusion width = 0.42mm
; perimeters extrusion width = 0.45mm
; infill extrusion width = 0.45mm
; solid infill extrusion width = 0.42mm
; top infill extrusion width = 0.42mm
; first layer extrusion width = 0.46mm

; external perimeters extrusion width = 0.42mm
; perimeters extrusion width = 0.45mm
; infill extrusion width = 0.45mm
; solid infill extrusion width = 0.42mm
; top infill extrusion width = 0.42mm
; first layer extrusion width = 0.46mm

; external perimeters extrusion width = 0.42mm
; perimeters extrusion width = 0.45mm
; infill extrusion width = 0.45mm
; solid infill extrusion width = 0.42mm
; top infill extrusion width = 0.42mm
; first layer extrusion width = 0.46mm

; external perimeters extrusion width = 0.42mm
; perimeters extrusion width = 0.45mm
; infill extrusion width = 0.45mm
; solid infill extrusion width = 0.42mm
; top infill extrusion width = 0.42mm
; first layer extrusion width = 0.46mm

; EXECUTABLE_BLOCK_START
M73 P0 R5
M201 X5000 Y5000 Z500 E5000
M203 X500 Y500 Z30 E100
M204 P5000 R2500 T5000 ; sets acceleration (P, T) and retract acceleration (R), mm/sec^2
M205 X10.00 Y10.00 Z0.40 E5.00 ; sets the jerk limits, mm/sec
;TYPE:Custom
M220 S100 ;Reset Feedrate 
M221 S100 ;Reset Flowrate 
 
M140 S45 ;Set final bed temp 
G28 ;Home 
 
G92 E0 ;Reset Extruder 
G1 Z2.0 F3000 ;Move Z Axis up 
M104 S200 ;Set final nozzle temp 
G1 X-2.1 Y20 Z0.28 F5000.0 ;Move to start position 
M190 S45 ;Wait for bed temp to stabilize 
M109 S200 ;Wait for nozzle temp to stabilize 
G1 X-2.1 Y145.0 Z0.28 F1500.0 E15 ;Draw the first line 
G1 X-2.4 Y145.0 Z0.28 F5000.0 ;Move to side a little 
M73 P1 R5
G1 X-2.4 Y20 Z0.28 F1500.0 E30 ;Draw the second line 
G92 E0  ;Reset Extruder 
G1 E-1.0000 F1800 ;Retract a bit 
M73 P3 R5
G1 Z2.0 F3000 ;Move Z Axis up 
G1 E0.0000 F1800
G90
G21
M83 ; use relative distances for extrusion
M106 S0
;LAYER_CHANGE
;Z:0.32
;HEIGHT:0.32
;BEFORE_LAYER_CHANGE
;0.32
G92 E0

G1 E-1.2 F1800
;_SET_FAN_SPEED_CHANGING_LAYER
M204 P500
M205 X8 Y8
; printing object Steering Knuckle.stl id:11629783644382512 copy 0
M204 T500
G1 Z.4 F9000
G1 X116.248 Y116.452
G1 Z.4
G1 Z.32
G1 E1.2 F1800
;TYPE:Inner wall
;WIDTH:0.467298
G1 X116.373 Y115.849 E.03199
;WIDTH:0.467584
G1 X116.655 Y115.207 E.03646
G1 X117.031 Y114.684 E.03348
;WIDTH:0.465339
G1 X117.536 Y114.22 E.03548
G1 X118.021 Y113.929 E.02928
;WIDTH:0.46
G1 X118.56 Y113.731 E.02931
G1 X118.971 Y113.651 E.02136
G1 X119.536 Y113.604 E.0289
G1 X120.262 Y113.724 E.03755
G1 X120.65 Y113.849 E.0208
;WIDTH:0.463897
G1 X121.208 Y114.131 E.03223
;WIDTH:0.471107
G1 X121.63 Y114.472 E.02847
G1 X121.997 Y114.879 E.02877
;WIDTH:0.470473
G1 X122.289 Y115.324 E.02786
;WIDTH:0.465646
G1 X122.5 Y115.831 E.02844
;WIDTH:0.48351
G1 X122.619 Y116.394 E.03108
;WIDTH:0.528187
G1 X122.665 Y116.628 E.01432
;WIDTH:0.572865
G1 X122.711 Y116.863 E.01571
G1 X122.662 Y117.102 E.01605
;WIDTH:0.534319
G1 X122.612 Y117.341 E.01482
;WIDTH:0.495773
G1 X122.562 Y117.58 E.01359
;WIDTH:0.458123
G1 X122.312 Y118.266 E.03706
;WIDTH:0.465645
G1 X121.821 Y118.984 E.04506
G1 X121.394 Y119.376 E.02999
;WIDTH:0.46
G1 X120.8 Y119.735 E.0354
G1 X120.196 Y119.926 E.03233
G1 X119.803 Y120.015 E.02059
G1 X119.066 Y120.014 E.03757
G1 X118.502 Y119.888 E.02951
G1 X118.219 Y119.795 E.0152
;WIDTH:0.468348
G1 X117.722 Y119.546 E.02897
;WIDTH:0.475434
G1 X117.05 Y118.976 E.04674
;WIDTH:0.475942
M73 P4 R5
G1 X116.722 Y118.518 E.02993
G1 X116.487 Y118.105 E.0252
;WIDTH:0.463009
G1 X116.304 Y117.553 E.02992
;WIDTH:0.475545
G1 X116.236 Y116.951 E.0321
G1 X116.235 Y116.515 E.02318
;WIDTH:0.467298
G1 X116.24 Y116.491 E.00126
G1 X116.633 Y116.531 F9000
;TYPE:Outer wall
;WIDTH:0.46
G1 F1800
G1 X116.77 Y115.882 E.03387
G1 X117.01 Y115.382 E.02829
G1 X117.34 Y114.922 E.02889
G1 X117.796 Y114.516 E.03116
G1 X118.252 Y114.251 E.02689
G1 X118.794 Y114.065 E.02924
G1 X119.539 Y113.996 E.03818
G1 X120.186 Y114.108 E.03352
G1 X120.472 Y114.197 E.0153
G1 X121.03 Y114.481 E.03192
G1 X121.52 Y114.903 E.033
G1 X121.892 Y115.411 E.03209
G1 X122.141 Y115.984 E.03192
G1 X122.266 Y116.753 E.03972
G1 X122.176 Y117.531 E.03999
G1 X121.949 Y118.123 E.0323
G1 X121.501 Y118.753 E.03948
G1 X121.111 Y119.101 E.02667
G1 X120.604 Y119.397 E.02997
G1 X119.803 Y119.624 E.04244
G1 X119.064 Y119.623 E.0377
G1 X118.458 Y119.473 E.03185
G1 X117.901 Y119.194 E.03177
G1 X117.31 Y118.681 E.03997
G1 X116.88 Y118.026 E.03997
G1 X116.676 Y117.429 E.03216
G1 X116.619 Y116.596 E.04263
G1 X116.624 Y116.571 E.00131
G1 E-.84
;WIPE_START
G1 X116.77 Y115.882 E-.25338
G1 X116.898 Y115.615 E-.10662
;WIPE_END
G1 Z.72 F9000
G1 X123.05 Y117.335 Z.72
G1 Z.32
G1 E1.2 F1800
;TYPE:Inner wall
;WIDTH:0.534319
G1 X123.007 Y117.464 E.00821
;WIDTH:0.495773
G1 X122.942 Y117.658 E.01142
;WIDTH:0.470254
G1 X122.773 Y118.205 E.02999
;WIDTH:0.472005
G1 X122.485 Y118.759 E.03283
G1 X122.14 Y119.22 E.03026
;WIDTH:0.465645
G1 X121.985 Y119.371 E.01121
;WIDTH:0.465829
G1 X121.561 Y119.75 E.02943
G1 X121.349 Y120.115 E.02187
;WIDTH:0.46
G1 X121.341 Y121.071 E.04877
G1 X120.641 Y121.498 E.04181
G1 X120.081 Y121.498 E.02857
G1 X119.813 Y121.563 E.01408
G1 X119.66 Y121.675 E.00967
;WIDTH:0.496983
G1 X119.587 Y121.812 E.00867
;WIDTH:0.533966
G1 X119.513 Y121.948 E.00942
;WIDTH:0.570949
G1 X119.439 Y122.085 E.01017
G1 X119.365 Y121.948 E.01017
;WIDTH:0.533966
G1 X119.291 Y121.812 E.00942
;WIDTH:0.496983
G1 X119.217 Y121.675 E.00867
;WIDTH:0.46
G1 X119.064 Y121.563 E.00967
G1 X118.796 Y121.498 E.01408
G1 X118.236 Y121.498 E.02858
G1 X117.536 Y121.071 E.04181
G1 X117.536 Y120.237 E.04254
;WIDTH:0.468348
G1 X117.434 Y119.876 E.01958
;WIDTH:0.469427
G1 X116.723 Y119.203 E.05115
;WIDTH:0.475942
G1 X116.371 Y118.724 E.03157
G1 X116.115 Y118.238 E.02918
;WIDTH:0.465735
G1 X115.882 Y117.469 E.04157
;WIDTH:0.475545
G1 X115.83 Y116.961 E.02709
G1 X115.847 Y116.447 E.02728
;WIDTH:0.467298
G1 X115.983 Y115.769 E.03594
G1 X116.087 Y115.502 E.01493
;WIDTH:0.467584
G1 X116.293 Y115.04 E.02632
G1 X116.434 Y114.814 E.01385
;WIDTH:0.461097
G1 X116.833 Y114.324 E.03231
;WIDTH:0.465818
G1 X117.327 Y113.878 E.03448
G1 X117.521 Y113.558 E.01934
;WIDTH:0.46
G1 X117.536 Y113.425 E.00685
G1 X117.536 Y112.567 E.04376
G1 X118.236 Y112.14 E.04181
G1 X118.745 Y112.14 E.02596
G1 X119.066 Y112.075 E.0167
G1 X119.218 Y111.962 E.00969
;WIDTH:0.498602
G1 X119.292 Y111.844 E.00776
;WIDTH:0.537204
G1 X119.365 Y111.727 E.00846
;WIDTH:0.575807
G1 X119.439 Y111.61 E.00916
G1 X119.512 Y111.727 E.00916
;WIDTH:0.537204
G1 X119.586 Y111.844 E.00846
;WIDTH:0.498602
G1 X119.659 Y111.962 E.00776
;WIDTH:0.46
G1 X119.812 Y112.075 E.00969
G1 X120.081 Y112.14 E.01415
G1 X120.641 Y112.14 E.02858
G1 X121.341 Y112.567 E.04181
G1 X121.341 Y113.425 E.04378
;WIDTH:0.463897
G1 X121.474 Y113.8 E.02049
;WIDTH:0.471107
G1 X121.912 Y114.186 E.03067
G1 X122.33 Y114.655 E.03294
;WIDTH:0.470473
G1 X122.656 Y115.174 E.03212
;WIDTH:0.465646
G1 X122.869 Y115.706 E.02965
;WIDTH:0.478496
G1 X123.006 Y116.237 E.02928
;WIDTH:0.520306
G1 X123.06 Y116.362 E.00803
;WIDTH:0.562117
G1 X123.114 Y116.487 E.00878
;WIDTH:0.603928
G1 X123.168 Y116.612 E.00952
G1 X123.252 Y116.621 E.00587
;WIDTH:0.561744
G1 X123.336 Y116.63 E.00541
;WIDTH:0.51956
G1 X123.42 Y116.639 E.00495
;WIDTH:0.477377
G1 X123.503 Y116.648 E.00449
;WIDTH:0.435193
G1 X123.587 Y116.657 E.00402
;WIDTH:0.39301
G1 X126.86 Y116.657 E.1384
G1 X126.86 Y116.981 E.01372
G1 X123.587 Y116.981 E.1384
;WIDTH:0.435193
G1 X123.503 Y116.99 E.00402
;WIDTH:0.477377
G1 X123.42 Y116.999 E.00449
;WIDTH:0.51956
G1 X123.336 Y117.008 E.00495
;WIDTH:0.561744
G1 X123.252 Y117.017 E.00541
;WIDTH:0.603928
G1 X123.168 Y117.026 E.00587
G1 X123.137 Y117.075 E.00404
;WIDTH:0.572865
G1 X123.072 Y117.269 E.01348
;WIDTH:0.534319
G1 X123.063 Y117.298 E.00182
G1 X123.399 Y117.48 F9000
;TYPE:Outer wall
;WIDTH:0.46
G1 F1800
G1 X123.152 Y118.335 E.04538
G1 X122.833 Y118.957 E.03569
G1 X122.421 Y119.502 E.03485
G1 X121.826 Y120.042 E.04099
G1 X121.732 Y120.213 E.00996
G1 X121.732 Y121.291 E.05498
G1 X120.751 Y121.889 E.05862
M73 P5 R5
G1 X119.992 Y121.911 E.03876
G1 X119.885 Y122.085 E.0104
G1 X119.885 Y124.089 E.10226
G1 X118.992 Y124.089 E.04559
G1 X118.992 Y122.085 E.10226
G1 X118.936 Y121.948 E.00752
G1 X118.796 Y121.889 E.00776
G1 X118.126 Y121.889 E.03418
G1 X117.145 Y121.291 E.05863
G1 X117.145 Y120.237 E.05375
G1 X117.077 Y120.065 E.00943
G1 X116.691 Y119.743 E.02568
G1 X116.337 Y119.364 E.02645
G1 X116.038 Y118.948 E.02613
G1 X115.792 Y118.493 E.02641
G1 X115.607 Y118.009 E.0264
G1 X115.486 Y117.506 E.0264
G1 X115.43 Y116.992 E.02641
G1 X115.441 Y116.478 E.0262
G1 X115.607 Y115.63 E.04408
G1 X115.951 Y114.836 E.04417
G1 X116.227 Y114.415 E.02565
G1 X116.666 Y113.924 E.03366
G1 X117.075 Y113.575 E.02739
G1 X117.145 Y113.425 E.00846
G1 X117.145 Y112.347 E.05497
G1 X118.126 Y111.749 E.05863
G1 X118.796 Y111.749 E.03418
G1 X118.937 Y111.689 E.00779
G1 X118.992 Y111.553 E.00749
G1 X118.992 Y109.549 E.10226
G1 X119.885 Y109.549 E.04559
G1 X119.885 Y111.553 E.10226
G1 X119.94 Y111.689 E.00749
G1 X120.081 Y111.749 E.00779
G1 X120.751 Y111.749 E.03418
G1 X121.732 Y112.347 E.05862
G1 X121.732 Y113.333 E.05029
G1 X121.777 Y113.55 E.01127
G1 X122.179 Y113.889 E.02683
G1 X122.639 Y114.4 E.03508
G1 X123.003 Y114.978 E.03486
G1 X123.29 Y115.714 E.0403
G1 X123.436 Y116.228 E.02727
G1 X123.587 Y116.299 E.00851
G1 X127.218 Y116.299 E.18525
G1 X127.218 Y117.339 E.05306
G1 X123.526 Y117.339 E.18837
G1 X123.426 Y117.451 E.00765
G1 E-.84
;WIPE_START
G1 X123.152 Y118.335 E-.33323
G1 X123.118 Y118.401 E-.02677
;WIPE_END
M73 P5 R4
G1 Z.72 F9000
G1 X119.439 Y123.642 Z.72
G1 Z.32
G1 E1.2 F1800
;TYPE:Inner wall
;WIDTH:0.570949
G1 X119.439 Y122.085 E.102
G1 E-.84
;WIPE_START
G1 X119.439 Y123.085 E-.36
;WIPE_END
G1 Z.72 F9000
G1 X119.439 Y109.996 Z.72
G1 Z.32
G1 E1.2 F1800
;WIDTH:0.575807
G1 X119.439 Y111.61 E.1067
G1 E-.84
;WIPE_START
M73 P6 R4
G1 X119.439 Y110.61 E-.36
;WIPE_END
G1 Z.72 F9000
G1 X119.959 Y112.285
G1 Z.72
G1 Z.32
G1 E1.2 F1800
;TYPE:Bottom surface
;WIDTH:0.485957
G1 F4800
G1 X121.008 Y113.334 E.0807
G1 X121.008 Y113.449 E.00625
G1 X121.1 Y113.709 E.015
G1 X120.711 Y113.507 E.02382
G1 X120.527 Y113.442 E.01063
G1 X119.355 Y112.271 E.09013
G1 X119.217 Y112.373 E.00936
G1 X118.946 Y112.452 E.01536
G1 X119.785 Y113.291 E.06459
G1 X119.518 Y113.272 E.01459
G1 X119.202 Y113.298 E.01723
G1 X118.377 Y112.473 E.0635
G1 X118.33 Y112.473 E.00255
G1 X117.993 Y112.679 E.02149
G1 X118.668 Y113.354 E.05196
G1 X118.22 Y113.497 E.02555
G1 X117.693 Y112.969 E.04061
G1 E-.84 F1800
;WIPE_START
G1 F4800
G1 X118.22 Y113.497 E-.26869
G1 X118.462 Y113.42 E-.09131
;WIPE_END
G1 Z.72 F9000
G1 X119.856 Y112.389 Z.72
G1 Z.32
G1 E1.2 F1800
;TYPE:Gap infill
;WIDTH:0.136935
G1 X119.583 Y112.173 E.0031
G1 X121.145 Y112.903 F9000
;WIDTH:0.382539
G1 F1800
G1 X120.904 Y112.713 E.01257
;WIDTH:0.340129
G1 X120.662 Y112.523 E.01088
;WIDTH:0.318924
G1 X120.421 Y112.333 E.01003
G1 E-.89271
;WIPE_START
G1 X120.662 Y112.523 E-.30729
;WIPE_END
G1 Z.72 F9000
G1 X121.188 Y120.634 Z.72
G1 Z.32
G1 E1.2 F1800
;TYPE:Bottom surface
;WIDTH:0.490229
G1 F4800
G1 X120.685 Y120.131 E.03913
G1 X120.222 Y120.264 E.02646
G1 X120.905 Y120.947 E.05308
G1 X120.528 Y121.166 E.02397
G1 X119.709 Y120.347 E.06365
G1 X119.112 Y120.347 E.03281
G1 X119.945 Y121.179 E.0647
G1 X119.659 Y121.266 E.01642
G1 X119.531 Y121.361 E.00878
G1 X118.366 Y120.197 E.0905
G1 X118.096 Y120.106 E.01567
G1 X117.799 Y119.956 E.01831
G1 X117.869 Y120.194 E.01364
G1 X117.869 Y120.296 E.00561
G1 X118.928 Y121.355 E.08234
G1 X118.461 Y121.306 F9000
;TYPE:Gap infill
;WIDTH:0.302016
G1 F1800
G1 X118.218 Y121.115 E.0094
;WIDTH:0.344295
G1 X117.975 Y120.924 E.0111
;WIDTH:0.365435
G1 X117.732 Y120.733 E.01195
G1 X119.34 Y121.499 F9000
;WIDTH:0.128631
G1 F1800
G1 X119.031 Y121.252 E.00309
; stop printing object Steering Knuckle.stl id:11629783644382512 copy 0
; printing object Steering Knuckle to Center Link Mount 1.stl id:18411102858888203585 copy 0
G1 E-.84
;WIPE_START
G1 X119.34 Y121.499 E-.36
;WIPE_END
G1 Z.72 F9000
G1 X117.033 Y105.688 Z.72
G1 Z.32
M73 P7 R4
G1 E1.2 F1800
;TYPE:Inner wall
;WIDTH:0.434418
G1 X116.878 Y105.57 E.0093
;WIDTH:0.46961
G1 X116.759 Y105.514 E.00685
;WIDTH:0.504802
G1 X116.641 Y105.458 E.00745
;WIDTH:0.539995
G1 X116.523 Y105.402 E.00805
G1 X116.63 Y105.351 E.00729
;WIDTH:0.506558
G1 X116.738 Y105.301 E.00677
;WIDTH:0.473122
G1 X116.845 Y105.251 E.00626
;WIDTH:0.439686
G1 X117.133 Y105.038 E.01732
;WIDTH:0.434418
G1 X117.133 Y105.765 E.03468
G1 X117.064 Y105.713 E.00414
G1 X116.767 Y107.147 F9000
;TYPE:Outer wall
;WIDTH:0.439395
G1 F1800
G1 X116.471 Y107.237 E.01496
;WIDTH:0.408673
G1 X116.225 Y107.232 E.01092
;WIDTH:0.427755
G1 X116.006 Y107.164 E.01072
G1 X116.223 Y105.405 F9000
;TYPE:Inner wall
;WIDTH:0.586033
G1 F1800
G1 X115.978 Y105.437 E.0167
;WIDTH:0.609412
G1 X115.638 Y105.606 E.02678
G1 X115.418 Y105.84 E.02265
G1 X115.06 Y105.305 E.04537
;WIDTH:0.586825
G1 X114.795 Y104.872 E.03428
G1 X114.707 Y104.772 E.00903
;WIDTH:0.54455
G1 X114.619 Y104.672 E.00829
;WIDTH:0.502275
G1 X114.53 Y104.571 E.00755
;WIDTH:0.46
G1 X113.53 Y102.982 E.09579
G1 X114.039 Y102.979 E.02593
G1 X114.26 Y102.919 E.01168
G1 X114.675 Y102.701 E.02395
G1 X114.915 Y102.445 E.01789
G1 X115.107 Y102.157 E.01766
G1 X115.231 Y101.745 E.02198
G1 X116.414 Y103.14 E.09335
G1 X116.003 Y103.195 E.02111
G1 X115.725 Y103.332 E.01583
G1 X115.479 Y103.575 E.01764
G1 X115.299 Y103.925 E.02011
;WIDTH:0.502275
G1 X115.283 Y104.16 E.01327
;WIDTH:0.54455
G1 X115.267 Y104.394 E.01457
;WIDTH:0.586825
G1 X115.251 Y104.628 E.01586
G1 X115.351 Y104.833 E.01543
;WIDTH:0.603608
G1 X115.618 Y105.175 E.03023
;WIDTH:0.609412
G1 X115.804 Y105.303 E.01591
G1 X116.014 Y105.354 E.01522
;WIDTH:0.575313
G1 X116.185 Y105.395 E.01162
G1 X117.079 Y104.427 F9000
;TYPE:Outer wall
;WIDTH:0.473803
G1 F1800
G1 X116.941 Y104.699 E.01609
;WIDTH:0.46
G1 X116.71 Y104.895 E.01545
G1 X116.444 Y104.973 E.01415
G1 X116.213 Y104.962 E.01182
G1 X115.937 Y104.839 E.01541
G1 X115.759 Y104.65 E.01326
G1 X115.648 Y104.362 E.01576
G1 X115.662 Y104.07 E.01488
G1 X115.745 Y103.87 E.01107
G1 X115.992 Y103.628 E.01763
G1 X116.235 Y103.537 E.01326
;WIDTH:0.464131
G1 X116.54 Y103.542 E.01572
;WIDTH:0.485891
G1 X116.793 Y103.646 E.01486
G1 X116.992 Y103.872 E.01643
;WIDTH:0.466835
G1 X117.093 Y104.159 E.01578
;WIDTH:0.473803
G1 X117.083 Y104.388 E.01209
G1 E-.84
;WIPE_START
G1 X116.941 Y104.699 E-.1231
G1 X116.71 Y104.895 E-.10904
G1 X116.444 Y104.973 E-.09987
G1 X116.366 Y104.97 E-.02799
;WIPE_END
G1 Z.72 F9000
G1 X115.939 Y107.124 Z.72
G1 Z.32
G1 E1.2 F1800
;WIDTH:0.46
G1 X115.662 Y106.964 E.01636
G1 X115.384 Y106.661 E.02098
G1 X112.893 Y102.71 E.23828
;WIDTH:0.45335
G1 X112.587 Y102.271 E.02683
;WIDTH:0.404748
G1 X112.422 Y101.886 E.01834
;WIDTH:0.395345
G1 X112.372 Y101.352 E.02288
G1 X112.517 Y100.895 E.02041
;WIDTH:0.394888
G1 X112.787 Y100.518 E.01972
;WIDTH:0.406725
G1 X113.088 Y100.298 E.01642
G1 X113.378 Y100.184 E.01374
;WIDTH:0.393232
G1 X113.786 Y100.122 E.01747
;WIDTH:0.406694
G1 X114.136 Y100.172 E.01558
G1 X114.547 Y100.359 E.01989
;WIDTH:0.400051
G1 X114.906 Y100.709 E.02165
;WIDTH:0.429935
G1 X115.058 Y100.912 E.01195
;WIDTH:0.46
G1 X115.21 Y101.115 E.01294
G1 X116.4 Y102.519 E.09388
;WIDTH:0.464131
G1 X116.871 Y103.078 E.03773
;WIDTH:0.47605
G1 X117.216 Y103.494 E.02869
G1 X117.394 Y103.778 E.0178
;WIDTH:0.474798
G1 X117.503 Y104.231 E.02468
;WIDTH:0.477829
G1 X117.511 Y104.946 E.03816
;WIDTH:0.46
G1 X117.512 Y106.339 E.07103
G1 X117.331 Y106.715 E.02134
G1 X117.073 Y106.99 E.01919
;WIDTH:0.456692
G1 X116.767 Y107.147 E.01742
;WIDTH:0.451319
G1 X116.938 Y106.996 E.0114
;WIDTH:0.46
G1 X117.075 Y106.719 E.01578
G1 X117.09 Y106.469 E.01274
