; HEADER_BLOCK_START
; generated by Creality_Print V5.1.2.9904 on 2024-12-10 at 08:41:45
; total layer number: 36
; filament_density: 0
; filament_diameter: 1.75
; max_z_height: 7.32
; HEADER_BLOCK_END

; MINX = 102.40
; MINY = 101.80
; MINZ = -0.00
; MAXX = 134.67
; MAXY = 118.92
; MAXZ = 7.40

; THUMBNAIL_BLOCK_START

;
; THUMBNAIL_BLOCK_END

; THUMBNAIL_BLOCK_START

;
; THUMBNAIL_BLOCK_END

; external perimeters extrusion width = 0.42mm
; perimeters extrusion width = 0.45mm
; infill extrusion width = 0.45mm
; solid infill extrusion width = 0.42mm
; top infill extrusion width = 0.42mm
; first layer extrusion width = 0.46mm

; external perimeters extrusion width = 0.42mm
; perimeters extrusion width = 0.45mm
; infill extrusion width = 0.45mm
; solid infill extrusion width = 0.42mm
; top infill extrusion width = 0.42mm
; first layer extrusion width = 0.46mm

; EXECUTABLE_BLOCK_START
M73 P0 R7
M201 X5000 Y5000 Z500 E5000
M203 X500 Y500 Z30 E100
M204 P5000 R2500 T5000 ; sets acceleration (P, T) and retract acceleration (R), mm/sec^2
M205 X10.00 Y10.00 Z0.40 E5.00 ; sets the jerk limits, mm/sec
;TYPE:Custom
M220 S100 ;Reset Feedrate 
M221 S100 ;Reset Flowrate 
 
M140 S45 ;Set final bed temp 
G28 ;Home 
 
G92 E0 ;Reset Extruder 
G1 Z2.0 F3000 ;Move Z Axis up 
M104 S200 ;Set final nozzle temp 
G1 X-2.1 Y20 Z0.28 F5000.0 ;Move to start position 
M190 S45 ;Wait for bed temp to stabilize 
M109 S200 ;Wait for nozzle temp to stabilize 
G1 X-2.1 Y145.0 Z0.28 F1500.0 E15 ;Draw the first line 
G1 X-2.4 Y145.0 Z0.28 F5000.0 ;Move to side a little 
M73 P1 R7
G1 X-2.4 Y20 Z0.28 F1500.0 E30 ;Draw the second line 
G92 E0  ;Reset Extruder 
G1 E-1.0000 F1800 ;Retract a bit 
M73 P2 R7
G1 Z2.0 F3000 ;Move Z Axis up 
G1 E0.0000 F1800
G90
G21
M83 ; use relative distances for extrusion
M106 S0
;LAYER_CHANGE
;Z:0.32
;HEIGHT:0.32
;BEFORE_LAYER_CHANGE
;0.32
G92 E0

G1 E-1.2 F1800
;_SET_FAN_SPEED_CHANGING_LAYER
M204 P500
M205 X8 Y8
; printing object 6 Tooth Axle Gear.stl id:0 copy 0
M204 T500
G1 Z.4 F9000
G1 X112.485 Y107.697
G1 Z.4
G1 Z.32
G1 E1.2 F1800
;TYPE:Inner wall
;WIDTH:0.46
G1 X112.644 Y107.644 E.00853
G1 X113.004 Y107.393 E.02241
G1 X114.073 Y106.1 E.0856
G1 X114.247 Y105.935 E.01221
G1 X114.593 Y105.765 E.01967
G1 X115.274 Y105.601 E.03572
G1 X116.099 Y105.584 E.04212
G1 X116.288 Y105.858 E.01699
G1 X116.162 Y106.245 E.02076
G1 X115.94 Y106.711 E.02632
G1 X115.537 Y107.274 E.03533
G1 X115.213 Y107.536 E.02127
G1 X113.505 Y108.117 E.09204
G1 X113.324 Y108.217 E.01056
G1 X113.009 Y108.528 E.0226
G1 X112.922 Y108.774 E.01333
G1 X112.898 Y109.081 E.01571
G1 X113.006 Y109.692 E.03165
G1 X113.005 Y110.432 E.03772
G1 X113.046 Y110.649 E.01127
G1 X113.241 Y111.014 E.02113
G1 X113.48 Y111.194 E.01526
G1 X113.709 Y111.285 E.01256
G1 X115.526 Y111.596 E.09407
G1 X115.703 Y111.687 E.01013
G1 X116.124 Y112.001 E.02681
G1 X116.456 Y112.38 E.0257
G1 X116.871 Y113.081 E.04157
G1 X116.731 Y113.374 E.01657
G1 X116.392 Y113.45 E.01775
G1 X115.875 Y113.5 E.02647
G1 X115.211 Y113.449 E.03399
G1 X114.788 Y113.31 E.02274
G1 X113.374 Y112.086 E.09539
G1 X113.093 Y111.93 E.01638
G1 X112.855 Y111.875 E.01248
G1 X112.513 Y111.925 E.01761
G1 X112.239 Y112.054 E.01549
G1 X111.815 Y112.411 E.02828
G1 X111.036 Y112.884 E.04647
G1 X110.778 Y113.228 E.02194
G1 X110.716 Y113.467 E.01265
G1 X110.751 Y113.891 E.02168
G1 X111.337 Y115.486 E.08671
G1 X111.394 Y115.778 E.01518
G1 X111.331 Y116.296 E.02663
G1 X111.082 Y116.963 E.0363
G1 X110.755 Y117.491 E.0317
G1 X110.443 Y117.516 E.01597
G1 X110.05 Y117.042 E.03141
G1 X109.724 Y116.491 E.03269
G1 X109.594 Y116.134 E.01935
G1 X109.53 Y115.735 E.02066
G1 X109.878 Y113.96 E.09227
G1 X109.89 Y113.741 E.0112
G1 X109.717 Y113.27 E.02561
G1 X109.568 Y113.105 E.01133
G1 X109.232 Y112.925 E.01945
G1 X108.711 Y112.726 E.02845
G1 X107.991 Y112.329 E.04196
G1 X107.667 Y112.29 E.01664
G1 X107.339 Y112.36 E.01714
G1 X107.004 Y112.598 E.02093
G1 X105.927 Y113.9 E.08626
G1 X105.753 Y114.065 E.0122
G1 X105.407 Y114.235 E.01968
G1 X104.726 Y114.399 E.03572
G1 X103.901 Y114.416 E.04212
G1 X103.712 Y114.142 E.01699
G1 X103.838 Y113.755 E.02076
G1 X104.06 Y113.289 E.02632
G1 X104.463 Y112.726 E.03533
G1 X104.787 Y112.464 E.02127
G1 X106.511 Y111.877 E.09294
G1 X106.85 Y111.645 E.02092
G1 X107.035 Y111.365 E.01714
G1 X107.11 Y110.968 E.02058
G1 X107.022 Y110.458 E.02644
M73 P3 R7
G1 X106.965 Y109.37 E.05557
G1 X106.806 Y109.042 E.01862
G1 X106.623 Y108.882 E.01239
G1 X106.274 Y108.71 E.01986
G1 X104.474 Y108.404 E.09316
G1 X104.184 Y108.255 E.01659
G1 X103.823 Y107.939 E.0245
G1 X103.406 Y107.408 E.03446
G1 X103.129 Y106.919 E.02866
G1 X103.266 Y106.631 E.01624
G1 X103.773 Y106.529 E.02639
G1 X104.26 Y106.5 E.02488
G1 X104.878 Y106.579 E.03179
G1 X105.231 Y106.702 E.01909
G1 X106.636 Y107.922 E.09494
G1 X106.82 Y108.03 E.01087
G1 X107.231 Y108.13 E.0216
G1 X107.467 Y108.079 E.0123
G1 X107.777 Y107.936 E.01741
G1 X108.232 Y107.55 E.03047
G1 X108.747 Y107.251 E.03032
G1 X109.047 Y107.036 E.01888
G1 X109.222 Y106.745 E.01729
G1 X109.293 Y106.521 E.012
G1 X109.244 Y106.094 E.02193
G1 X108.628 Y104.441 E.09004
G1 X108.605 Y104.096 E.0176
G1 X108.717 Y103.557 E.02812
G1 X108.89 Y103.097 E.02508
G1 X109.229 Y102.51 E.03456
G1 X109.558 Y102.484 E.01684
G1 X109.81 Y102.76 E.0191
G1 X110.109 Y103.196 E.02698
G1 X110.344 Y103.66 E.02656
G1 X110.457 Y104.1 E.02317
G1 X110.439 Y104.424 E.01654
G1 X110.1 Y106.143 E.08941
G1 X110.16 Y106.479 E.01739
G1 X110.253 Y106.694 E.012
G1 X110.48 Y106.923 E.01642
G1 X110.695 Y107.05 E.01274
G1 X111.291 Y107.275 E.0325
G1 X112.002 Y107.667 E.04142
G1 X112.447 Y107.709 E.02284
G1 X112.391 Y107.322 F9000
;TYPE:Outer wall
G1 F1800
G1 X112.703 Y107.143 E.01837
G1 X113.886 Y105.713 E.09467
G1 X114.109 Y105.554 E.01399
G1 X114.475 Y105.392 E.02041
G1 X115.149 Y105.226 E.03544
G1 X115.727 Y105.2 E.02952
G1 X116.316 Y105.209 E.03002
G1 X116.719 Y105.794 E.03626
G1 X116.517 Y106.41 E.03309
G1 X116.14 Y107.133 E.04162
G1 X115.826 Y107.54 E.02623
G1 X115.388 Y107.89 E.0286
G1 X113.631 Y108.488 E.09465
G1 X113.348 Y108.723 E.0188
G1 X113.283 Y109.013 E.01518
G1 X113.397 Y109.658 E.03342
G1 X113.396 Y110.432 E.03949
G1 X113.529 Y110.748 E.0175
G1 X113.775 Y110.899 E.01474
G1 X115.651 Y111.221 E.09713
G1 X116.032 Y111.416 E.02185
G1 X116.465 Y111.795 E.02934
G1 X116.809 Y112.206 E.02733
G1 X117.097 Y112.656 E.02727
G1 X117.306 Y113.078 E.02401
G1 X117.003 Y113.715 E.036
G1 X116.422 Y113.844 E.03036
G1 X115.878 Y113.892 E.02786
G1 X115.147 Y113.837 E.03739
G1 X114.577 Y113.645 E.03068
G1 X113.118 Y112.382 E.09846
G1 X112.848 Y112.266 E.01498
G1 X112.491 Y112.353 E.01876
G1 X111.995 Y112.771 E.0331
G1 X111.32 Y113.16 E.03976
G1 X111.114 Y113.437 E.01756
G1 X111.118 Y113.756 E.01629
G1 X111.779 Y115.552 E.09765
G1 X111.786 Y115.801 E.01267
G1 X111.71 Y116.399 E.03075
G1 X111.435 Y117.136 E.04016
G1 X110.984 Y117.865 E.04376
G1 X110.284 Y117.922 E.03583
G1 X110.05 Y117.667 E.01761
G1 X109.73 Y117.267 E.02615
G1 X109.377 Y116.671 E.03532
G1 X109.223 Y116.259 E.02248
G1 X109.134 Y115.717 E.028
G1 X109.506 Y113.827 E.09827
G1 X109.383 Y113.473 E.01912
G1 X109.202 Y113.331 E.01175
G1 X108.597 Y113.113 E.03278
G1 X107.918 Y112.721 E.04002
G1 X107.587 Y112.682 E.01697
G1 X107.303 Y112.85 E.01682
G1 X106.114 Y114.287 E.09518
G1 X105.891 Y114.446 E.01399
G1 X105.525 Y114.608 E.02041
G1 X104.851 Y114.774 E.03544
G1 X104.273 Y114.8 E.02952
G1 X103.684 Y114.791 E.03002
G1 X103.281 Y114.206 E.03626
G1 X103.483 Y113.59 E.03309
G1 X103.86 Y112.867 E.04162
G1 X104.174 Y112.46 E.02623
G1 X104.612 Y112.11 E.0286
G1 X106.377 Y111.509 E.09509
G1 X106.64 Y111.297 E.01727
G1 X106.716 Y110.968 E.01719
G1 X106.603 Y110.341 E.03251
G1 X106.602 Y109.55 E.04038
G1 X106.496 Y109.281 E.01476
G1 X106.208 Y109.095 E.01745
G1 X104.349 Y108.779 E.09624
G1 X104.095 Y108.649 E.01453
G1 X103.602 Y108.281 E.03143
G1 X103.232 Y107.857 E.02869
G1 X102.925 Y107.389 E.02857
G1 X102.694 Y106.922 E.02654
G1 X102.996 Y106.286 E.03591
G1 X103.763 Y106.132 E.03989
G1 X104.281 Y106.11 E.02648
G1 X104.956 Y106.195 E.03468
G1 X105.441 Y106.365 E.02621
G1 X106.893 Y107.626 E.09814
G1 X107.154 Y107.731 E.01434
G1 X107.452 Y107.676 E.01549
G1 X108.197 Y107.117 E.04752
G1 X108.721 Y106.81 E.03098
G1 X108.895 Y106.52 E.01726
G1 X108.877 Y106.231 E.01479
G1 X108.241 Y104.524 E.09297
G1 X108.211 Y104.069 E.02324
G1 X108.283 Y103.723 E.01804
G1 X108.423 Y103.204 E.02744
G1 X108.688 Y102.646 E.03152
G1 X109.011 Y102.135 E.03082
G1 X109.717 Y102.078 E.03616
G1 X110.151 Y102.565 E.03328
G1 X110.556 Y103.201 E.03846
G1 X110.79 Y103.782 E.03194
G1 X110.866 Y104.282 E.02581
G1 X110.495 Y106.16 E.09766
G1 X110.574 Y106.47 E.01634
G1 X110.813 Y106.677 E.01612
G1 X111.403 Y106.887 E.03195
G1 X112.067 Y107.273 E.03919
G1 X112.351 Y107.316 E.01467
G1 E-.84
;WIPE_START
G1 X112.703 Y107.143 E-.14114
G1 X113.091 Y106.674 E-.21886
;WIPE_END
G1 Z.72 F9000
G1 X110.712 Y111.509 Z.72
G1 Z.32
G1 E1.2 F1800
;TYPE:Inner wall
G1 X110.432 Y111.623 E.01544
M73 P4 R7
G1 X110.016 Y111.675 E.02138
G1 X109.478 Y111.598 E.02771
G1 X109.024 Y111.364 E.02606
G1 X108.729 Y111.098 E.02026
G1 X108.435 Y110.597 E.02964
G1 X108.327 Y110.168 E.0226
G1 X108.37 Y109.62 E.02805
G1 X108.524 Y109.196 E.02301
G1 X108.872 Y108.762 E.02836
G1 X109.042 Y108.626 E.01114
G1 X109.568 Y108.377 E.02967
G1 X109.984 Y108.325 E.02138
G1 X110.52 Y108.401 E.02763
G1 X110.977 Y108.636 E.02621
G1 X111.33 Y108.971 E.02482
G1 X111.553 Y109.386 E.02406
G1 X111.679 Y109.918 E.02788
G1 X111.611 Y110.479 E.02883
G1 X111.378 Y110.951 E.02688
G1 X111.239 Y111.127 E.0114
G1 X110.841 Y111.457 E.0264
G1 X110.749 Y111.494 E.00504
G1 X110.567 Y111.152 F9000
;TYPE:Outer wall
G1 F1800
G1 X110.359 Y111.238 E.01151
G1 X110.06 Y111.286 E.01546
G1 X109.546 Y111.198 E.02658
G1 X109.179 Y110.994 E.02143
G1 X109.006 Y110.821 E.01248
G1 X108.762 Y110.36 E.02663
G1 X108.716 Y110.079 E.01454
G1 X108.775 Y109.599 E.02467
G1 X108.903 Y109.326 E.01542
G1 X109.225 Y108.972 E.02443
G1 X109.641 Y108.762 E.02375
G1 X109.94 Y108.714 E.01546
G1 X110.414 Y108.781 E.02442
G1 X110.821 Y109.006 E.02372
G1 X111.061 Y109.276 E.01844
G1 X111.176 Y109.491 E.01246
G1 X111.286 Y109.938 E.02348
G1 X111.224 Y110.396 E.02356
G1 X110.984 Y110.83 E.02534
G1 X110.626 Y111.127 E.02375
G1 X110.604 Y111.136 E.00119
G1 E-.84
;WIPE_START
G1 X110.359 Y111.238 E-.0956
G1 X110.06 Y111.286 E-.10905
G1 X109.635 Y111.213 E-.15535
;WIPE_END
G1 Z.72 F9000
G1 X115.902 Y106.432
G1 Z.72
G1 Z.32
G1 E1.2 F1800
;TYPE:Bottom surface
;WIDTH:0.462584
G1 F4800
G1 X115.402 Y105.931 E.03637
G1 X115.307 Y105.933 E.00485
G1 X114.923 Y106.01 E.02013
G1 X115.578 Y106.665 E.04759
G1 X115.342 Y106.986 E.02047
G1 X114.517 Y106.161 E.05993
G1 X114.479 Y106.179 E.00218
G1 X114.383 Y106.247 E.00601
G1 X114.231 Y106.432 E.0123
G1 X115.042 Y107.243 E.05892
G1 X114.626 Y107.384 E.02255
G1 X113.978 Y106.737 E.04705
G1 X113.726 Y107.041 E.02032
G1 X114.211 Y107.526 E.03517
G1 X113.795 Y107.667 E.02255
G1 X113.474 Y107.346 E.0233
G1 X113.216 Y107.645 E.02028
G1 X113.38 Y107.809 E.01192
G1 X113.112 Y107.96 E.01582
G1 X113.037 Y108.023 E.00501
G1 X112.896 Y107.882 E.01025
G1 X112.811 Y107.931 E.00503
G1 X112.496 Y108.039 E.01711
G1 X112.763 Y108.307 E.01945
G1 X112.72 Y108.358 E.00345
G1 X112.63 Y108.579 E.01222
G1 X112.6 Y108.701 E.00646
G1 X111.444 Y107.544 E.08398
G1 E-.84 F1800
;WIPE_START
G1 F4800
G1 X112.151 Y108.252 E-.36
;WIPE_END
G1 Z.72 F9000
G1 X110.307 Y104.179 Z.72
G1 Z.32
G1 E1.2 F1800
G1 F4800
G1 X109.255 Y103.127 E.07641
G1 X109.174 Y103.271 E.00849
G1 X109.081 Y103.51 E.01316
G1 X110.083 Y104.512 E.07278
G1 X109.991 Y104.977 E.02435
G1 X108.973 Y103.959 E.07391
G1 X108.94 Y104.12 E.00841
G1 X108.956 Y104.37 E.01289
G1 X109.033 Y104.577 E.01132
G1 X109.899 Y105.442 E.06287
G1 X109.807 Y105.908 E.02435
G1 X109.364 Y105.465 E.03218
G1 X109.568 Y106.012 E.02999
G1 X109.605 Y106.263 E.01305
G1 X109.821 Y106.478 E.01565
G1 X109.895 Y106.736 E.01376
G1 X109.98 Y106.885 E.00883
G1 X110.086 Y107.011 E.00844
G1 X110.329 Y107.231 E.01683
G1 X110.56 Y107.355 E.01345
G1 X110.774 Y107.431 E.01167
G1 X112.589 Y109.247 E.13187
G1 X112.673 Y109.721 E.02473
G1 X112.673 Y109.888 E.00855
G1 X109.567 Y106.782 E.22557
G1 X109.375 Y107.146 E.02117
G1 X110.254 Y108.025 E.06384
G1 X109.846 Y107.99 E.02102
G1 X109.693 Y108.021 E.00803
G1 X109.094 Y107.423 E.04349
G1 X108.745 Y107.631 E.02086
G1 X109.257 Y108.143 E.03715
G1 X108.889 Y108.332 E.02124
G1 X108.4 Y107.843 E.03551
G1 X108.094 Y108.094 E.02033
G1 X108.585 Y108.585 E.03566
G1 X108.331 Y108.888 E.02031
G1 X107.766 Y108.323 E.04099
G1 X107.659 Y108.37 E.00603
G1 X107.331 Y108.445 E.01727
G1 X108.14 Y109.255 E.05882
G1 X108.064 Y109.439 E.01026
G1 X108.032 Y109.703 E.01366
G1 X106.629 Y108.3 E.10194
G1 X106.433 Y108.186 E.01161
G1 X105.053 Y106.988 E.09387
G1 X104.896 Y106.922 E.00875
G1 X104.642 Y106.87 E.01334
G1 X106.117 Y108.346 E.10718
G1 X106.342 Y108.384 E.01168
M73 P5 R7
G1 X106.629 Y108.488 E.01571
G1 X106.864 Y108.644 E.0145
G1 X107.072 Y108.839 E.0146
G1 X107.251 Y109.185 E.02006
G1 X107.315 Y109.403 E.01165
G1 X107.317 Y109.546 E.00733
G1 X108.221 Y110.45 E.06566
G1 E-.84 F1800
;WIPE_START
G1 F4800
G1 X107.514 Y109.743 E-.36
;WIPE_END
G1 Z.72 F9000
G1 X105.661 Y108.447 Z.72
G1 Z.32
G1 E1.2 F1800
G1 F4800
G1 X104.055 Y106.841 E.11666
G1 X103.855 Y106.852 E.01027
G1 X103.567 Y106.91 E.01509
G1 X104.99 Y108.333 E.10333
G1 E-.84 F1800
;WIPE_START
G1 F4800
G1 X104.283 Y107.625 E-.36
;WIPE_END
G1 Z.72 F9000
G1 X115.009 Y111.667 Z.72
G1 Z.32
G1 E1.2 F1800
G1 F4800
G1 X116.441 Y113.098 E.10398
G1 X116.311 Y113.127 E.00682
G1 X115.945 Y113.16 E.01887
G1 X114.337 Y111.552 E.11679
G1 E-.84 F1800
;WIPE_START
G1 F4800
G1 X115.044 Y112.259 E-.36
;WIPE_END
G1 Z.72 F9000
G1 X115.546 Y113.318 Z.72
G1 Z.32
G1 E1.2 F1800
G1 F4800
G1 X113.88 Y111.652 E.12098
G1 X113.644 Y111.612 E.01234
G1 X113.418 Y111.541 E.01213
G1 X113.154 Y111.376 E.016
G1 X112.997 Y111.241 E.01062
G1 X112.887 Y111.096 E.00933
G1 X112.733 Y110.764 E.01881
G1 X112.673 Y110.445 E.01671
G1 X111.997 Y109.769 E.04907
G1 X112.007 Y110.008 E.01228
G1 X111.968 Y110.297 E.01499
G1 X113.361 Y111.69 E.10118
G1 X113.07 Y111.57 E.01617
G1 X112.858 Y111.541 E.011
G1 X112.68 Y111.566 E.00923
G1 X111.852 Y110.738 E.06013
G1 X111.669 Y111.112 E.02138
G1 X112.226 Y111.669 E.04048
G1 X112.031 Y111.794 E.0119
G1 X111.902 Y111.902 E.00865
G1 X111.412 Y111.412 E.03563
G1 X111.113 Y111.67 E.02028
G1 X111.6 Y112.157 E.03536
G1 X111.25 Y112.365 E.02088
G1 X110.748 Y111.862 E.03652
G1 X110.641 Y111.91 E.00602
G1 X110.308 Y111.979 E.01746
G1 X110.901 Y112.572 E.04309
G1 X110.703 Y112.75 E.01364
G1 X110.629 Y112.858 E.00673
G1 X109.545 Y111.773 E.07879
G1 X110.576 Y113.361 F9000
G1 F4800
G1 X107.325 Y110.11 E.23616
G1 X107.327 Y110.276 E.00852
G1 X107.408 Y110.751 E.02475
G1 X109.228 Y112.571 E.13217
G1 X109.456 Y112.653 E.01247
G1 X109.676 Y112.77 E.01277
G1 X109.922 Y112.983 E.01673
G1 X110.07 Y113.236 E.01505
G1 X110.179 Y113.521 E.01568
G1 X110.605 Y113.948 E.03099
G1 X110.032 Y113.932 F9000
G1 F4800
G1 X110.632 Y114.532 E.04359
G1 X110.956 Y115.413 E.04818
G1 X110.094 Y114.55 E.06262
G1 X110.005 Y115.018 E.02447
G1 X111.035 Y116.049 E.07486
G1 X111.008 Y116.209 E.00835
G1 X110.908 Y116.478 E.01475
G1 X109.916 Y115.486 E.07205
G1 X109.866 Y115.749 E.01373
G1 X109.889 Y115.967 E.01127
G1 X109.913 Y116.041 E.00401
G1 X110.874 Y117.001 E.06974
G1 E-.84 F1800
;WIPE_START
G1 F4800
G1 X110.167 Y116.294 E-.36
;WIPE_END
G1 Z.72 F9000
G1 X108.559 Y112.458 Z.72
G1 Z.32
G1 E1.2 F1800
G1 F4800
G1 X107.397 Y111.297 E.08437
G1 X107.352 Y111.467 E.00907
G1 X107.24 Y111.697 E.01311
G1 X107.509 Y111.966 E.01953
G1 X107.458 Y111.968 E.00265
M73 P6 R7
G1 X107.186 Y112.064 E.01479
G1 X107.101 Y112.115 E.00508
G1 X106.963 Y111.977 E.01
G1 X106.777 Y112.122 E.01213
G1 X106.62 Y112.191 E.00878
G1 X106.782 Y112.353 E.01177
G1 X106.526 Y112.654 E.02029
G1 X106.205 Y112.333 E.02333
G1 X105.789 Y112.474 E.02255
G1 X106.274 Y112.959 E.0352
G1 X106.022 Y113.264 E.02032
G1 X105.374 Y112.616 E.04706
G1 X104.958 Y112.757 E.02255
G1 X105.769 Y113.568 E.05893
