; HEADER_BLOCK_START
; generated by Creality_Print V5.1.2.9904 on 2024-12-10 at 08:42:38
; total layer number: 64
; filament_density: 0
; filament_diameter: 1.75
; max_z_height: 12.92
; HEADER_BLOCK_END

; MINX = 93.82
; MINY = 97.50
; MINZ = 0.00
; MAXX = 126.18
; MAXY = 122.50
; MAXZ = 12.94

; THUMBNAIL_BLOCK_START

;
; THUMBNAIL_BLOCK_END

; THUMBNAIL_BLOCK_START

;
; THUMBNAIL_BLOCK_END

; external perimeters extrusion width = 0.42mm
; perimeters extrusion width = 0.45mm
; infill extrusion width = 0.45mm
; solid infill extrusion width = 0.42mm
; top infill extrusion width = 0.42mm
; first layer extrusion width = 0.46mm

; EXECUTABLE_BLOCK_START
M73 P0 R15
M201 X5000 Y5000 Z500 E5000
M203 X500 Y500 Z30 E100
M204 P5000 R2500 T5000 ; sets acceleration (P, T) and retract acceleration (R), mm/sec^2
M205 X10.00 Y10.00 Z0.40 E5.00 ; sets the jerk limits, mm/sec
;TYPE:Custom
M220 S100 ;Reset Feedrate 
M221 S100 ;Reset Flowrate 
 
M140 S45 ;Set final bed temp 
G28 ;Home 
 
G92 E0 ;Reset Extruder 
G1 Z2.0 F3000 ;Move Z Axis up 
M104 S200 ;Set final nozzle temp 
G1 X-2.1 Y20 Z0.28 F5000.0 ;Move to start position 
M190 S45 ;Wait for bed temp to stabilize 
M109 S200 ;Wait for nozzle temp to stabilize 
G1 X-2.1 Y145.0 Z0.28 F1500.0 E15 ;Draw the first line 
G1 X-2.4 Y145.0 Z0.28 F5000.0 ;Move to side a little 
M73 P0 R14
G1 X-2.4 Y20 Z0.28 F1500.0 E30 ;Draw the second line 
G92 E0  ;Reset Extruder 
G1 E-1.0000 F1800 ;Retract a bit 
M73 P1 R14
G1 Z2.0 F3000 ;Move Z Axis up 
G1 E0.0000 F1800
G90
G21
M83 ; use relative distances for extrusion
M106 S0
;LAYER_CHANGE
;Z:0.32
;HEIGHT:0.32
;BEFORE_LAYER_CHANGE
;0.32
G92 E0

G1 E-1.2 F1800
;_SET_FAN_SPEED_CHANGING_LAYER
M204 P500
M205 X8 Y8
; printing object N20 Motor Mount V1.1.stl id:18423495823756177890 copy 0
M204 T500
G1 Z.4 F9000
G1 X124.867 Y101.425
G1 Z.4
G1 Z.32
G1 E1.2 F1800
;TYPE:Inner wall
;WIDTH:0.46
G1 X124.759 Y101.381 E.00598
G1 X124.371 Y101.336 E.01995
G1 X123.926 Y101.419 E.02307
G1 X123.545 Y101.612 E.02183
G1 X123.288 Y101.859 E.01815
G1 X123.101 Y102.161 E.01815
G1 X122.995 Y102.5 E.01815
G1 X122.976 Y102.856 E.01815
G1 X123.047 Y103.204 E.01815
G1 X123.202 Y103.524 E.01815
G1 X123.431 Y103.796 E.01815
G1 X123.721 Y104.002 E.01815
G1 X124.059 Y104.111 E.01812
;WIDTH:0.421456
G1 X124.564 Y104.123 E.0232
;WIDTH:0.431384
G1 X124.669 Y104.107 E.00502
;WIDTH:0.473018
G1 X124.773 Y104.091 E.0056
;WIDTH:0.514653
G1 X124.878 Y104.075 E.00617
;WIDTH:0.556287
G1 X124.983 Y104.059 E.00675
;WIDTH:0.597922
G1 X125.088 Y104.043 E.00732
G1 X125.495 Y103.741 E.03492
G1 X125.495 Y104.834 E.07537
G1 X125.102 Y104.498 E.03567
G1 X124.995 Y104.487 E.00742
;WIDTH:0.55578
G1 X124.888 Y104.476 E.00683
;WIDTH:0.513639
G1 X124.781 Y104.465 E.00624
;WIDTH:0.471498
G1 X124.674 Y104.454 E.00565
;WIDTH:0.429357
G1 X124.566 Y104.442 E.00506
;WIDTH:0.421456
G1 X124.048 Y104.443 E.02383
;WIDTH:0.46
G1 X123.774 Y104.529 E.01467
G1 X123.479 Y104.731 E.01823
G1 X123.246 Y105.001 E.01823
G1 X123.091 Y105.323 E.01823
G1 X123.025 Y105.674 E.01823
G1 X123.051 Y106.031 E.01823
G1 X123.169 Y106.368 E.01823
G1 X123.371 Y106.663 E.01823
G1 X123.641 Y106.896 E.01823
G1 X123.963 Y107.051 E.01823
G1 X124.315 Y107.118 E.01823
G1 X124.671 Y107.091 E.01823
G1 X125.008 Y106.973 E.01823
G1 X125.303 Y106.772 E.01823
G1 X125.564 Y106.454 E.02096
G1 X125.564 Y113.49 E.35901
G1 X125.303 Y113.228 E.01883
G1 X125.008 Y113.027 E.01823
G1 X124.594 Y112.904 E.02206
G1 X124.188 Y112.904 E.02071
G1 X123.774 Y113.027 E.02202
G1 X123.479 Y113.228 E.01823
G1 X123.246 Y113.499 E.01823
G1 X123.091 Y113.821 E.01823
G1 X123.025 Y114.172 E.01823
G1 X123.051 Y114.529 E.01823
G1 X123.169 Y114.866 E.01823
G1 X123.349 Y115.133 E.01642
G1 X123.579 Y115.346 E.01599
G1 X123.963 Y115.549 E.0222
G1 X124.164 Y115.562 E.01025
;WIDTH:0.415844
G1 X124.364 Y115.576 E.00909
;WIDTH:0.411024
G1 X124.548 Y115.559 E.00822
;WIDTH:0.45036
G1 X124.731 Y115.542 E.00916
;WIDTH:0.489697
G1 X124.914 Y115.526 E.01011
;WIDTH:0.52351
G1 X125.003 Y115.499 E.00549
;WIDTH:0.557323
G1 X125.092 Y115.473 E.0059
;WIDTH:0.591136
G1 X125.181 Y115.446 E.00631
G1 X125.498 Y115.145 E.0298
G1 X125.498 Y116.274 E.07693
G1 X125.254 Y116.041 E.02297
G1 X125.134 Y115.988 E.00899
;WIDTH:0.564197
G1 X125.013 Y115.935 E.00853
;WIDTH:0.537259
G1 X124.878 Y115.92 E.00829
;WIDTH:0.495956
G1 X124.743 Y115.904 E.00756
;WIDTH:0.454653
G1 X124.608 Y115.889 E.00683
;WIDTH:0.41335
G1 X124.473 Y115.874 E.0061
;WIDTH:0.416024
G1 X124.2 Y115.895 E.01243
;WIDTH:0.46
G1 X123.926 Y115.917 E.014
G1 X123.611 Y116.068 E.01781
G1 X123.312 Y116.331 E.02031
G1 X123.101 Y116.659 E.01993
G1 X122.981 Y117.069 E.02181
G1 X122.995 Y117.5 E.02197
G1 X123.101 Y117.839 E.01815
G1 X123.288 Y118.141 E.01815
G1 X123.545 Y118.388 E.01815
G1 X123.854 Y118.562 E.01815
G1 X124.198 Y118.655 E.01815
G1 X124.554 Y118.659 E.01815
G1 X124.963 Y118.538 E.02179
G1 X125.314 Y118.316 E.02116
G1 X125.564 Y118.043 E.0189
G1 X125.564 Y121.379 E.17021
G1 X94.436 Y121.379 E1.58814
G1 X94.436 Y118.009 E.17191
G1 X94.762 Y118.387 E.02546
G1 X95.072 Y118.562 E.01816
G1 X95.416 Y118.655 E.01815
G1 X95.763 Y118.66 E.01771
G1 X96.181 Y118.538 E.02223
G1 X96.531 Y118.316 E.02116
G1 X96.815 Y117.996 E.02183
G1 X96.963 Y117.673 E.01815
G1 X97.026 Y117.323 E.01815
G1 X97 Y116.968 E.01815
G1 X96.894 Y116.65 E.0171
G1 X96.736 Y116.393 E.0154
G1 X96.43 Y116.092 E.02187
G1 X96.05 Y115.897 E.0218
G1 X95.798 Y115.89 E.01285
;WIDTH:0.419477
G1 X95.546 Y115.882 E.01152
;WIDTH:0.417541
G1 X95.407 Y115.894 E.00637
;WIDTH:0.456127
G1 X95.267 Y115.906 E.00708
;WIDTH:0.494713
G1 X95.128 Y115.917 E.00778
;WIDTH:0.5333
G1 X94.988 Y115.929 E.00849
;WIDTH:0.56232
G1 X94.858 Y115.992 E.00931
;WIDTH:0.591341
G1 X94.727 Y116.055 E.00986
G1 X94.502 Y116.265 E.02096
G1 X94.502 Y115.157 E.0755
G1 X94.893 Y115.495 E.03524
G1 X95.003 Y115.513 E.00758
;WIDTH:0.546485
G1 X95.113 Y115.53 E.00693
;WIDTH:0.50163
G1 X95.222 Y115.548 E.00628
;WIDTH:0.456774
G1 X95.332 Y115.565 E.00563
;WIDTH:0.417566
G1 X95.886 Y115.568 E.02518
;WIDTH:0.46
G1 X96.126 Y115.512 E.0126
G1 X96.444 Y115.328 E.01872
G1 X96.709 Y115.058 E.01932
G1 X96.901 Y114.696 E.02091
G1 X96.975 Y114.326 E.01926
G1 X96.949 Y113.969 E.01823
G1 X96.831 Y113.632 E.01823
G1 X96.586 Y113.286 E.02161
G1 X96.226 Y113.027 E.02264
G1 X95.811 Y112.904 E.02206
G1 X95.406 Y112.904 E.02071
G1 X94.992 Y113.027 E.02202
G1 X94.696 Y113.229 E.01825
G1 X94.436 Y113.59 E.0227
G1 X94.436 Y106.454 E.3641
G1 X94.588 Y106.663 E.01321
G1 X94.859 Y106.896 E.01823
G1 X95.181 Y107.051 E.01823
G1 X95.532 Y107.118 E.01823
G1 X95.889 Y107.091 E.01823
G1 X96.226 Y106.973 E.01823
G1 X96.521 Y106.772 E.01823
G1 X96.754 Y106.501 E.01823
G1 X96.909 Y106.179 E.01823
G1 X96.975 Y105.828 E.01823
G1 X96.949 Y105.471 E.01823
G1 X96.831 Y105.134 E.01823
G1 X96.629 Y104.839 E.01823
G1 X96.359 Y104.606 E.01823
G1 X96.034 Y104.457 E.01823
;WIDTH:0.446071
G1 X95.909 Y104.45 E.00615
;WIDTH:0.416643
G1 X95.784 Y104.442 E.00567
;WIDTH:0.42057
G1 X95.483 Y104.448 E.01381
;WIDTH:0.453924
G1 X95.182 Y104.454 E.01512
;WIDTH:0.499729
G1 X95.061 Y104.487 E.00706
;WIDTH:0.545535
G1 X94.94 Y104.52 E.00781
;WIDTH:0.591341
G1 X94.819 Y104.554 E.00856
G1 X94.502 Y104.843 E.02927
G1 X94.502 Y103.714 E.07699
G1 X94.548 Y103.777 E.00537
G1 X94.904 Y104.057 E.03082
;WIDTH:0.591121
G1 X95.007 Y104.07 E.00706
;WIDTH:0.550734
G1 X95.109 Y104.083 E.00651
;WIDTH:0.510347
G1 X95.212 Y104.096 E.00597
;WIDTH:0.46996
G1 X95.315 Y104.109 E.00542
;WIDTH:0.429573
G1 X95.418 Y104.121 E.00487
;WIDTH:0.417628
G1 X95.733 Y104.109 E.01433
;WIDTH:0.446071
G1 X96.047 Y104.096 E.0155
;WIDTH:0.46
G1 X96.547 Y103.808 E.02944
G1 X96.815 Y103.498 E.02089
G1 X96.963 Y103.175 E.01815
G1 X97.026 Y102.825 E.01815
G1 X96.978 Y102.369 E.02335
G1 X96.732 Y101.897 E.02716
G1 X96.43 Y101.594 E.02182
G1 X96.117 Y101.426 E.01815
G1 X95.701 Y101.332 E.02173
G1 X95.144 Y101.419 E.02877
G1 X94.762 Y101.612 E.02183
G1 X94.436 Y101.954 E.02409
G1 X94.436 Y98.621 E.17004
G1 X125.564 Y98.622 E1.58814
G1 X125.564 Y101.987 E.1717
G1 X125.374 Y101.728 E.01639
M73 P2 R14
G1 X125.088 Y101.515 E.01816
G1 X124.905 Y101.44 E.01013
G1 E-.84
;WIPE_START
G1 X124.759 Y101.381 E-.05658
G1 X124.371 Y101.336 E-.14077
G1 X123.927 Y101.419 E-.16265
;WIPE_END
G1 Z.72 F9000
G1 X125.906 Y98.278 Z.72
G1 Z.32
G1 E1.2 F1800
;TYPE:Outer wall
G1 X125.955 Y98.436 E.00846
G1 X125.955 Y101.638 E.16338
;WIDTH:0.505924
G1 X125.932 Y102.299 E.03771
;WIDTH:0.532897
G1 X125.918 Y102.809 E.03086
G1 X125.937 Y103.148 E.02055
;WIDTH:0.496448
G1 X125.955 Y103.487 E.01893
;WIDTH:0.46
G1 X125.955 Y104.787 E.06634
;WIDTH:0.496997
G1 X125.936 Y105.068 E.01571
;WIDTH:0.533994
G1 X125.918 Y105.349 E.01707
;WIDTH:0.558148
G1 X125.906 Y105.815 E.02976
G1 X125.93 Y106.162 E.02223
;WIDTH:0.509074
G1 X125.955 Y106.51 E.02
;WIDTH:0.46
G1 X125.955 Y113.285 E.34569
;WIDTH:0.497191
G1 X125.936 Y113.517 E.01298
;WIDTH:0.534382
G1 X125.918 Y113.749 E.01411
;WIDTH:0.571574
G1 X125.899 Y113.98 E.01524
;WIDTH:0.573217
G1 X125.898 Y114.539 E.03677
G1 X125.917 Y114.735 E.01293
;WIDTH:0.535478
G1 X125.936 Y114.93 E.01196
;WIDTH:0.497739
G1 X125.955 Y115.126 E.01099
;WIDTH:0.46
G1 X125.955 Y116.136 E.05155
;WIDTH:0.505923
G1 X125.932 Y116.797 E.03771
;WIDTH:0.532898
G1 X125.918 Y117.307 E.03086
G1 X125.937 Y117.646 E.02055
;WIDTH:0.496449
G1 X125.955 Y117.985 E.01893
;WIDTH:0.46
G1 X125.955 Y121.684 E.18874
G1 X125.817 Y121.77 E.00827
G1 X94.226 Y121.77 E1.61184
G1 X94.108 Y121.743 E.00614
G1 X94.045 Y121.625 E.00686
G1 X94.045 Y118.29 E.17012
;WIDTH:0.489662
G1 X94.06 Y117.68 E.03349
;WIDTH:0.515725
G1 X94.073 Y117.354 E.01907
;WIDTH:0.541789
G1 X94.086 Y117.027 E.02018
G1 X94.066 Y116.753 E.01691
;WIDTH:0.500894
G1 X94.045 Y116.48 E.01545
;WIDTH:0.46
G1 X94.045 Y115.213 E.06466
;WIDTH:0.497191
G1 X94.064 Y114.981 E.01298
;WIDTH:0.534382
G1 X94.082 Y114.749 E.01411
;WIDTH:0.571574
G1 X94.101 Y114.518 E.01524
G1 X94.101 Y113.98 E.03524
G1 X94.082 Y113.777 E.01335
;WIDTH:0.534382
G1 X94.064 Y113.575 E.01237
;WIDTH:0.497191
G1 X94.045 Y113.372 E.01138
;WIDTH:0.46
G1 X94.045 Y106.715 E.33965
;WIDTH:0.500592
G1 X94.065 Y106.434 E.01585
;WIDTH:0.541184
G1 X94.086 Y106.153 E.01734
;WIDTH:0.558149
G1 X94.094 Y105.687 E.02976
G1 X94.07 Y105.34 E.02223
;WIDTH:0.509074
G1 X94.045 Y104.992 E.02
;WIDTH:0.46
G1 X94.045 Y103.792 E.06121
;WIDTH:0.489661
G1 X94.06 Y103.182 E.03349
;WIDTH:0.515725
G1 X94.073 Y102.856 E.01907
;WIDTH:0.541789
G1 X94.086 Y102.529 E.02018
G1 X94.066 Y102.255 E.01691
;WIDTH:0.500894
G1 X94.045 Y101.982 E.01545
;WIDTH:0.46
G1 X94.045 Y98.41 E.18223
G1 X94.072 Y98.293 E.00614
G1 X94.19 Y98.23 E.00686
G1 X125.749 Y98.23 E1.61016
G1 X125.868 Y98.266 E.00633
G1 E-.84
;WIPE_START
G1 X125.955 Y98.436 E-.06876
G1 X125.955 Y99.245 E-.29124
;WIPE_END
G1 Z.72 F9000
G1 X124.722 Y101.778 Z.72
G1 Z.32
G1 E1.2 F1800
G1 X124.732 Y101.78 E.00055
G1 X124.963 Y101.896 E.01316
G1 X125.171 Y102.086 E.01438
;WIDTH:0.503029
G1 X125.304 Y102.3 E.01425
;WIDTH:0.546058
G1 X125.436 Y102.514 E.01566
;WIDTH:0.547778
G1 X125.435 Y103 E.03038
G1 X125.297 Y103.219 E.01619
;WIDTH:0.503889
G1 X125.158 Y103.438 E.01471
;WIDTH:0.46
G1 X124.71 Y103.731 E.0273
G1 X124.431 Y103.779 E.01443
G1 X124.07 Y103.723 E.01863
G1 X123.736 Y103.546 E.0193
G1 X123.544 Y103.336 E.01452
G1 X123.426 Y103.107 E.01316
G1 X123.367 Y102.856 E.01316
G1 X123.374 Y102.598 E.01316
G1 X123.444 Y102.35 E.01316
G1 X123.573 Y102.127 E.01316
G1 X123.754 Y101.943 E.01316
G1 X123.999 Y101.803 E.01439
G1 X124.48 Y101.726 E.02485
G1 X124.683 Y101.77 E.01057
G1 E-.84
;WIPE_START
G1 X124.732 Y101.78 E-.01828
G1 X124.963 Y101.896 E-.09286
G1 X125.171 Y102.086 E-.1015
G1 X125.304 Y102.3 E-.0906
G1 X125.387 Y102.434 E-.05676
;WIPE_END
G1 Z.72 F9000
G1 X123.803 Y104.979 Z.72
G1 Z.32
G1 E1.2 F1800
G1 X123.817 Y104.964 E.001
G1 X124.14 Y104.803 E.01842
G1 X124.645 Y104.804 E.02577
G1 X124.903 Y104.916 E.01433
G1 X125.101 Y105.077 E.01304
;WIDTH:0.497191
G1 X125.2 Y105.223 E.00986
;WIDTH:0.534382
G1 X125.299 Y105.369 E.01071
;WIDTH:0.571574
G1 X125.398 Y105.515 E.01157
;WIDTH:0.573217
G1 X125.398 Y105.998 E.03174
G1 X125.299 Y106.14 E.0114
;WIDTH:0.535478
G1 X125.2 Y106.283 E.01055
;WIDTH:0.497739
G1 X125.101 Y106.425 E.0097
;WIDTH:0.46
G1 X124.858 Y106.611 E.01562
G1 X124.62 Y106.703 E.01304
G1 X124.366 Y106.73 E.01304
G1 X124.113 Y106.69 E.01304
G1 X123.88 Y106.586 E.01304
G1 X123.681 Y106.425 E.01304
G1 X123.531 Y106.218 E.01304
G1 X123.439 Y105.98 E.01304
G1 X123.413 Y105.725 E.01304
G1 X123.452 Y105.473 E.01304
G1 X123.556 Y105.24 E.01304
G1 X123.776 Y105.008 E.01629
G1 E-.84
;WIPE_START
G1 X123.817 Y104.964 E-.02143
G1 X124.14 Y104.803 E-.12994
G1 X124.645 Y104.804 E-.18185
G1 X124.713 Y104.834 E-.02677
;WIPE_END
G1 Z.72 F9000
G1 X123.923 Y113.389 Z.72
G1 Z.32
G1 E1.2 F1800
G1 X123.924 Y113.389 E.00006
G1 X124.188 Y113.295 E.01429
G1 X124.669 Y113.31 E.02454
G1 X124.903 Y113.414 E.01306
G1 X125.101 Y113.575 E.01304
;WIDTH:0.497191
G1 X125.2 Y113.721 E.00986
;WIDTH:0.534382
G1 X125.299 Y113.867 E.01071
;WIDTH:0.571574
G1 X125.398 Y114.013 E.01157
;WIDTH:0.573217
G1 X125.398 Y114.496 E.03174
G1 X125.287 Y114.65 E.0125
;WIDTH:0.535478
G1 X125.176 Y114.804 E.01156
;WIDTH:0.497739
G1 X125.065 Y114.959 E.01063
;WIDTH:0.46
G1 X124.759 Y115.15 E.01844
G1 X124.381 Y115.229 E.01967
G1 X124.113 Y115.188 E.01385
G1 X123.817 Y115.036 E.01699
G1 X123.547 Y114.747 E.02014
G1 X123.439 Y114.478 E.01482
G1 X123.413 Y114.223 E.01304
G1 X123.452 Y113.971 E.01304
G1 X123.556 Y113.738 E.01304
G1 X123.717 Y113.539 E.01304
G1 X123.891 Y113.413 E.01093
G1 E-.84
;WIPE_START
G1 X123.924 Y113.389 E-.01485
G1 X124.188 Y113.295 E-.10082
G1 X124.669 Y113.31 E-.17316
G1 X124.849 Y113.391 E-.07117
;WIPE_END
G1 Z.72 F9000
G1 X125.278 Y117.745 Z.72
G1 Z.32
G1 E1.2 F1800
;WIDTH:0.503889
G1 X125.158 Y117.936 E.01278
;WIDTH:0.46
G1 X124.686 Y118.235 E.02851
G1 X124.313 Y118.27 E.0191
G1 X123.931 Y118.169 E.02016
G1 X123.717 Y118.026 E.01316
G1 X123.544 Y117.834 E.01316
G1 X123.426 Y117.605 E.01316
G1 X123.367 Y117.354 E.01316
G1 X123.374 Y117.096 E.01316
G1 X123.444 Y116.847 E.01316
G1 X123.598 Y116.599 E.01494
G1 X123.821 Y116.398 E.01531
G1 X123.999 Y116.301 E.01035
G1 X124.48 Y116.224 E.02485
G1 X124.83 Y116.324 E.01855
G1 X125.125 Y116.527 E.01827
;WIDTH:0.503029
G1 X125.28 Y116.769 E.01631
;WIDTH:0.546058
G1 X125.436 Y117.012 E.01793
;WIDTH:0.547778
G1 X125.435 Y117.498 E.03038
G1 X125.3 Y117.712 E.01581
G1 E-.84
;WIPE_START
G1 X125.158 Y117.936 E-.09548
G1 X124.686 Y118.235 E-.20119
G1 X124.511 Y118.251 E-.06332
;WIPE_END
G1 Z.72 F9000
G1 X96.55 Y114.511 Z.72
G1 Z.32
G1 E1.2 F1800
;WIDTH:0.46
G1 X96.548 Y114.527 E.00082
G1 X96.398 Y114.819 E.01675
G1 X96.12 Y115.084 E.01958
G1 X95.837 Y115.201 E.01562
G1 X95.583 Y115.228 E.01304
G1 X95.331 Y115.188 E.01304
G1 X95.097 Y115.084 E.01304
G1 X94.899 Y114.923 E.01304
;WIDTH:0.497739
G1 X94.8 Y114.78 E.0097
;WIDTH:0.535478
G1 X94.701 Y114.638 E.01055
;WIDTH:0.573217
G1 X94.602 Y114.496 E.0114
G1 X94.602 Y114.013 E.03174
;WIDTH:0.571574
G1 X94.696 Y113.874 E.011
;WIDTH:0.534382
G1 X94.79 Y113.735 E.01019
;WIDTH:0.497191
G1 X94.884 Y113.597 E.00937
;WIDTH:0.46
G1 X95.142 Y113.389 E.01688
G1 X95.406 Y113.295 E.01429
G1 X95.887 Y113.31 E.02454
G1 X96.12 Y113.414 E.01306
G1 X96.319 Y113.575 E.01304
G1 X96.469 Y113.782 E.01304
G1 X96.561 Y114.02 E.01304
G1 X96.587 Y114.275 E.01304
G1 X96.556 Y114.472 E.01018
G1 E-.84
;WIPE_START
G1 X96.548 Y114.527 E-.02019
G1 X96.398 Y114.819 E-.11816
G1 X96.12 Y115.084 E-.13814
G1 X95.906 Y115.172 E-.0835
;WIPE_END
G1 Z.72 F9000
G1 X95.645 Y118.277 Z.72
G1 Z.32
G1 E1.2 F1800
G1 X95.392 Y118.255 E.01296
G1 X95.149 Y118.169 E.01316
G1 X94.918 Y118.007 E.01439
;WIDTH:0.489662
G1 X94.629 Y117.609 E.02702
;WIDTH:0.534357
G1 X94.548 Y117.354 E.01624
;WIDTH:0.541789
G1 X94.552 Y117.086 E.01654
G1 X94.657 Y116.875 E.01453
;WIDTH:0.500894
G1 X94.762 Y116.664 E.01327
;WIDTH:0.46
G1 X94.972 Y116.441 E.01564
G1 X95.217 Y116.301 E.01439
G1 X95.698 Y116.224 E.02485
G1 X96.047 Y116.324 E.01855
G1 X96.365 Y116.55 E.0199
G1 X96.53 Y116.794 E.01502
G1 X96.611 Y117.017 E.01211
