; HEADER_BLOCK_START
; generated by Creality_Print V5.1.2.9904 on 2025-05-20 at 13:16:32
; total layer number: 253
; filament_density: 1.24
; filament_diameter: 1.75
; max_z_height: 50.72
; HEADER_BLOCK_END

; MINX = 84.60
; MINY = 84.60
; MINZ = 0.00
; MAXX = 135.40
; MAXY = 135.40
; MAXZ = 50.80

; THUMBNAIL_BLOCK_START

;
; THUMBNAIL_BLOCK_END

; THUMBNAIL_BLOCK_START

;
; THUMBNAIL_BLOCK_END

; external perimeters extrusion width = 0.42mm
; perimeters extrusion width = 0.45mm
; infill extrusion width = 0.45mm
; solid infill extrusion width = 0.42mm
; top infill extrusion width = 0.42mm
; first layer extrusion width = 0.46mm

; EXECUTABLE_BLOCK_START
M73 P0 R92
M201 X5000 Y5000 Z500 E5000
M203 X500 Y500 Z30 E100
M204 P5000 R2500 T5000 ; sets acceleration (P, T) and retract acceleration (R), mm/sec^2
M205 X10.00 Y10.00 Z0.40 E5.00 ; sets the jerk limits, mm/sec
;TYPE:Custom
M220 S100 ;Reset Feedrate 
M221 S100 ;Reset Flowrate 
 
M140 S60 ;Set final bed temp 
G28 ;Home 
 
G92 E0 ;Reset Extruder 
G1 Z2.0 F3000 ;Move Z Axis up 
M104 S220 ;Set final nozzle temp 
G1 X-2.1 Y20 Z0.28 F5000.0 ;Move to start position 
M190 S60 ;Wait for bed temp to stabilize 
M109 S220 ;Wait for nozzle temp to stabilize 
G1 X-2.1 Y145.0 Z0.28 F1500.0 E15 ;Draw the first line 
G1 X-2.4 Y145.0 Z0.28 F5000.0 ;Move to side a little 
G1 X-2.4 Y20 Z0.28 F1500.0 E30 ;Draw the second line 
G92 E0  ;Reset Extruder 
G1 E-1.0000 F1800 ;Retract a bit 
G1 Z2.0 F3000 ;Move Z Axis up 
G1 E0.0000 F1800
G90
G21
M83 ; use relative distances for extrusion
; filament start gcode
M106 S0
;LAYER_CHANGE
;Z:0.32
;HEIGHT:0.32
;BEFORE_LAYER_CHANGE
;0.32
G92 E0

G1 E-1.2 F1800
;_SET_FAN_SPEED_CHANGING_LAYER
M204 P500
M205 X8 Y8
; printing object blue.stl id:140344133830440 copy 0
M204 T500
G1 Z.4 F9000
G1 X131.764 Y131.764
G1 Z.4
G1 Z.32
G1 E1.2 F1800
;TYPE:Inner wall
;WIDTH:0.46
G1 X88.236 Y131.764 E2.22081
G1 X88.236 Y88.236 E2.22081
G1 X131.764 Y88.236 E2.22081
G1 X131.764 Y131.724 E2.21877
G1 X132.13 Y132.155 F9000
;TYPE:Outer wall
G1 F1800
G1 X87.888 Y132.155 E2.25725
G1 X87.845 Y132.13 E.00255
G1 X87.845 Y87.888 E2.25725
G1 X87.87 Y87.845 E.00255
G1 X132.112 Y87.845 E2.25725
G1 X132.155 Y87.888 E.00311
G1 X132.155 Y132.112 E2.25634
G1 X132.15 Y132.12 E.00051
G1 E-.84
;WIPE_START
G1 X131.15 Y132.121 E-.36
;WIPE_END
G1 Z.72 F9000
G1 X106.052 Y104.681 Z.72
G1 Z.32
G1 E1.2 F1800
;TYPE:Inner wall
G1 X107.503 Y104.178 E.07834
G1 X108.727 Y103.896 E.06409
G1 X110.049 Y103.731 E.06796
G1 X110.972 Y103.698 E.04715
G1 X112.692 Y103.786 E.08787
G1 X114.022 Y103.993 E.06866
G1 X115.18 Y104.29 E.06103
G1 X116.213 Y104.667 E.05606
G1 X117.236 Y105.165 E.05808
G1 X118.127 Y105.724 E.05366
G1 X118.963 Y106.375 E.05407
G1 X119.714 Y107.095 E.05306
G1 X120.247 Y107.726 E.04216
G1 X120.57 Y108.119 E.02594
G1 X121.172 Y109.027 E.05561
G1 X121.711 Y110.051 E.05902
G1 X122.173 Y111.191 E.06276
G1 X122.556 Y112.482 E.06872
G1 X122.847 Y113.974 E.07753
G1 X123.023 Y115.727 E.08992
G1 X123.057 Y116.994 E.06466
G1 X122.967 Y118.739 E.08915
G1 X122.743 Y120.184 E.07461
G1 X122.404 Y121.503 E.06948
G1 X121.914 Y122.829 E.07212
G1 X121.445 Y123.802 E.05511
G1 X120.793 Y124.885 E.06451
G1 X120.045 Y125.873 E.06321
G1 X119.232 Y126.737 E.06054
G1 X118.344 Y127.503 E.05982
G1 X117.389 Y128.171 E.05947
G1 X116.79 Y128.526 E.03552
G1 X115.673 Y129.073 E.06347
G1 X114.503 Y129.505 E.06365
G1 X113.929 Y129.671 E.03049
G1 X105.628 Y129.671 E.42351
G1 X104.325 Y129.253 E.06983
G1 X103.125 Y128.747 E.06644
G1 X101.89 Y128.081 E.07159
G1 X100.889 Y127.402 E.06172
G1 X99.928 Y126.594 E.06402
G1 X99.097 Y125.727 E.06129
G1 X98.39 Y124.821 E.05863
G1 X97.675 Y123.659 E.0696
G1 X97.19 Y122.622 E.05842
G1 X96.821 Y121.555 E.05759
G1 X96.558 Y120.436 E.05865
G1 X96.405 Y119.269 E.06005
G1 X96.363 Y118.582 E.03514
G1 X96.42 Y118.295 E.01489
G1 X96.583 Y118.089 E.01342
G1 X96.852 Y117.961 E.01522
G1 X104.407 Y117.961 E.38546
G1 X104.678 Y118.027 E.01421
G1 X104.891 Y118.215 E.01448
G1 X104.989 Y118.466 E.01374
G1 X105.087 Y119.163 E.0359
G1 X105.226 Y119.749 E.03073
G1 X105.389 Y120.223 E.02559
G1 X105.803 Y121.028 E.04618
G1 X106.167 Y121.497 E.03026
G1 X106.527 Y121.848 E.02567
G1 X107.079 Y122.265 E.03534
G1 X107.867 Y122.636 E.04441
G1 X108.461 Y122.795 E.03137
G1 X109.028 Y122.874 E.02923
G1 X109.708 Y122.921 E.03478
G1 X110.257 Y122.895 E.02803
G1 X111.157 Y122.721 E.04677
G1 X111.878 Y122.422 E.03984
G1 X112.498 Y121.995 E.03837
G1 X113.054 Y121.413 E.04107
G1 X113.382 Y120.936 E.02954
G1 X113.621 Y120.488 E.02593
G1 X113.842 Y119.958 E.02929
G1 X114.038 Y119.323 E.03387
G1 X114.2 Y118.548 E.0404
G1 X114.313 Y117.576 E.04992
G1 X114.347 Y116.578 E.05095
G1 X114.289 Y115.428 E.05877
G1 X114.166 Y114.634 E.04095
G1 X114.002 Y113.991 E.03388
G1 X113.808 Y113.457 E.02896
G1 X113.592 Y113.004 E.02562
G1 X113.227 Y112.443 E.03413
G1 X112.89 Y112.051 E.02638
G1 X112.442 Y111.633 E.0313
G1 X111.912 Y111.269 E.03276
G1 X111.306 Y110.987 E.03412
G1 X110.808 Y110.822 E.02679
G1 X110.32 Y110.709 E.02554
G1 X109.677 Y110.627 E.03309
G1 X108.923 Y110.581 E.03854
G1 X108.024 Y110.627 E.04593
G1 X107.345 Y110.731 E.03502
G1 X106.767 Y110.879 E.03044
G1 X106.266 Y111.061 E.02723
G1 X105.782 Y111.296 E.02745
G1 X105.001 Y111.832 E.04832
G1 X104.302 Y112.491 E.049
G1 X104.091 Y112.618 E.01259
G1 X103.794 Y112.642 E.01523
G1 X97.785 Y111.146 E.31593
G1 X97.558 Y111.043 E.01273
G1 X97.396 Y110.859 E.01251
G1 X97.318 Y110.562 E.0157
G1 X99.497 Y91.329 E.98755
G1 X99.538 Y91.172 E.00829
G1 X99.643 Y91.003 E.01015
G1 X99.831 Y90.864 E.01192
G1 X100.081 Y90.808 E.01305
G1 X121.23 Y90.808 E1.07904
G1 X121.455 Y90.853 E.01175
G1 X121.634 Y90.97 E.01091
G1 X121.747 Y91.119 E.00954
G1 X121.817 Y91.395 E.01453
G1 X121.817 Y97.69 E.32116
G1 X121.76 Y97.942 E.01319
G1 X121.618 Y98.13 E.01202
G1 X121.35 Y98.264 E.01528
G1 X120.763 Y98.277 E.02998
G1 X106.792 Y98.277 E.71281
G1 X106.056 Y104.641 E.32686
G1 X105.58 Y105.358 F9000
;TYPE:Outer wall
G1 F1800
G1 X106.39 Y104.978 E.04569
G1 X107.611 Y104.555 E.06592
G1 X108.815 Y104.277 E.06303
G1 X109.643 Y104.173 E.04258
G1 X110.967 Y104.089 E.06769
G1 X112.652 Y104.176 E.08607
G1 X113.943 Y104.376 E.06666
G1 X115.064 Y104.665 E.05908
G1 X116.06 Y105.028 E.05405
G1 X117.046 Y105.508 E.05598
G1 X117.919 Y106.055 E.05259
G1 X118.721 Y106.683 E.05197
G1 X119.443 Y107.376 E.05104
G1 X120.244 Y108.335 E.06374
G1 X120.835 Y109.227 E.0546
G1 X121.355 Y110.216 E.05702
G1 X121.803 Y111.32 E.0608
G1 X122.175 Y112.576 E.0668
G1 X122.46 Y114.031 E.07565
G1 X122.632 Y115.752 E.08826
G1 X122.666 Y116.989 E.06315
G1 X122.577 Y118.699 E.08734
G1 X122.36 Y120.105 E.07261
G1 X122.03 Y121.386 E.06748
G1 X121.553 Y122.676 E.07015
G1 X121.1 Y123.616 E.05324
G1 X120.468 Y124.666 E.06253
G1 X119.746 Y125.62 E.06108
G1 X118.961 Y126.454 E.05843
G1 X118.104 Y127.194 E.05776
G1 X117.165 Y127.85 E.05845
G1 X116.604 Y128.182 E.03324
G1 X115.519 Y128.713 E.06164
G1 X114.367 Y129.138 E.06263
G1 X113.858 Y129.28 E.02699
G1 X105.689 Y129.28 E.41676
G1 X104.461 Y128.886 E.06582
G1 X103.294 Y128.394 E.06461
G1 X102.093 Y127.746 E.06962
G1 X101.125 Y127.089 E.05968
G1 X100.196 Y126.308 E.06192
G1 X99.393 Y125.471 E.05919
G1 X98.712 Y124.597 E.05651
G1 X98.02 Y123.473 E.06736
G1 X97.553 Y122.475 E.05623
G1 X97.198 Y121.446 E.05553
G1 X96.944 Y120.366 E.05663
G1 X96.793 Y119.218 E.05905
G1 X96.754 Y118.559 E.03368
G1 X96.807 Y118.414 E.00789
G1 X96.949 Y118.352 E.00793
G1 X104.407 Y118.352 E.38051
G1 X104.554 Y118.419 E.00824
G1 X104.601 Y118.521 E.00571
G1 X104.702 Y119.235 E.03683
G1 X104.85 Y119.858 E.03263
G1 X105.028 Y120.377 E.02802
G1 X105.469 Y121.234 E.04916
G1 X105.876 Y121.759 E.03392
G1 X106.27 Y122.143 E.02806
G1 X106.674 Y122.464 E.02633
G1 X107.116 Y122.715 E.0259
G1 X107.727 Y123.002 E.03448
G1 X108.386 Y123.179 E.03482
G1 X109.001 Y123.264 E.03167
G1 X109.704 Y123.313 E.03595
G1 X110.304 Y123.285 E.03063
G1 X111.27 Y123.098 E.05023
G1 X112.066 Y122.767 E.04396
G1 X112.753 Y122.295 E.04253
G1 X113.359 Y121.661 E.04474
G1 X113.717 Y121.14 E.03226
G1 X113.975 Y120.656 E.02801
G1 X114.21 Y120.091 E.03121
G1 X114.417 Y119.421 E.03574
G1 X114.586 Y118.611 E.04224
G1 X114.703 Y117.606 E.05164
G1 X114.739 Y116.575 E.05261
G1 X114.679 Y115.388 E.06065
G1 X114.55 Y114.556 E.04295
G1 X114.376 Y113.876 E.03583
G1 X114.17 Y113.306 E.03092
G1 X113.937 Y112.818 E.02758
G1 X113.54 Y112.208 E.03716
G1 X113.171 Y111.778 E.02889
G1 X112.686 Y111.327 E.03378
G1 X112.107 Y110.929 E.03585
G1 X111.447 Y110.622 E.03714
G1 X110.947 Y110.454 E.02689
G1 X110.388 Y110.324 E.0293
G1 X109.701 Y110.237 E.03534
G1 X108.925 Y110.189 E.03966
G1 X107.984 Y110.237 E.04806
G1 X107.267 Y110.347 E.03701
G1 X106.652 Y110.504 E.0324
G1 X106.113 Y110.7 E.02924
G1 X105.584 Y110.956 E.02999
G1 X104.755 Y111.527 E.05136
G1 X104.034 Y112.206 E.05054
G1 X103.885 Y112.261 E.00813
G1 X97.88 Y110.766 E.31574
G1 X97.753 Y110.691 E.00752
G1 X97.713 Y110.55 E.00751
G1 X99.886 Y91.373 E.98467
G1 X99.935 Y91.265 E.00607
G1 X100.081 Y91.2 E.00814
G1 X121.23 Y91.2 E1.07904
G1 X121.364 Y91.254 E.00742
G1 X121.425 Y91.395 E.00786
G1 X121.425 Y97.69 E.32116
G1 X121.359 Y97.837 E.00822
G1 X121.23 Y97.886 E.00706
G1 X106.443 Y97.886 E.75443
G1 X105.584 Y105.318 E.38176
G1 E-.84
;WIPE_START
G1 X106.39 Y104.978 E-.31507
G1 X106.508 Y104.937 E-.04493
;WIPE_END
G1 Z.72 F9000
G1 X131.607 Y89.186
G1 Z.72
G1 Z.32
G1 E1.2 F1800
;TYPE:Bottom surface
;WIDTH:0.460785
G1 F4800
G1 X130.991 Y88.569 E.04458
G1 X130.436 Y88.569 E.02835
G1 X131.431 Y89.564 E.07194
G1 X131.431 Y90.119 E.02835
G1 X129.881 Y88.569 E.11204
G1 X129.327 Y88.569 E.02835
G1 X131.431 Y90.673 E.15213
G1 X131.431 Y91.228 E.02835
G1 X128.772 Y88.569 E.19222
G1 X128.218 Y88.569 E.02835
G1 X131.431 Y91.782 E.23231
G1 X131.431 Y92.337 E.02835
G1 X127.663 Y88.569 E.2724
G1 X127.109 Y88.569 E.02835
G1 X131.431 Y92.891 E.3125
G1 X131.431 Y93.446 E.02835
G1 X126.554 Y88.569 E.35259
G1 X126 Y88.569 E.02835
G1 X131.431 Y94 E.39268
G1 X131.431 Y94.555 E.02835
G1 X125.445 Y88.569 E.43277
G1 X124.891 Y88.569 E.02835
G1 X131.431 Y95.109 E.47287
G1 X131.431 Y95.664 E.02835
G1 X124.336 Y88.569 E.51296
G1 X123.782 Y88.569 E.02835
G1 X131.431 Y96.218 E.55305
G1 X131.431 Y96.773 E.02835
G1 X123.227 Y88.569 E.59314
G1 X122.673 Y88.569 E.02835
G1 X131.431 Y97.327 E.63323
G1 X131.431 Y97.882 E.02835
G1 X122.118 Y88.569 E.67333
G1 X121.563 Y88.569 E.02835
G1 X131.431 Y98.437 E.71342
G1 X131.431 Y98.991 E.02835
G1 X121.009 Y88.569 E.75351
G1 X120.454 Y88.569 E.02835
G1 X131.431 Y99.546 E.7936
G1 X131.431 Y100.1 E.02835
G1 X119.9 Y88.569 E.8337
G1 X119.345 Y88.569 E.02835
G1 X121.254 Y90.478 E.13801
G1 X121.583 Y90.544 E.01715
G1 X121.864 Y90.727 E.01713
G1 X122.041 Y90.96 E.01499
G1 X122.127 Y91.192 E.01262
G1 X122.147 Y91.371 E.00922
G1 X131.431 Y100.655 E.67121
G1 X131.431 Y101.209 E.02835
G1 X122.149 Y91.927 E.67108
G1 X122.149 Y92.482 E.02835
G1 X131.431 Y101.764 E.67108
G1 X131.431 Y102.318 E.02835
G1 X122.149 Y93.036 E.67108
G1 X122.149 Y93.591 E.02835
G1 X131.431 Y102.873 E.67108
G1 X131.431 Y103.427 E.02835
G1 X122.149 Y94.145 E.67108
G1 X122.149 Y94.7 E.02835
G1 X131.431 Y103.982 E.67108
G1 X131.431 Y104.536 E.02835
G1 X122.149 Y95.254 E.67108
G1 X122.149 Y95.809 E.02835
G1 X131.431 Y105.091 E.67108
G1 X131.431 Y105.645 E.02835
G1 X122.149 Y96.363 E.67108
G1 X122.149 Y96.918 E.02835
G1 X131.431 Y106.2 E.67108
G1 X131.431 Y106.754 E.02835
G1 X122.149 Y97.473 E.67108
G1 X122.149 Y97.7 E.01163
G1 X122.101 Y97.979 E.01447
G1 X131.431 Y107.309 E.67455
G1 X131.431 Y107.864 E.02835
G1 X121.89 Y98.322 E.68985
G1 X121.838 Y98.381 E.00401
G1 X121.62 Y98.524 E.01329
G1 X121.557 Y98.544 E.00339
G1 X131.431 Y108.418 E.71385
G1 X131.431 Y108.973 E.02835
G1 X121.068 Y98.609 E.74925
G1 X120.513 Y98.609 E.02835
G1 X131.431 Y109.527 E.78934
G1 X131.431 Y110.082 E.02835
G1 X119.959 Y98.609 E.82943
G1 X119.404 Y98.609 E.02835
G1 X131.431 Y110.636 E.86952
G1 X131.431 Y111.191 E.02835
G1 X118.85 Y98.609 E.90961
G1 X118.295 Y98.609 E.02835
G1 X131.431 Y111.745 E.94971
G1 X131.431 Y112.3 E.02835
G1 X117.741 Y98.609 E.9898
G1 X117.186 Y98.609 E.02835
G1 X131.431 Y112.854 E1.02989
G1 X131.431 Y113.409 E.02835
G1 X116.632 Y98.609 E1.06998
G1 X116.077 Y98.609 E.02835
G1 X131.431 Y113.963 E1.11008
G1 X131.431 Y114.518 E.02835
G1 X115.523 Y98.609 E1.15017
G1 X114.968 Y98.609 E.02835
M73 P0 R91
G1 X131.431 Y115.072 E1.19026
G1 X131.431 Y115.627 E.02835
G1 X114.414 Y98.609 E1.23035
G1 X113.859 Y98.609 E.02835
G1 X131.431 Y116.181 E1.27045
G1 X131.431 Y116.736 E.02835
G1 X113.305 Y98.609 E1.31054
G1 X112.75 Y98.609 E.02835
G1 X131.431 Y117.291 E1.35063
G1 X131.431 Y117.845 E.02835
G1 X112.195 Y98.609 E1.39072
G1 X111.641 Y98.609 E.02835
M73 P1 R91
G1 X131.431 Y118.4 E1.43081
G1 X131.431 Y118.954 E.02835
G1 X121.594 Y109.117 E.71119
G1 X122.027 Y109.947 E.04785
G1 X122.133 Y110.211 E.01454
G1 X131.431 Y119.509 E.67221
G1 X131.431 Y120.063 E.02835
G1 X122.503 Y111.135 E.64548
G1 X122.737 Y111.923 E.04202
G1 X131.431 Y120.618 E.62859
G1 X131.431 Y121.172 E.02835
G1 X122.927 Y112.668 E.61482
G1 X123.062 Y113.358 E.03591
G1 X131.431 Y121.727 E.60507
G1 X131.431 Y122.281 E.02835
G1 X123.188 Y114.038 E.59598
G1 X123.25 Y114.654 E.03167
G1 X131.431 Y122.836 E.59152
G1 X131.431 Y123.39 E.02835
G1 X123.311 Y115.271 E.58705
G1 X123.358 Y115.872 E.03081
G1 X131.431 Y123.945 E.5837
G1 X131.431 Y124.499 E.02835
G1 X123.374 Y116.442 E.58252
G1 X123.388 Y117.011 E.02909
G1 X131.431 Y125.054 E.58148
G1 X131.431 Y125.608 E.02835
G1 X123.361 Y117.539 E.58343
G1 X123.335 Y118.067 E.02701
G1 X131.431 Y126.163 E.58537
G1 X131.431 Y126.718 E.02835
G1 X123.308 Y118.594 E.58732
G1 X123.246 Y119.087 E.02539
G1 X131.431 Y127.272 E.59178
G1 X131.431 Y127.827 E.02835
G1 X123.172 Y119.567 E.59715
G1 X123.097 Y120.047 E.02485
G1 X131.431 Y128.381 E.60252
G1 X131.431 Y128.936 E.02835
G1 X123.003 Y120.508 E.60934
G1 X122.889 Y120.948 E.02324
G1 X131.431 Y129.49 E.61762
G1 X131.431 Y130.045 E.02835
G1 X122.774 Y121.388 E.6259
G1 X122.644 Y121.813 E.02271
G1 X131.431 Y130.599 E.63527
G1 X131.431 Y131.154 E.02835
G1 X122.495 Y122.217 E.6461
G1 X122.345 Y122.622 E.02206
G1 X131.154 Y131.431 E.63688
G1 X130.599 Y131.431 E.02835
G1 X122.188 Y123.019 E.60816
G1 X122.008 Y123.394 E.02126
G1 X130.045 Y131.431 E.58104
G1 X129.49 Y131.431 E.02835
G1 X121.829 Y123.769 E.55393
G1 X121.634 Y124.129 E.02091
G1 X128.936 Y131.431 E.52793
G1 X128.381 Y131.431 E.02835
G1 X121.425 Y124.475 E.50295
G1 X121.216 Y124.82 E.02065
G1 X127.827 Y131.431 E.47796
G1 X127.272 Y131.431 E.02835
G1 X121.002 Y125.161 E.45336
G1 X120.763 Y125.476 E.02024
G1 X126.718 Y131.431 E.43054
G1 X126.163 Y131.431 E.02835
G1 X120.524 Y125.792 E.40772
G1 X120.28 Y126.103 E.02019
G1 X125.608 Y131.431 E.38525
G1 X125.054 Y131.431 E.02835
G1 X120.012 Y126.389 E.36451
G1 X119.745 Y126.676 E.02006
G1 X124.499 Y131.431 E.34378
G1 X123.945 Y131.431 E.02835
G1 X119.475 Y126.961 E.32315
G1 X119.179 Y127.219 E.0201
G1 X123.39 Y131.431 E.30451
G1 X122.836 Y131.431 E.02835
G1 X118.882 Y127.477 E.28587
G1 X118.585 Y127.735 E.0201
G1 X122.281 Y131.431 E.26723
G1 X121.727 Y131.431 E.02835
G1 X118.26 Y127.964 E.25063
G1 X117.935 Y128.194 E.02035
G1 X121.172 Y131.431 E.23407
G1 X120.618 Y131.431 E.02835
G1 X117.609 Y128.423 E.21751
G1 X117.263 Y128.631 E.02066
G1 X120.063 Y131.431 E.20246
G1 X119.509 Y131.431 E.02835
G1 X116.914 Y128.836 E.18761
G1 X116.541 Y129.017 E.02121
G1 X118.954 Y131.431 E.1745
G1 X118.4 Y131.431 E.02835
G1 X116.167 Y129.199 E.1614
G1 X115.794 Y129.38 E.02121
G1 X117.845 Y131.431 E.14829
G1 X117.291 Y131.431 E.02835
G1 X115.391 Y129.531 E.13735
G1 X114.985 Y129.68 E.02209
G1 X116.736 Y131.431 E.12658
G1 X116.181 Y131.431 E.02835
G1 X114.58 Y129.829 E.11581
G1 X114.152 Y129.956 E.0228
G1 X115.627 Y131.431 E.10662
G1 X115.072 Y131.431 E.02835
G1 X113.645 Y130.004 E.10318
G1 X113.091 Y130.004 E.02835
G1 X114.518 Y131.431 E.10318
G1 X113.963 Y131.431 E.02835
G1 X112.536 Y130.004 E.10318
G1 X111.982 Y130.004 E.02835
G1 X113.409 Y131.431 E.10318
G1 X112.854 Y131.431 E.02835
G1 X111.427 Y130.004 E.10318
