; HEADER_BLOCK_START
; generated by Creality_Print V5.1.2.9904 on 2025-05-20 at 13:11:55
; total layer number: 253
; filament_density: 1.24
; filament_diameter: 1.75
; max_z_height: 50.72
; HEADER_BLOCK_END

; MINX = 84.60
; MINY = 84.60
; MINZ = 0.00
; MAXX = 135.40
; MAXY = 135.40
; MAXZ = 50.80

; THUMBNAIL_BLOCK_START

;
; THUMBNAIL_BLOCK_END

; THUMBNAIL_BLOCK_START

;
; THUMBNAIL_BLOCK_END

; external perimeters extrusion width = 0.42mm
; perimeters extrusion width = 0.45mm
; infill extrusion width = 0.45mm
; solid infill extrusion width = 0.42mm
; top infill extrusion width = 0.42mm
; first layer extrusion width = 0.46mm

; EXECUTABLE_BLOCK_START
M73 P0 R93
M201 X5000 Y5000 Z500 E5000
M203 X500 Y500 Z30 E100
M204 P5000 R2500 T5000 ; sets acceleration (P, T) and retract acceleration (R), mm/sec^2
M205 X10.00 Y10.00 Z0.40 E5.00 ; sets the jerk limits, mm/sec
;TYPE:Custom
M220 S100 ;Reset Feedrate 
M221 S100 ;Reset Flowrate 
 
M140 S60 ;Set final bed temp 
G28 ;Home 
 
G92 E0 ;Reset Extruder 
G1 Z2.0 F3000 ;Move Z Axis up 
M104 S220 ;Set final nozzle temp 
G1 X-2.1 Y20 Z0.28 F5000.0 ;Move to start position 
M190 S60 ;Wait for bed temp to stabilize 
M109 S220 ;Wait for nozzle temp to stabilize 
G1 X-2.1 Y145.0 Z0.28 F1500.0 E15 ;Draw the first line 
G1 X-2.4 Y145.0 Z0.28 F5000.0 ;Move to side a little 
G1 X-2.4 Y20 Z0.28 F1500.0 E30 ;Draw the second line 
G92 E0  ;Reset Extruder 
G1 E-1.0000 F1800 ;Retract a bit 
G1 Z2.0 F3000 ;Move Z Axis up 
G1 E0.0000 F1800
G90
G21
M83 ; use relative distances for extrusion
; filament start gcode
M106 S0
;LAYER_CHANGE
;Z:0.32
;HEIGHT:0.32
;BEFORE_LAYER_CHANGE
;0.32
G92 E0

G1 E-1.2 F1800
;_SET_FAN_SPEED_CHANGING_LAYER
M204 P500
M205 X8 Y8
; printing object green.stl id:140343880919784 copy 0
M204 T500
G1 Z.4 F9000
G1 X131.764 Y131.764
G1 Z.4
G1 Z.32
G1 E1.2 F1800
;TYPE:Inner wall
;WIDTH:0.46
G1 X88.236 Y131.764 E2.22081
G1 X88.236 Y88.236 E2.22081
G1 X131.764 Y88.236 E2.22081
G1 X131.764 Y131.724 E2.21877
G1 X132.13 Y132.155 F9000
;TYPE:Outer wall
G1 F1800
G1 X87.888 Y132.155 E2.25725
G1 X87.845 Y132.13 E.00255
G1 X87.845 Y87.888 E2.25725
G1 X87.87 Y87.845 E.00255
G1 X132.112 Y87.845 E2.25725
G1 X132.155 Y87.888 E.00311
M73 P0 R92
G1 X132.155 Y132.112 E2.25634
G1 X132.15 Y132.12 E.00051
G1 E-.84
;WIPE_START
G1 X131.15 Y132.121 E-.36
;WIPE_END
G1 Z.72 F9000
G1 X119.167 Y121.535 Z.72
G1 Z.32
G1 E1.2 F1800
;TYPE:Inner wall
G1 X119.167 Y129.084 E.38516
G1 X119.143 Y129.249 E.00847
G1 X119.049 Y129.437 E.01071
G1 X118.856 Y129.602 E.01299
G1 X118.58 Y129.671 E.01453
G1 X111.045 Y129.671 E.38444
G1 X110.768 Y129.602 E.01453
G1 X110.575 Y129.437 E.01299
G1 X110.458 Y129.202 E.01339
G1 X110.458 Y121.535 E.39115
G1 X95.627 Y121.535 E.75669
G1 X95.348 Y121.465 E.01465
G1 X95.147 Y121.286 E.01376
G1 X95.045 Y121.041 E.01355
G1 X94.699 Y116.243 E.24544
G1 X94.704 Y116.116 E.00649
G1 X94.789 Y115.887 E.01247
G1 X110.49 Y91.081 E1.49782
G1 X110.606 Y90.948 E.00904
G1 X110.903 Y90.808 E.01674
G1 X118.58 Y90.808 E.39166
G1 X118.805 Y90.853 E.01175
G1 X118.984 Y90.97 E.01091
G1 X119.097 Y91.119 E.00954
G1 X119.167 Y91.395 E.01453
G1 X119.167 Y114.265 E1.16685
G1 X122.846 Y114.265 E.18773
G1 X123.133 Y114.34 E.01512
G1 X123.314 Y114.499 E.01231
G1 X123.433 Y114.774 E.01527
G1 X123.433 Y120.948 E.31505
G1 X123.371 Y121.21 E.01372
G1 X123.22 Y121.401 E.01241
G1 X122.961 Y121.535 E.01489
G1 X119.207 Y121.535 E.19157
G1 X118.775 Y121.144 F9000
;TYPE:Outer wall
G1 F1800
G1 X118.775 Y129.084 E.40512
G1 X118.736 Y129.202 E.00631
G1 X118.58 Y129.28 E.00893
G1 X111.045 Y129.28 E.38444
G1 X110.888 Y129.202 E.00893
G1 X110.849 Y129.084 E.00631
G1 X110.849 Y121.144 E.40512
G1 X95.627 Y121.144 E.77665
G1 X95.487 Y121.086 E.0077
G1 X95.432 Y120.962 E.00691
G1 X95.094 Y116.137 E.24683
G1 X110.82 Y91.291 E1.50027
G1 X110.956 Y91.2 E.00835
G1 X118.58 Y91.2 E.38895
G1 X118.714 Y91.254 E.00742
G1 X118.775 Y91.395 E.00786
G1 X118.775 Y114.657 E1.18682
G1 X122.846 Y114.657 E.20769
G1 X122.983 Y114.713 E.00757
G1 X123.042 Y114.852 E.00771
G1 X123.042 Y120.948 E.31104
G1 X122.971 Y121.099 E.0085
G1 X122.846 Y121.144 E.00676
G1 X118.815 Y121.144 E.20565
G1 E-.84
;WIPE_START
G1 X118.81 Y122.144 E-.36
;WIPE_END
G1 Z.72 F9000
G1 X131.607 Y89.186
G1 Z.72
G1 Z.32
G1 E1.2 F1800
;TYPE:Bottom surface
;WIDTH:0.460785
G1 F4800
G1 X130.991 Y88.569 E.04458
G1 X130.436 Y88.569 E.02835
G1 X131.431 Y89.564 E.07194
G1 X131.431 Y90.119 E.02835
G1 X129.881 Y88.569 E.11204
G1 X129.327 Y88.569 E.02835
G1 X131.431 Y90.673 E.15213
G1 X131.431 Y91.228 E.02835
G1 X128.772 Y88.569 E.19222
G1 X128.218 Y88.569 E.02835
G1 X131.431 Y91.782 E.23231
G1 X131.431 Y92.337 E.02835
G1 X127.663 Y88.569 E.2724
G1 X127.109 Y88.569 E.02835
G1 X131.431 Y92.891 E.3125
G1 X131.431 Y93.446 E.02835
G1 X126.554 Y88.569 E.35259
G1 X126 Y88.569 E.02835
G1 X131.431 Y94 E.39268
G1 X131.431 Y94.555 E.02835
G1 X125.445 Y88.569 E.43277
G1 X124.891 Y88.569 E.02835
G1 X131.431 Y95.109 E.47287
G1 X131.431 Y95.664 E.02835
G1 X124.336 Y88.569 E.51296
G1 X123.782 Y88.569 E.02835
G1 X131.431 Y96.218 E.55305
G1 X131.431 Y96.773 E.02835
G1 X123.227 Y88.569 E.59314
G1 X122.673 Y88.569 E.02835
G1 X131.431 Y97.327 E.63323
G1 X131.431 Y97.882 E.02835
G1 X122.118 Y88.569 E.67333
G1 X121.564 Y88.569 E.02835
G1 X131.431 Y98.436 E.71342
G1 X131.431 Y98.991 E.02835
G1 X121.009 Y88.569 E.75351
G1 X120.454 Y88.569 E.02835
G1 X131.431 Y99.546 E.7936
G1 X131.431 Y100.1 E.02835
G1 X119.9 Y88.569 E.8337
G1 X119.345 Y88.569 E.02835
G1 X131.431 Y100.655 E.87379
G1 X131.431 Y101.209 E.02835
G1 X118.791 Y88.569 E.91388
G1 X118.236 Y88.569 E.02835
G1 X131.431 Y101.764 E.95397
G1 X131.431 Y102.318 E.02835
G1 X117.682 Y88.569 E.99406
G1 X117.127 Y88.569 E.02835
G1 X131.431 Y102.873 E1.03416
G1 X131.431 Y103.427 E.02835
G1 X119.499 Y91.495 E.86267
G1 X119.477 Y91.192 E.01557
G1 X119.391 Y90.96 E.01262
G1 X119.214 Y90.727 E.01499
G1 X118.933 Y90.544 E.01713
G1 X118.593 Y90.476 E.01774
G1 X118.479 Y90.476 E.00581
G1 X116.573 Y88.569 E.13785
G1 X116.018 Y88.569 E.02835
G1 X117.925 Y90.476 E.13785
G1 X117.37 Y90.476 E.02835
G1 X115.464 Y88.569 E.13785
G1 X114.909 Y88.569 E.02835
G1 X116.816 Y90.476 E.13785
G1 X116.261 Y90.476 E.02835
G1 X114.355 Y88.569 E.13785
G1 X113.8 Y88.569 E.02835
G1 X115.707 Y90.476 E.13785
G1 X115.152 Y90.476 E.02835
G1 X113.246 Y88.569 E.13785
G1 X112.691 Y88.569 E.02835
G1 X114.598 Y90.476 E.13785
G1 X114.043 Y90.476 E.02835
G1 X112.136 Y88.569 E.13785
G1 X111.582 Y88.569 E.02835
G1 X113.489 Y90.476 E.13785
G1 X112.934 Y90.476 E.02835
G1 X111.027 Y88.569 E.13785
G1 X110.473 Y88.569 E.02835
G1 X112.38 Y90.476 E.13785
G1 X111.825 Y90.476 E.02835
G1 X109.918 Y88.569 E.13785
G1 X109.364 Y88.569 E.02835
G1 X111.271 Y90.476 E.13785
G1 X110.98 Y90.476 E.01487
G1 X110.75 Y90.51 E.01186
G1 X108.809 Y88.569 E.14033
G1 X108.255 Y88.569 E.02835
G1 X110.385 Y90.699 E.15398
G1 X110.214 Y90.895 E.01327
G1 X110.141 Y91.01 E.00698
G1 X107.7 Y88.569 E.17648
G1 X107.146 Y88.569 E.02835
G1 X109.926 Y91.35 E.20103
G1 X109.711 Y91.689 E.02055
G1 X106.591 Y88.569 E.22558
G1 X106.037 Y88.569 E.02835
G1 X109.496 Y92.029 E.25014
G1 X109.281 Y92.368 E.02055
G1 X105.482 Y88.569 E.27469
G1 X104.928 Y88.569 E.02835
G1 X109.066 Y92.708 E.29924
G1 X108.852 Y93.047 E.02055
G1 X104.373 Y88.569 E.32379
G1 X103.819 Y88.569 E.02835
G1 X108.637 Y93.387 E.34834
G1 X108.422 Y93.727 E.02055
G1 X103.264 Y88.569 E.3729
G1 X102.709 Y88.569 E.02835
G1 X108.207 Y94.066 E.39745
G1 X107.992 Y94.406 E.02055
G1 X102.155 Y88.569 E.422
G1 X101.6 Y88.569 E.02835
G1 X107.777 Y94.745 E.44655
G1 X107.562 Y95.085 E.02055
G1 X101.046 Y88.569 E.4711
G1 X100.491 Y88.569 E.02835
G1 X107.347 Y95.425 E.49565
G1 X107.132 Y95.764 E.02055
G1 X99.937 Y88.569 E.52021
G1 X99.382 Y88.569 E.02835
G1 X106.917 Y96.104 E.54476
G1 X106.702 Y96.443 E.02055
G1 X98.828 Y88.569 E.56931
G1 X98.273 Y88.569 E.02835
G1 X106.487 Y96.783 E.59386
G1 X106.272 Y97.122 E.02055
G1 X97.719 Y88.569 E.61841
G1 X97.164 Y88.569 E.02835
G1 X106.057 Y97.462 E.64297
G1 X105.842 Y97.802 E.02055
G1 X96.61 Y88.569 E.66752
G1 X96.055 Y88.569 E.02835
G1 X105.627 Y98.141 E.69207
G1 X105.412 Y98.481 E.02055
G1 X95.501 Y88.569 E.71662
G1 X94.946 Y88.569 E.02835
G1 X105.197 Y98.82 E.74117
G1 X104.983 Y99.16 E.02055
G1 X94.392 Y88.569 E.76572
G1 X93.837 Y88.569 E.02835
G1 X104.768 Y99.5 E.79028
G1 X104.553 Y99.839 E.02055
G1 X93.282 Y88.569 E.81483
G1 X92.728 Y88.569 E.02835
G1 X104.338 Y100.179 E.83938
G1 X104.123 Y100.518 E.02055
G1 X92.173 Y88.569 E.86393
G1 X91.619 Y88.569 E.02835
G1 X103.908 Y100.858 E.88848
G1 X103.693 Y101.197 E.02055
G1 X91.064 Y88.569 E.91303
G1 X90.51 Y88.569 E.02835
G1 X103.478 Y101.537 E.93759
G1 X103.263 Y101.877 E.02055
G1 X89.955 Y88.569 E.96214
G1 X89.401 Y88.569 E.02835
G1 X103.048 Y102.216 E.98669
G1 X102.833 Y102.556 E.02055
G1 X88.846 Y88.569 E1.01124
G1 X88.569 Y88.569 E.01418
G1 X88.569 Y88.846 E.01417
G1 X102.618 Y102.895 E1.01575
G1 X102.403 Y103.235 E.02055
G1 X88.569 Y89.401 E1.00021
G1 X88.569 Y89.955 E.02835
G1 X102.188 Y103.575 E.98467
G1 X101.973 Y103.914 E.02055
M73 P1 R92
G1 X88.569 Y90.51 E.96913
G1 X88.569 Y91.064 E.02835
G1 X101.758 Y104.254 E.95359
G1 X101.543 Y104.593 E.02055
G1 X88.569 Y91.619 E.93805
G1 X88.569 Y92.173 E.02835
G1 X101.328 Y104.933 E.92251
G1 X101.114 Y105.272 E.02055
G1 X88.569 Y92.728 E.90697
G1 X88.569 Y93.282 E.02835
G1 X100.899 Y105.612 E.89143
G1 X100.684 Y105.952 E.02055
G1 X88.569 Y93.837 E.87588
G1 X88.569 Y94.391 E.02835
G1 X100.469 Y106.291 E.86034
G1 X100.254 Y106.631 E.02055
G1 X88.569 Y94.946 E.8448
G1 X88.569 Y95.501 E.02835
G1 X100.039 Y106.97 E.82926
G1 X99.824 Y107.31 E.02055
G1 X88.569 Y96.055 E.81372
G1 X88.569 Y96.61 E.02835
G1 X99.609 Y107.65 E.79818
G1 X99.394 Y107.989 E.02055
G1 X88.569 Y97.164 E.78264
G1 X88.569 Y97.719 E.02835
G1 X99.179 Y108.329 E.7671
G1 X98.964 Y108.668 E.02055
G1 X88.569 Y98.273 E.75156
G1 X88.569 Y98.828 E.02835
G1 X98.749 Y109.008 E.73602
G1 X98.534 Y109.347 E.02055
G1 X88.569 Y99.382 E.72048
G1 X88.569 Y99.937 E.02835
G1 X98.319 Y109.687 E.70494
G1 X98.104 Y110.027 E.02055
G1 X88.569 Y100.491 E.6894
G1 X88.569 Y101.046 E.02835
G1 X97.889 Y110.366 E.67386
G1 X97.674 Y110.706 E.02055
G1 X88.569 Y101.6 E.65832
G1 X88.569 Y102.155 E.02835
G1 X97.459 Y111.045 E.64278
G1 X97.244 Y111.385 E.02055
G1 X88.569 Y102.709 E.62724
G1 X88.569 Y103.264 E.02835
G1 X97.03 Y111.725 E.6117
G1 X96.815 Y112.064 E.02055
G1 X88.569 Y103.818 E.59616
G1 X88.569 Y104.373 E.02835
G1 X96.6 Y112.404 E.58062
G1 X96.385 Y112.743 E.02055
G1 X88.569 Y104.928 E.56508
G1 X88.569 Y105.482 E.02835
G1 X96.17 Y113.083 E.54954
G1 X95.955 Y113.422 E.02055
G1 X88.569 Y106.037 E.534
G1 X88.569 Y106.591 E.02835
G1 X95.74 Y113.762 E.51845
G1 X95.525 Y114.102 E.02055
G1 X88.569 Y107.146 E.50291
G1 X88.569 Y107.7 E.02835
G1 X95.31 Y114.441 E.48737
G1 X95.095 Y114.781 E.02055
G1 X88.569 Y108.255 E.47183
G1 X88.569 Y108.809 E.02835
G1 X94.88 Y115.12 E.45629
G1 X94.665 Y115.46 E.02055
G1 X88.569 Y109.364 E.44075
G1 X88.569 Y109.918 E.02835
G1 X94.458 Y115.807 E.42577
G1 X94.378 Y116.044 E.01276
G1 X94.368 Y116.272 E.01167
G1 X88.569 Y110.473 E.41926
G1 X88.569 Y111.027 E.02835
G1 X94.411 Y116.87 E.42241
G1 X94.455 Y117.468 E.03066
G1 X88.569 Y111.582 E.42556
G1 X88.569 Y112.136 E.02835
G1 X94.499 Y118.066 E.42871
G1 X94.542 Y118.664 E.03066
G1 X88.569 Y112.691 E.43187
G1 X88.569 Y113.246 E.02835
G1 X94.586 Y119.262 E.43502
G1 X94.629 Y119.861 E.03066
G1 X88.569 Y113.8 E.43817
G1 X88.569 Y114.355 E.02835
G1 X94.863 Y120.649 E.45509
G1 E-.84 F1800
;WIPE_START
G1 F4800
G1 X94.156 Y119.942 E-.36
;WIPE_END
G1 Z.72 F9000
G1 X119.323 Y91.874 Z.72
G1 Z.32
G1 E1.2 F1800
G1 F4800
G1 X131.431 Y103.982 E.8754
G1 X131.431 Y104.536 E.02835
G1 X119.499 Y92.604 E.86267
G1 X119.499 Y93.159 E.02835
G1 X131.431 Y105.091 E.86267
G1 X131.431 Y105.645 E.02835
G1 X119.499 Y93.713 E.86267
G1 X119.499 Y94.268 E.02835
G1 X131.431 Y106.2 E.86267
G1 X131.431 Y106.754 E.02835
G1 X119.499 Y94.823 E.86267
G1 X119.499 Y95.377 E.02835
G1 X131.431 Y107.309 E.86267
G1 X131.431 Y107.864 E.02835
G1 X119.499 Y95.932 E.86267
G1 X119.499 Y96.486 E.02835
G1 X131.431 Y108.418 E.86267
G1 X131.431 Y108.973 E.02835
G1 X119.499 Y97.041 E.86267
G1 X119.499 Y97.595 E.02835
G1 X131.431 Y109.527 E.86267
G1 X131.431 Y110.082 E.02835
G1 X119.499 Y98.15 E.86267
G1 X119.499 Y98.704 E.02835
G1 X131.431 Y110.636 E.86267
G1 X131.431 Y111.191 E.02835
G1 X119.499 Y99.259 E.86267
G1 X119.499 Y99.813 E.02835
G1 X131.431 Y111.745 E.86267
G1 X131.431 Y112.3 E.02835
G1 X119.499 Y100.368 E.86267
G1 X119.499 Y100.922 E.02835
G1 X131.431 Y112.854 E.86267
G1 X131.431 Y113.409 E.02835
G1 X119.499 Y101.477 E.86267
G1 X119.499 Y102.031 E.02835
G1 X131.431 Y113.963 E.86267
G1 X131.431 Y114.518 E.02835
G1 X119.499 Y102.586 E.86267
G1 X119.499 Y103.14 E.02835
G1 X131.431 Y115.072 E.86267
G1 X131.431 Y115.627 E.02835
G1 X119.499 Y103.695 E.86267
G1 X119.499 Y104.25 E.02835
G1 X131.431 Y116.181 E.86267
G1 X131.431 Y116.736 E.02835
G1 X119.499 Y104.804 E.86267
G1 X119.499 Y105.359 E.02835
G1 X131.431 Y117.291 E.86267
G1 X131.431 Y117.845 E.02835
G1 X119.499 Y105.913 E.86267
G1 X119.499 Y106.468 E.02835
G1 X131.431 Y118.4 E.86267
G1 X131.431 Y118.954 E.02835
G1 X119.499 Y107.022 E.86267
G1 X119.499 Y107.577 E.02835
G1 X131.431 Y119.509 E.86267
G1 X131.431 Y120.063 E.02835
G1 X119.499 Y108.131 E.86267
G1 X119.499 Y108.686 E.02835
G1 X131.431 Y120.618 E.86267
G1 X131.431 Y121.172 E.02835
M73 P1 R91
G1 X119.499 Y109.24 E.86267
G1 X119.499 Y109.795 E.02835
G1 X131.431 Y121.727 E.86267
G1 X131.431 Y122.281 E.02835
G1 X119.499 Y110.349 E.86267
G1 X119.499 Y110.904 E.02835
G1 X122.536 Y113.94 E.21954
G1 X121.98 Y113.939 E.02842
G1 X119.499 Y111.458 E.17935
G1 X119.499 Y112.013 E.02835
G1 X121.424 Y113.938 E.13916
G1 X120.868 Y113.936 E.02842
G1 X119.499 Y112.568 E.09896
G1 X119.499 Y113.122 E.02835
G1 X120.312 Y113.935 E.05877
G1 X119.756 Y113.934 E.02842
G1 X119.323 Y113.5 E.03131
G1 E-.84 F1800
;WIPE_START
G1 F4800
G1 X119.756 Y113.934 E-.22049
G1 X120.144 Y113.935 E-.13951
;WIPE_END
G1 Z.72 F9000
G1 X123.589 Y114.994 Z.72
G1 Z.32
G1 E1.2 F1800
G1 F4800
G1 X131.431 Y122.836 E.56694
G1 X131.431 Y123.39 E.02835
G1 X123.766 Y115.725 E.55421
G1 X123.766 Y116.279 E.02835
G1 X131.431 Y123.945 E.55421
G1 X131.431 Y124.499 E.02835
G1 X123.766 Y116.834 E.55421
G1 X123.766 Y117.388 E.02835
G1 X131.431 Y125.054 E.55421
G1 X131.431 Y125.608 E.02835
G1 X123.766 Y117.943 E.55421
G1 X123.766 Y118.498 E.02835
G1 X131.431 Y126.163 E.55421
G1 X131.431 Y126.718 E.02835
G1 X123.766 Y119.052 E.55421
G1 X123.766 Y119.607 E.02835
G1 X131.431 Y127.272 E.55421
G1 X131.431 Y127.827 E.02835
G1 X123.766 Y120.161 E.55421
G1 X123.766 Y120.716 E.02835
G1 X131.431 Y128.381 E.55421
G1 X131.431 Y128.936 E.02835
G1 X123.723 Y121.227 E.5573
G1 X123.668 Y121.363 E.00748
G1 X123.518 Y121.577 E.01336
G1 X131.431 Y129.49 E.57211
G1 X131.431 Y130.045 E.02835
G1 X123.186 Y121.8 E.59612
G1 X122.978 Y121.86 E.01106
G1 X122.692 Y121.86 E.01462
G1 X131.431 Y130.599 E.63181
G1 X131.431 Y131.154 E.02835
G1 X122.139 Y121.862 E.67181
G1 X121.586 Y121.863 E.02829
G1 X131.154 Y131.431 E.69177
G1 X130.599 Y131.431 E.02835
G1 X121.032 Y121.864 E.69168
G1 X120.479 Y121.865 E.02829
G1 X130.045 Y131.431 E.69159
G1 X129.49 Y131.431 E.02835
G1 X119.926 Y121.867 E.6915
G1 X119.499 Y121.868 E.02182
G1 X119.499 Y121.995 E.00648
G1 X128.936 Y131.431 E.68226
G1 X128.381 Y131.431 E.02835
G1 X119.499 Y122.549 E.64216
G1 X119.499 Y123.104 E.02835
G1 X127.827 Y131.431 E.60207
G1 X127.272 Y131.431 E.02835
G1 X119.499 Y123.658 E.56198
G1 X119.499 Y124.213 E.02835
G1 X126.718 Y131.431 E.52189
G1 X126.163 Y131.431 E.02835
G1 X119.499 Y124.767 E.4818
G1 X119.499 Y125.322 E.02835
G1 X125.609 Y131.431 E.4417
G1 X125.054 Y131.431 E.02835
G1 X119.499 Y125.876 E.40161
G1 X119.499 Y126.431 E.02835
G1 X124.499 Y131.431 E.36152
G1 X123.945 Y131.431 E.02835
G1 X119.499 Y126.985 E.32143
G1 X119.499 Y127.54 E.02835
G1 X123.39 Y131.431 E.28133
G1 X122.836 Y131.431 E.02835
G1 X119.499 Y128.094 E.24124
G1 X119.499 Y128.649 E.02835
