; HEADER_BLOCK_START
; generated by Creality_Print V5.1.2.9904 on 2025-05-20 at 13:13:27
; total layer number: 253
; filament_density: 1.24
; filament_diameter: 1.75
; max_z_height: 50.72
; HEADER_BLOCK_END

; MINX = 84.60
; MINY = 84.60
; MINZ = 0.00
; MAXX = 135.40
; MAXY = 135.40
; MAXZ = 50.80

; THUMBNAIL_BLOCK_START

;
; THUMBNAIL_BLOCK_END

; THUMBNAIL_BLOCK_START

;
; THUMBNAIL_BLOCK_END

; external perimeters extrusion width = 0.42mm
; perimeters extrusion width = 0.45mm
; infill extrusion width = 0.45mm
; solid infill extrusion width = 0.42mm
; top infill extrusion width = 0.42mm
; first layer extrusion width = 0.46mm

; EXECUTABLE_BLOCK_START
M73 P0 R93
M201 X5000 Y5000 Z500 E5000
M203 X500 Y500 Z30 E100
M204 P5000 R2500 T5000 ; sets acceleration (P, T) and retract acceleration (R), mm/sec^2
M205 X10.00 Y10.00 Z0.40 E5.00 ; sets the jerk limits, mm/sec
;TYPE:Custom
M220 S100 ;Reset Feedrate 
M221 S100 ;Reset Flowrate 
 
M140 S60 ;Set final bed temp 
G28 ;Home 
 
G92 E0 ;Reset Extruder 
G1 Z2.0 F3000 ;Move Z Axis up 
M104 S220 ;Set final nozzle temp 
G1 X-2.1 Y20 Z0.28 F5000.0 ;Move to start position 
M190 S60 ;Wait for bed temp to stabilize 
M109 S220 ;Wait for nozzle temp to stabilize 
G1 X-2.1 Y145.0 Z0.28 F1500.0 E15 ;Draw the first line 
G1 X-2.4 Y145.0 Z0.28 F5000.0 ;Move to side a little 
G1 X-2.4 Y20 Z0.28 F1500.0 E30 ;Draw the second line 
G92 E0  ;Reset Extruder 
G1 E-1.0000 F1800 ;Retract a bit 
G1 Z2.0 F3000 ;Move Z Axis up 
G1 E0.0000 F1800
G90
G21
M83 ; use relative distances for extrusion
; filament start gcode
M106 S0
;LAYER_CHANGE
;Z:0.32
;HEIGHT:0.32
;BEFORE_LAYER_CHANGE
;0.32
G92 E0

G1 E-1.2 F1800
;_SET_FAN_SPEED_CHANGING_LAYER
M204 P500
M205 X8 Y8
; printing object red.stl id:0 copy 0
M204 T500
G1 Z.4 F9000
G1 X131.764 Y131.764
G1 Z.4
G1 Z.32
G1 E1.2 F1800
;TYPE:Inner wall
;WIDTH:0.46
G1 X88.236 Y131.764 E2.22081
G1 X88.236 Y88.236 E2.22081
G1 X131.764 Y88.236 E2.22081
G1 X131.764 Y131.724 E2.21877
G1 X132.13 Y132.155 F9000
;TYPE:Outer wall
G1 F1800
G1 X87.888 Y132.155 E2.25725
G1 X87.845 Y132.13 E.00255
G1 X87.845 Y87.888 E2.25725
G1 X87.87 Y87.845 E.00255
G1 X132.112 Y87.845 E2.25725
G1 X132.155 Y87.888 E.00311
G1 X132.155 Y132.112 E2.25634
G1 X132.15 Y132.12 E.00051
M73 P0 R92
G1 E-.84
;WIPE_START
G1 X131.15 Y132.121 E-.36
;WIPE_END
G1 Z.72 F9000
G1 X96.114 Y110.711 Z.72
G1 Z.32
G1 E1.2 F1800
;TYPE:Inner wall
G1 X96.193 Y108.94 E.09047
G1 X96.551 Y106.363 E.13274
G1 X97.097 Y104.092 E.11916
G1 X97.805 Y102.055 E.11006
G1 X98.447 Y100.618 E.08031
G1 X99.43 Y98.859 E.10278
G1 X100.465 Y97.378 E.09218
G1 X101.676 Y95.981 E.09434
G1 X102.984 Y94.76 E.09129
G1 X104.402 Y93.689 E.09067
G1 X105.331 Y93.099 E.05614
G1 X106.984 Y92.23 E.09528
G1 X108.737 Y91.527 E.09637
G1 X110.604 Y90.991 E.09913
G1 X112.63 Y90.621 E.10507
G1 X114.842 Y90.437 E.11326
G1 X116.951 Y90.42 E.10758
G1 X117.227 Y90.489 E.01453
G1 X117.42 Y90.654 E.01299
G1 X117.538 Y90.889 E.01339
G1 X117.538 Y97.227 E.32335
G1 X117.471 Y97.499 E.01432
G1 X117.281 Y97.712 E.01452
G1 X117.042 Y97.807 E.01311
G1 X115.954 Y97.831 E.05553
G1 X114.321 Y97.94 E.08354
G1 X112.94 Y98.175 E.07145
G1 X111.771 Y98.495 E.06182
G1 X110.76 Y98.88 E.05521
G1 X109.868 Y99.325 E.05084
G1 X108.989 Y99.883 E.05313
G1 X108.445 Y100.302 E.03502
G1 X107.719 Y100.97 E.05038
G1 X107.079 Y101.698 E.04943
G1 X106.529 Y102.473 E.04848
G1 X106.055 Y103.314 E.04927
G1 X105.647 Y104.243 E.05176
G1 X105.31 Y105.29 E.05613
G1 X105.717 Y104.998 E.02557
G1 X106.603 Y104.48 E.05236
G1 X107.572 Y104.039 E.05433
G1 X108.502 Y103.726 E.05006
G1 X109.679 Y103.449 E.06172
G1 X110.865 Y103.3 E.06099
G1 X111.765 Y103.265 E.04592
G1 X113.27 Y103.329 E.07685
G1 X114.222 Y103.474 E.04917
G1 X115.405 Y103.756 E.06201
G1 X116.416 Y104.127 E.05497
G1 X117.333 Y104.581 E.05221
G1 X118.177 Y105.115 E.05093
G1 X118.966 Y105.736 E.05127
G1 X119.716 Y106.461 E.05317
G1 X120.195 Y107.005 E.03699
G1 X120.928 Y107.996 E.06292
G1 X121.564 Y109.071 E.06372
G1 X122.104 Y110.238 E.06562
G1 X122.55 Y111.527 E.06959
G1 X122.899 Y112.976 E.07601
G1 X123.134 Y114.636 E.08556
G1 X123.227 Y116.649 E.10284
G1 X123.137 Y118.386 E.08873
G1 X122.912 Y119.845 E.07531
G1 X122.524 Y121.322 E.07793
G1 X122.019 Y122.648 E.07237
G1 X121.564 Y123.584 E.0531
G1 X120.876 Y124.725 E.06801
G1 X120.087 Y125.764 E.06655
G1 X119.233 Y126.671 E.06356
G1 X118.302 Y127.472 E.06265
G1 X117.302 Y128.168 E.0622
G1 X116.819 Y128.458 E.0287
G1 X115.635 Y129.054 E.06765
G1 X114.414 Y129.516 E.0666
G1 X113.893 Y129.671 E.02774
G1 X106.011 Y129.671 E.40218
G1 X105.82 Y129.64 E.00984
G1 X104.603 Y129.222 E.06566
G1 X103.431 Y128.677 E.06592
G1 X102.353 Y128.029 E.06418
G1 X101.344 Y127.271 E.06443
G1 X100.405 Y126.404 E.06519
G1 X99.876 Y125.839 E.03948
G1 X98.986 Y124.719 E.07299
G1 X98.21 Y123.504 E.07356
G1 X97.551 Y122.193 E.07484
G1 X97.001 Y120.757 E.07844
G1 X96.562 Y119.157 E.08469
G1 X96.247 Y117.338 E.09417
G1 X96.084 Y115.234 E.10766
G1 X96.071 Y111.699 E.18037
G1 X96.113 Y110.751 E.0484
G1 E-.84
;WIPE_START
G1 X96.157 Y109.752 E-.36
;WIPE_END
G1 Z.72 F9000
G1 X104.678 Y106.31 Z.72
G1 Z.32
G1 E1.2 F1800
;TYPE:Outer wall
G1 X105.023 Y105.993 E.02392
G1 X105.897 Y105.347 E.05543
G1 X106.4 Y105.051 E.0298
G1 X107.161 Y104.653 E.04379
G1 X107.733 Y104.395 E.03202
G1 X108.625 Y104.097 E.04801
G1 X109.765 Y103.83 E.05971
G1 X110.913 Y103.688 E.05903
G1 X111.779 Y103.656 E.04421
G1 X113.249 Y103.72 E.0751
G1 X114.163 Y103.86 E.04714
G1 X115.307 Y104.135 E.06006
G1 X116.28 Y104.494 E.05291
G1 X117.159 Y104.931 E.05007
G1 X117.967 Y105.445 E.04883
G1 X118.723 Y106.043 E.04922
G1 X119.443 Y106.741 E.05116
G1 X119.89 Y107.251 E.0346
G1 X120.602 Y108.213 E.06103
G1 X121.217 Y109.253 E.06168
G1 X121.74 Y110.385 E.06361
G1 X122.174 Y111.637 E.06763
G1 X122.514 Y113.049 E.07409
G1 X122.744 Y114.673 E.08366
G1 X122.835 Y116.648 E.10091
G1 X122.748 Y118.346 E.08673
G1 X122.528 Y119.765 E.07326
G1 X122.151 Y121.202 E.07583
G1 X121.653 Y122.508 E.07129
G1 X121.22 Y123.397 E.05045
G1 X120.551 Y124.505 E.06604
G1 X119.788 Y125.511 E.06441
G1 X118.962 Y126.388 E.06145
G1 X118.062 Y127.162 E.06058
G1 X117.078 Y127.847 E.06117
G1 X116.63 Y128.115 E.02661
G1 X115.477 Y128.695 E.06586
G1 X114.275 Y129.15 E.06557
G1 X113.821 Y129.28 E.02409
G1 X105.978 Y129.28 E.40018
G1 X104.749 Y128.859 E.06627
G1 X103.615 Y128.331 E.06381
G1 X102.572 Y127.704 E.0621
G1 X101.594 Y126.97 E.06239
G1 X100.67 Y126.116 E.06418
G1 X100.172 Y125.583 E.03722
G1 X99.305 Y124.491 E.07115
G1 X98.551 Y123.31 E.0715
G1 X97.909 Y122.035 E.07282
G1 X97.373 Y120.635 E.07646
G1 X96.945 Y119.071 E.08275
G1 X96.636 Y117.289 E.09227
G1 X96.475 Y115.218 E.10599
G1 X96.462 Y111.707 E.17916
G1 X96.583 Y108.975 E.13949
G1 X96.936 Y106.436 E.13082
G1 X97.473 Y104.202 E.1172
G1 X98.169 Y102.199 E.10821
G1 X98.797 Y100.793 E.07855
G1 X99.772 Y99.05 E.1019
G1 X100.774 Y97.619 E.08912
G1 X101.958 Y96.253 E.09225
G1 X103.236 Y95.06 E.08919
G1 X104.625 Y94.011 E.08882
G1 X105.527 Y93.438 E.05452
G1 X107.148 Y92.585 E.09344
G1 X108.864 Y91.898 E.09432
G1 X110.693 Y91.372 E.09712
G1 X112.681 Y91.01 E.1031
G1 X114.875 Y90.827 E.11229
G1 X116.951 Y90.811 E.10592
G1 X117.107 Y90.889 E.00893
G1 X117.146 Y91.007 E.00631
G1 X117.146 Y97.227 E.31736
G1 X117.089 Y97.365 E.00765
G1 X116.951 Y97.423 E.00763
G1 X116.205 Y97.423 E.03806
G1 X114.275 Y97.551 E.09869
G1 X112.855 Y97.793 E.07346
G1 X111.65 Y98.122 E.06378
G1 X110.603 Y98.522 E.05717
G1 X109.676 Y98.984 E.05285
G1 X108.765 Y99.562 E.05506
G1 X108.193 Y100.002 E.0368
G1 X107.439 Y100.697 E.05231
G1 X106.772 Y101.455 E.05153
G1 X106.199 Y102.263 E.05056
G1 X105.704 Y103.138 E.05129
G1 X105.281 Y104.103 E.05375
G1 X104.928 Y105.185 E.05809
G1 X104.686 Y106.271 E.05674
G1 E-.84
;WIPE_START
G1 X105.023 Y105.993 E-.1572
G1 X105.476 Y105.658 E-.2028
;WIPE_END
G1 Z.72 F9000
G1 X130.814 Y88.393
G1 Z.72
G1 Z.32
G1 E1.2 F1800
;TYPE:Bottom surface
;WIDTH:0.460785
G1 F4800
G1 X131.431 Y89.009 E.04458
G1 X131.431 Y89.564 E.02835
G1 X130.436 Y88.569 E.07194
G1 X129.881 Y88.569 E.02835
G1 X131.431 Y90.119 E.11204
G1 X131.431 Y90.673 E.02835
G1 X129.327 Y88.569 E.15213
G1 X128.772 Y88.569 E.02835
G1 X131.431 Y91.228 E.19222
G1 X131.431 Y91.782 E.02835
G1 X128.218 Y88.569 E.23231
G1 X127.663 Y88.569 E.02835
G1 X131.431 Y92.337 E.2724
G1 X131.431 Y92.891 E.02835
G1 X127.109 Y88.569 E.3125
G1 X126.554 Y88.569 E.02835
G1 X131.431 Y93.446 E.35259
G1 X131.431 Y94 E.02835
G1 X126 Y88.569 E.39268
G1 X125.445 Y88.569 E.02835
G1 X131.431 Y94.555 E.43277
G1 X131.431 Y95.109 E.02835
G1 X124.891 Y88.569 E.47287
G1 X124.336 Y88.569 E.02835
G1 X131.431 Y95.664 E.51296
G1 X131.431 Y96.218 E.02835
G1 X123.782 Y88.569 E.55305
G1 X123.227 Y88.569 E.02835
G1 X131.431 Y96.773 E.59314
G1 X131.431 Y97.327 E.02835
G1 X122.673 Y88.569 E.63323
G1 X122.118 Y88.569 E.02835
G1 X131.431 Y97.882 E.67333
G1 X131.431 Y98.436 E.02835
G1 X121.564 Y88.569 E.71342
G1 X121.009 Y88.569 E.02835
G1 X131.431 Y98.991 E.75351
G1 X131.431 Y99.546 E.02835
G1 X120.454 Y88.569 E.7936
G1 X119.9 Y88.569 E.02835
G1 X131.431 Y100.1 E.8337
G1 X131.431 Y100.655 E.02835
G1 X119.345 Y88.569 E.87379
G1 X118.791 Y88.569 E.02835
G1 X131.431 Y101.209 E.91388
G1 X131.431 Y101.764 E.02835
G1 X118.236 Y88.569 E.95397
G1 X117.682 Y88.569 E.02835
G1 X131.431 Y102.318 E.99406
G1 X131.431 Y102.873 E.02835
G1 X117.127 Y88.569 E1.03416
G1 X116.573 Y88.569 E.02835
G1 X131.431 Y103.427 E1.07425
G1 X131.431 Y103.982 E.02835
G1 X116.018 Y88.569 E1.11434
G1 X115.464 Y88.569 E.02835
G1 X116.986 Y90.092 E.1101
G1 X117.384 Y90.191 E.02093
G1 X117.687 Y90.451 E.02043
G1 X117.834 Y90.746 E.01687
G1 X117.867 Y90.972 E.01167
G1 X131.431 Y104.536 E.98069
G1 X131.431 Y105.091 E.02835
G1 X117.87 Y91.53 E.98043
G1 X117.87 Y92.085 E.02835
G1 X131.431 Y105.645 E.98043
G1 X131.431 Y106.2 E.02835
G1 X117.87 Y92.639 E.98043
G1 X117.87 Y93.194 E.02835
G1 X131.431 Y106.754 E.98043
G1 X131.431 Y107.309 E.02835
G1 X117.87 Y93.748 E.98043
G1 X117.87 Y94.303 E.02835
G1 X131.431 Y107.864 E.98043
G1 X131.431 Y108.418 E.02835
G1 X117.87 Y94.857 E.98043
G1 X117.87 Y95.412 E.02835
G1 X131.431 Y108.973 E.98043
G1 X131.431 Y109.527 E.02835
G1 X117.87 Y95.966 E.98043
G1 X117.87 Y96.521 E.02835
G1 X131.431 Y110.082 E.98043
G1 X131.431 Y110.636 E.02835
G1 X117.87 Y97.075 E.98043
G1 X117.87 Y97.238 E.0083
G1 X117.827 Y97.511 E.01414
G1 X117.803 Y97.563 E.00292
G1 X131.431 Y111.191 E.9853
G1 X131.431 Y111.745 E.02835
G1 X117.578 Y97.892 E1.00156
G1 X117.467 Y97.99 E.00757
G1 X117.23 Y98.099 E.01332
G1 X131.431 Y112.3 E1.02673
G1 X131.431 Y112.854 E.02835
G1 X116.718 Y98.141 E1.06377
G1 X116.172 Y98.15 E.02788
G1 X131.431 Y113.409 E1.10319
G1 X131.431 Y113.963 E.02835
G1 X115.652 Y98.185 E1.14079
G1 X115.132 Y98.219 E.02664
G1 X131.431 Y114.518 E1.17839
G1 X131.431 Y115.072 E.02835
G1 X114.612 Y98.254 E1.21598
G1 X114.36 Y98.27 E.01294
G1 X114.116 Y98.312 E.01263
G1 X131.431 Y115.627 E1.25186
G1 X131.431 Y116.181 E.02835
G1 X113.642 Y98.393 E1.28611
G1 X113.169 Y98.474 E.02457
G1 X131.431 Y116.736 E1.32035
G1 X131.431 Y117.291 E.02835
G1 X112.721 Y98.58 E1.35276
G1 X112.285 Y98.699 E.02308
G1 X131.431 Y117.845 E1.38425
G1 X131.431 Y118.4 E.02835
G1 X121.722 Y108.691 E.70194
G1 X121.876 Y108.952 E.0155
G1 X122.259 Y109.782 E.04674
G1 X131.431 Y118.954 E.66312
G1 X131.431 Y119.509 E.02835
G1 X122.606 Y110.683 E.63807
G1 X122.891 Y111.523 E.04535
G1 X131.431 Y120.063 E.61743
G1 X131.431 Y120.618 E.02835
G1 X123.065 Y112.251 E.60489
G1 X123.235 Y112.976 E.03806
G1 X131.431 Y121.172 E.59259
G1 X131.431 Y121.727 E.02835
M73 P1 R92
G1 X123.326 Y113.622 E.58596
G1 X123.418 Y114.268 E.03337
G1 X131.431 Y122.281 E.57933
G1 X131.431 Y122.836 E.02835
G1 X123.476 Y114.88 E.57518
G1 X123.503 Y115.463 E.02981
G1 X131.431 Y123.39 E.57317
G1 X131.431 Y123.945 E.02835
G1 X123.531 Y116.045 E.57116
G1 X123.558 Y116.626 E.02973
G1 X131.431 Y124.499 E.56925
G1 X131.431 Y125.054 E.02835
G1 X123.531 Y117.154 E.57114
G1 X123.505 Y117.683 E.02705
G1 X131.431 Y125.608 E.57303
G1 X131.431 Y126.163 E.02835
G1 X123.479 Y118.211 E.57492
G1 X123.42 Y118.707 E.02552
G1 X131.431 Y126.718 E.57918
G1 X131.431 Y127.272 E.02835
G1 X123.346 Y119.187 E.58455
G1 X123.272 Y119.667 E.02484
G1 X131.431 Y127.827 E.58993
G1 X131.431 Y128.381 E.02835
G1 X123.181 Y120.131 E.59651
G1 X123.065 Y120.57 E.02322
G1 X131.431 Y128.936 E.60485
G1 X131.431 Y129.49 E.02835
G1 X122.95 Y121.009 E.61318
G1 X122.829 Y121.443 E.02302
G1 X131.431 Y130.045 E.62191
G1 X131.431 Y130.599 E.02835
G1 X122.677 Y121.845 E.63291
G1 X122.525 Y122.248 E.022
G1 X131.431 Y131.154 E.6439
G1 X131.431 Y131.431 E.01418
G1 X131.154 Y131.431 E.01417
G1 X122.373 Y122.65 E.63484
G1 X122.2 Y123.032 E.02143
G1 X130.599 Y131.431 E.60723
G1 X130.045 Y131.431 E.02835
G1 X122.019 Y123.405 E.58026
G1 X121.836 Y123.777 E.02117
G1 X129.49 Y131.431 E.55341
G1 X128.936 Y131.431 E.02835
G1 X121.626 Y124.122 E.52846
G1 X121.417 Y124.467 E.02064
G1 X128.381 Y131.431 E.50352
G1 X127.827 Y131.431 E.02835
G1 X121.207 Y124.812 E.47857
G1 X120.979 Y125.138 E.02036
G1 X127.272 Y131.431 E.45498
G1 X126.718 Y131.431 E.02835
G1 X120.739 Y125.452 E.43225
G1 X120.499 Y125.767 E.02022
G1 X126.163 Y131.431 E.40952
G1 X125.609 Y131.431 E.02835
G1 X120.252 Y126.074 E.38728
G1 X119.982 Y126.359 E.02005
G1 X125.054 Y131.431 E.36671
G1 X124.499 Y131.431 E.02835
G1 X119.712 Y126.643 E.34614
G1 X119.442 Y126.928 E.02005
G1 X123.945 Y131.431 E.32557
G1 X123.39 Y131.431 E.02835
G1 X119.144 Y127.185 E.30702
G1 X118.845 Y127.44 E.02011
G1 X122.836 Y131.431 E.28854
G1 X122.281 Y131.431 E.02835
G1 X118.546 Y127.696 E.27007
G1 X118.226 Y127.93 E.02028
G1 X121.727 Y131.431 E.25312
G1 X121.172 Y131.431 E.02835
G1 X117.899 Y128.158 E.23666
G1 X117.572 Y128.385 E.02036
G1 X120.618 Y131.431 E.2202
G1 X120.063 Y131.431 E.02835
G1 X117.231 Y128.599 E.20479
G1 X116.877 Y128.799 E.0208
G1 X119.509 Y131.431 E.19031
G1 X118.954 Y131.431 E.02835
G1 X116.507 Y128.984 E.17692
G1 X116.138 Y129.169 E.02112
G1 X118.4 Y131.431 E.16354
G1 X117.845 Y131.431 E.02835
G1 X115.768 Y129.354 E.15016
G1 X115.369 Y129.51 E.02189
G1 X117.291 Y131.431 E.1389
G1 X116.736 Y131.431 E.02835
G1 X114.967 Y129.662 E.12788
G1 X114.565 Y129.815 E.02198
G1 X116.182 Y131.431 E.11686
G1 X115.627 Y131.431 E.02835
G1 X114.14 Y129.944 E.10753
G1 X113.976 Y129.992 E.0087
G1 X113.634 Y129.993 E.01751
G1 X115.072 Y131.431 E.104
G1 X114.518 Y131.431 E.02835
G1 X113.08 Y129.993 E.10394
G1 X112.527 Y129.994 E.02831
G1 X113.963 Y131.431 E.10388
G1 X113.409 Y131.431 E.02835
G1 X111.973 Y129.995 E.10382
G1 X111.419 Y129.996 E.02831
G1 X112.854 Y131.431 E.10376
G1 X112.3 Y131.431 E.02835
G1 X110.865 Y129.997 E.1037
G1 X110.312 Y129.998 E.02831
G1 X111.745 Y131.431 E.10364
G1 X111.191 Y131.431 E.02835
G1 X109.758 Y129.998 E.10358
G1 X109.204 Y129.999 E.02831
G1 X110.636 Y131.431 E.10352
G1 X110.082 Y131.431 E.02835
G1 X108.651 Y130 E.10346
G1 X108.097 Y130.001 E.02831
G1 X109.527 Y131.431 E.1034
G1 X108.973 Y131.431 E.02835
G1 X107.543 Y130.002 E.10334
G1 X106.99 Y130.002 E.02831
G1 X108.418 Y131.431 E.10328
G1 X107.864 Y131.431 E.02835
G1 X106.436 Y130.003 E.10323
G1 X105.999 Y130.004 E.02232
G1 X105.858 Y129.98 E.0073
G1 X107.309 Y131.431 E.10487
G1 X106.754 Y131.431 E.02835
G1 X105.047 Y129.724 E.12342
G1 X104.44 Y129.514 E.03284
G1 X104.143 Y129.374 E.01681
G1 X106.2 Y131.431 E.14873
G1 X105.645 Y131.431 E.02835
G1 X102.527 Y128.312 E.22547
G1 E-.84 F1800
;WIPE_START
G1 F4800
G1 X103.234 Y129.02 E-.36
;WIPE_END
G1 Z.72 F9000
G1 X117.58 Y104.549 Z.72
G1 Z.32
G1 E1.2 F1800
G1 F4800
G1 X111.851 Y98.82 E.4142
G1 X111.45 Y98.973 E.02196
G1 X116.154 Y103.677 E.3401
G1 X115.528 Y103.445 E.03412
G1 X115.312 Y103.39 E.0114
G1 X111.049 Y99.126 E.30826
G1 X110.667 Y99.299 E.02143
G1 X114.565 Y103.198 E.28188
G1 X113.905 Y103.092 E.03418
G1 X110.297 Y99.483 E.2609
G1 X109.935 Y99.677 E.02095
G1 X113.254 Y102.996 E.23996
G1 X112.671 Y102.967 E.02985
G1 X109.596 Y99.892 E.22233
G1 X109.257 Y100.107 E.02054
G1 X112.088 Y102.938 E.20469
G1 X111.537 Y102.941 E.02819
G1 X108.938 Y100.342 E.1879
G1 X108.627 Y100.586 E.02019
