; HEADER_BLOCK_START
; generated by Creality_Print V5.1.2.9904 on 2025-05-20 at 13:17:27
; total layer number: 253
; filament_density: 1.24
; filament_diameter: 1.75
; max_z_height: 50.72
; HEADER_BLOCK_END

; MINX = 84.60
; MINY = 84.60
; MINZ = 0.00
; MAXX = 135.40
; MAXY = 135.40
; MAXZ = 50.80

; THUMBNAIL_BLOCK_START

;
; THUMBNAIL_BLOCK_END

; THUMBNAIL_BLOCK_START

;
; THUMBNAIL_BLOCK_END

; external perimeters extrusion width = 0.42mm
; perimeters extrusion width = 0.45mm
; infill extrusion width = 0.45mm
; solid infill extrusion width = 0.42mm
; top infill extrusion width = 0.42mm
; first layer extrusion width = 0.46mm

; EXECUTABLE_BLOCK_START
M73 P0 R95
M201 X5000 Y5000 Z500 E5000
M203 X500 Y500 Z30 E100
M204 P5000 R2500 T5000 ; sets acceleration (P, T) and retract acceleration (R), mm/sec^2
M205 X10.00 Y10.00 Z0.40 E5.00 ; sets the jerk limits, mm/sec
;TYPE:Custom
M220 S100 ;Reset Feedrate 
M221 S100 ;Reset Flowrate 
 
M140 S60 ;Set final bed temp 
G28 ;Home 
 
G92 E0 ;Reset Extruder 
G1 Z2.0 F3000 ;Move Z Axis up 
M104 S220 ;Set final nozzle temp 
G1 X-2.1 Y20 Z0.28 F5000.0 ;Move to start position 
M190 S60 ;Wait for bed temp to stabilize 
M109 S220 ;Wait for nozzle temp to stabilize 
G1 X-2.1 Y145.0 Z0.28 F1500.0 E15 ;Draw the first line 
G1 X-2.4 Y145.0 Z0.28 F5000.0 ;Move to side a little 
G1 X-2.4 Y20 Z0.28 F1500.0 E30 ;Draw the second line 
G92 E0  ;Reset Extruder 
G1 E-1.0000 F1800 ;Retract a bit 
G1 Z2.0 F3000 ;Move Z Axis up 
G1 E0.0000 F1800
G90
G21
M83 ; use relative distances for extrusion
; filament start gcode
M106 S0
;LAYER_CHANGE
;Z:0.32
;HEIGHT:0.32
;BEFORE_LAYER_CHANGE
;0.32
G92 E0

G1 E-1.2 F1800
;_SET_FAN_SPEED_CHANGING_LAYER
M204 P500
M205 X8 Y8
; printing object yellow.stl id:94663269617324960 copy 0
M204 T500
G1 Z.4 F9000
G1 X131.764 Y131.764
G1 Z.4
G1 Z.32
G1 E1.2 F1800
;TYPE:Inner wall
;WIDTH:0.46
G1 X88.236 Y131.764 E2.22081
G1 X88.236 Y88.236 E2.22081
G1 X131.764 Y88.236 E2.22081
G1 X131.764 Y131.724 E2.21877
G1 X132.13 Y132.155 F9000
;TYPE:Outer wall
M73 P0 R94
G1 F1800
G1 X87.888 Y132.155 E2.25725
G1 X87.845 Y132.13 E.00255
G1 X87.845 Y87.888 E2.25725
G1 X87.87 Y87.845 E.00255
G1 X132.112 Y87.845 E2.25725
G1 X132.155 Y87.888 E.00311
G1 X132.155 Y132.112 E2.25634
G1 X132.15 Y132.12 E.00051
G1 E-.84
;WIPE_START
G1 X131.15 Y132.121 E-.36
;WIPE_END
G1 Z.72 F9000
G1 X117.395 Y109.654 Z.72
G1 Z.32
G1 E1.2 F1800
;TYPE:Inner wall
G1 X118.248 Y110.11 E.04934
G1 X119.159 Y110.704 E.05552
G1 X119.914 Y111.32 E.04968
G1 X120.569 Y111.986 E.0477
G1 X121.17 Y112.754 E.04975
G1 X121.673 Y113.566 E.04873
G1 X122.086 Y114.422 E.04847
G1 X122.411 Y115.32 E.04875
G1 X122.651 Y116.28 E.05048
G1 X122.809 Y117.351 E.05522
G1 X122.863 Y118.509 E.05919
G1 X122.791 Y119.908 E.07143
G1 X122.615 Y121.049 E.05891
G1 X122.35 Y122.079 E.05428
G1 X121.978 Y123.085 E.0547
G1 X121.542 Y123.97 E.05035
G1 X120.959 Y124.906 E.05626
G1 X120.293 Y125.754 E.05501
G1 X119.551 Y126.52 E.05444
G1 X118.979 Y127.027 E.03903
G1 X117.958 Y127.787 E.06489
G1 X116.851 Y128.446 E.06576
G1 X115.646 Y129.007 E.06782
G1 X114.34 Y129.464 E.07057
G1 X113.584 Y129.671 E.04
G1 X104.462 Y129.671 E.46543
G1 X102.981 Y129.202 E.07927
G1 X101.788 Y128.687 E.0663
G1 X100.609 Y128.026 E.06894
G1 X99.442 Y127.204 E.07286
G1 X98.443 Y126.284 E.06927
G1 X97.734 Y125.488 E.0544
G1 X97.125 Y124.638 E.05334
G1 X96.613 Y123.742 E.05264
G1 X96.204 Y122.811 E.0519
G1 X95.879 Y121.799 E.05423
G1 X95.654 Y120.739 E.05529
G1 X95.529 Y119.606 E.05813
G1 X95.5 Y118.723 E.04507
G1 X95.574 Y118.418 E.01605
G1 X95.763 Y118.215 E.01413
G1 X96.037 Y118.118 E.01484
G1 X103.621 Y118.118 E.3869
G1 X103.808 Y118.149 E.00968
G1 X104.043 Y118.298 E.01423
G1 X104.169 Y118.495 E.01189
G1 X104.236 Y119.223 E.03732
G1 X104.404 Y120.02 E.04157
G1 X104.705 Y120.695 E.03769
G1 X105.147 Y121.302 E.0383
G1 X105.585 Y121.728 E.0312
G1 X105.992 Y122.037 E.02607
G1 X106.431 Y122.303 E.02617
G1 X106.885 Y122.517 E.02562
G1 X107.367 Y122.686 E.02605
G1 X107.889 Y122.813 E.02743
G1 X108.47 Y122.894 E.0299
G1 X109.093 Y122.921 E.03182
G1 X109.973 Y122.877 E.04497
G1 X110.613 Y122.778 E.03304
G1 X111.146 Y122.642 E.02806
G1 X111.78 Y122.392 E.0348
G1 X112.379 Y122.054 E.03504
G1 X112.873 Y121.639 E.03294
G1 X113.24 Y121.247 E.02743
G1 X113.568 Y120.737 E.03093
G1 X113.782 Y120.355 E.02232
G1 X114.042 Y119.53 E.04415
G1 X114.127 Y118.872 E.03384
G1 X114.141 Y118.165 E.03609
G1 X114.108 Y117.519 E.03298
G1 X114.013 Y116.896 E.03216
G1 X113.886 Y116.401 E.02607
G1 X113.556 Y115.604 E.04402
G1 X113.105 Y114.948 E.04063
G1 X112.653 Y114.509 E.03211
G1 X111.978 Y114.068 E.0412
G1 X111.416 Y113.826 E.03118
G1 X110.899 Y113.665 E.02762
G1 X110.292 Y113.534 E.03167
G1 X109.764 Y113.453 E.02728
G1 X108.558 Y113.391 E.06161
G1 X104.587 Y113.391 E.20259
G1 X104.4 Y113.361 E.00968
G1 X104.153 Y113.199 E.01507
G1 X104.03 Y112.989 E.01238
G1 X104 Y112.804 E.00957
G1 X104 Y106.898 E.30133
G1 X104.037 Y106.694 E.01056
G1 X104.188 Y106.468 E.01391
G1 X104.485 Y106.32 E.0169
G1 X108.583 Y106.311 E.20909
G1 X109.573 Y106.261 E.05057
G1 X110.23 Y106.16 E.03393
G1 X110.752 Y106.027 E.02751
G1 X111.395 Y105.755 E.0356
G1 X111.83 Y105.522 E.02515
G1 X112.363 Y105.076 E.03547
G1 X112.863 Y104.438 E.04139
G1 X113.24 Y103.676 E.04337
G1 X113.409 Y103.093 E.03096
G1 X113.5 Y102.579 E.02664
G1 X113.548 Y102.037 E.02775
G1 X113.542 Y101.401 E.03245
G1 X113.488 Y100.846 E.02844
G1 X113.36 Y100.242 E.03152
G1 X113.082 Y99.553 E.03792
G1 X112.68 Y98.953 E.03684
G1 X112.252 Y98.547 E.0301
G1 X111.82 Y98.219 E.02769
G1 X111.094 Y97.87 E.04108
G1 X110.512 Y97.707 E.03083
G1 X109.995 Y97.619 E.02676
G1 X109.419 Y97.568 E.02951
G1 X108.783 Y97.572 E.03246
G1 X108.125 Y97.636 E.03372
G1 X107.63 Y97.736 E.02575
G1 X107.013 Y97.931 E.033
G1 X106.419 Y98.231 E.03399
G1 X106.005 Y98.523 E.02583
G1 X105.613 Y98.843 E.02582
G1 X105.185 Y99.362 E.03433
G1 X104.898 Y99.912 E.03167
G1 X104.729 Y100.521 E.03225
G1 X104.669 Y101.252 E.03738
G1 X104.616 Y101.453 E.01063
G1 X104.46 Y101.655 E.01301
G1 X104.187 Y101.782 E.01538
G1 X103.219 Y101.791 E.04937
G1 X96.549 Y101.791 E.34032
G1 X96.269 Y101.72 E.01472
G1 X96.076 Y101.553 E.01301
G1 X95.958 Y101.257 E.01624
G1 X96.02 Y100.059 E.0612
G1 X96.168 Y99.075 E.05078
G1 X96.427 Y98.074 E.05274
G1 X96.777 Y97.138 E.051
G1 X97.22 Y96.25 E.05062
G1 X97.664 Y95.534 E.04299
G1 X98.316 Y94.674 E.05508
G1 X99.057 Y93.883 E.05532
G1 X99.888 Y93.16 E.05615
G1 X100.827 Y92.496 E.05869
G1 X101.878 Y91.898 E.0617
G1 X102.369 Y91.659 E.02783
G1 X103.735 Y91.111 E.07512
G1 X105.176 Y90.699 E.07643
G1 X106.674 Y90.43 E.07769
G1 X107.682 Y90.329 E.05167
G1 X110.347 Y90.329 E.13595
G1 X112.439 Y90.565 E.10742
G1 X113.976 Y90.901 E.0803
G1 X115.279 Y91.322 E.06984
G1 X116.407 Y91.813 E.06276
G1 X117.403 Y92.368 E.05819
G1 X118.526 Y93.156 E.07003
G1 X119.441 Y94.012 E.06389
G1 X120.137 Y94.813 E.05415
G1 X120.715 Y95.643 E.05158
G1 X121.193 Y96.512 E.05062
G1 X121.585 Y97.437 E.05126
G1 X121.903 Y98.465 E.05491
G1 X122.126 Y99.569 E.05746
G1 X122.25 Y100.779 E.06207
G1 X122.275 Y101.617 E.04274
G1 X122.231 Y102.516 E.04592
G1 X122.093 Y103.405 E.0459
G1 X121.87 Y104.245 E.04434
G1 X121.563 Y105.052 E.04408
G1 X121.166 Y105.843 E.04518
G1 X120.595 Y106.73 E.05379
G1 X119.892 Y107.604 E.05726
G1 X119.154 Y108.347 E.05342
G1 X118.399 Y108.971 E.04998
G1 X117.428 Y109.631 E.05989
G1 X116.485 Y109.697 F9000
;TYPE:Outer wall
G1 F1800
G1 X117.277 Y110.029 E.04384
G1 X118.061 Y110.454 E.04548
G1 X118.939 Y111.028 E.05357
G1 X119.663 Y111.62 E.04772
G1 X120.289 Y112.26 E.04564
G1 X120.861 Y112.994 E.0475
G1 X121.339 Y113.771 E.04654
G1 X121.733 Y114.591 E.0464
G1 X122.042 Y115.452 E.0467
G1 X122.271 Y116.374 E.04847
G1 X122.419 Y117.389 E.05232
G1 X122.471 Y118.509 E.0572
G1 X122.402 Y119.868 E.06943
G1 X122.231 Y120.97 E.05691
G1 X121.976 Y121.962 E.05227
G1 X121.611 Y122.949 E.05367
G1 X121.192 Y123.795 E.04821
G1 X120.629 Y124.696 E.05417
G1 X119.998 Y125.496 E.052
G1 X119.27 Y126.248 E.0534
G1 X118.732 Y126.724 E.03665
G1 X117.741 Y127.461 E.06301
G1 X116.668 Y128.1 E.06372
G1 X115.498 Y128.644 E.06582
G1 X114.211 Y129.094 E.06958
G1 X113.531 Y129.28 E.03595
G1 X104.522 Y129.28 E.45964
G1 X103.118 Y128.835 E.07517
G1 X101.962 Y128.335 E.06426
G1 X100.818 Y127.694 E.06689
G1 X99.688 Y126.898 E.07052
G1 X98.708 Y125.996 E.06797
G1 X98.04 Y125.243 E.05139
G1 X97.443 Y124.41 E.05228
G1 X96.954 Y123.549 E.05052
G1 X96.563 Y122.654 E.04982
G1 X96.257 Y121.698 E.05123
G1 X96.041 Y120.676 E.05327
G1 X95.918 Y119.563 E.05715
G1 X95.891 Y118.711 E.04349
G1 X95.956 Y118.56 E.00842
G1 X96.118 Y118.51 E.00868
G1 X103.621 Y118.51 E.38278
G1 X103.762 Y118.569 E.00782
G1 X103.816 Y118.695 E.00697
G1 X103.846 Y119.274 E.02959
G1 X104.03 Y120.142 E.04525
G1 X104.365 Y120.892 E.0419
G1 X104.85 Y121.559 E.04211
G1 X105.33 Y122.025 E.03412
G1 X105.772 Y122.361 E.02832
G1 X106.245 Y122.648 E.02826
G1 X106.736 Y122.88 E.02769
G1 X107.256 Y123.062 E.02808
G1 X107.816 Y123.197 E.02942
G1 X108.434 Y123.284 E.03183
G1 X109.094 Y123.313 E.03371
G1 X110.013 Y123.267 E.04694
G1 X110.691 Y123.162 E.03503
G1 X111.261 Y123.017 E.03002
G1 X111.751 Y122.839 E.02657
G1 X112.374 Y122.516 E.0358
G1 X112.97 Y122.093 E.03732
G1 X113.423 Y121.647 E.03243
G1 X113.707 Y121.288 E.02337
G1 X114.143 Y120.511 E.04541
G1 X114.424 Y119.62 E.04768
G1 X114.506 Y119.109 E.02641
G1 X114.545 Y118.4 E.03623
G1 X114.498 Y117.48 E.04702
G1 X114.397 Y116.818 E.03414
G1 X114.259 Y116.277 E.02848
G1 X113.901 Y115.417 E.04754
G1 X113.406 Y114.694 E.04471
G1 X112.899 Y114.202 E.03602
G1 X112.168 Y113.724 E.04458
G1 X111.545 Y113.457 E.03455
G1 X110.993 Y113.285 E.02949
G1 X110.351 Y113.147 E.0335
G1 X109.803 Y113.063 E.02828
G1 X108.568 Y113 E.06313
G1 X104.587 Y113 E.2031
G1 X104.442 Y112.936 E.00808
G1 X104.392 Y112.804 E.0072
G1 X104.392 Y106.898 E.30133
G1 X104.454 Y106.755 E.00799
G1 X104.587 Y106.702 E.00729
G1 X108.593 Y106.702 E.20437
G1 X109.612 Y106.651 E.05209
G1 X110.308 Y106.544 E.03592
G1 X110.868 Y106.402 E.02945
G1 X111.324 Y106.237 E.02476
G1 X112.05 Y105.848 E.04201
G1 X112.645 Y105.35 E.03962
G1 X113.196 Y104.647 E.04553
G1 X113.604 Y103.823 E.04693
G1 X113.792 Y103.175 E.03442
G1 X113.888 Y102.624 E.02856
G1 X113.939 Y102.05 E.02937
G1 X113.933 Y101.383 E.03403
G1 X113.885 Y100.858 E.02691
G1 X113.734 Y100.121 E.03837
G1 X113.429 Y99.369 E.04143
G1 X112.987 Y98.708 E.04059
G1 X112.489 Y98.235 E.03502
G1 X112.025 Y97.883 E.02972
G1 X111.237 Y97.505 E.04458
G1 X110.591 Y97.324 E.03422
G1 X110.038 Y97.23 E.02864
G1 X109.431 Y97.177 E.03108
G1 X108.915 Y97.174 E.02633
G1 X108.232 Y97.226 E.03498
G1 X107.645 Y97.329 E.0304
G1 X107.136 Y97.474 E.02699
G1 X106.591 Y97.696 E.03001
G1 X105.976 Y98.042 E.03603
G1 X105.336 Y98.564 E.04213
G1 X104.857 Y99.144 E.0384
G1 X104.532 Y99.768 E.03587
G1 X104.342 Y100.452 E.03624
G1 X104.279 Y101.222 E.03939
G1 X104.209 Y101.354 E.00763
G1 X104.084 Y101.4 E.0068
G1 X96.549 Y101.4 E.38447
G1 X96.411 Y101.343 E.00758
G1 X96.353 Y101.194 E.00817
G1 X96.411 Y100.079 E.05693
G1 X96.555 Y99.135 E.04876
G1 X96.805 Y98.173 E.05069
G1 X97.143 Y97.277 E.04888
G1 X97.57 Y96.426 E.04855
G1 X97.987 Y95.756 E.04029
G1 X98.616 Y94.927 E.05309
G1 X99.329 Y94.165 E.05326
G1 X100.13 Y93.469 E.05413
G1 X101.037 Y92.827 E.05671
G1 X102.072 Y92.238 E.06072
G1 X102.534 Y92.014 E.0262
G1 X103.862 Y91.482 E.07301
G1 X105.264 Y91.081 E.0744
G1 X106.743 Y90.816 E.07668
G1 X107.702 Y90.72 E.04914
G1 X110.325 Y90.72 E.13382
G1 X112.375 Y90.951 E.10527
G1 X113.874 Y91.279 E.0783
G1 X115.14 Y91.688 E.06789
G1 X116.233 Y92.164 E.06081
G1 X117.195 Y92.7 E.05618
G1 X118.279 Y93.461 E.06759
G1 X119.173 Y94.297 E.06249
G1 X119.841 Y95.069 E.05203
G1 X120.393 Y95.865 E.04944
G1 X120.85 Y96.699 E.04854
G1 X121.224 Y97.588 E.04922
G1 X121.524 Y98.562 E.05197
G1 X121.738 Y99.628 E.05548
G1 X121.861 Y100.819 E.06111
G1 X121.884 Y101.628 E.04125
G1 X121.84 Y102.496 E.04434
G1 X121.707 Y103.344 E.0438
G1 X121.492 Y104.143 E.04222
G1 X121.198 Y104.912 E.04201
G1 X120.817 Y105.667 E.04315
G1 X120.267 Y106.517 E.05168
G1 X119.588 Y107.358 E.05515
G1 X118.877 Y108.07 E.05133
G1 X118.153 Y108.667 E.0479
G1 X117.264 Y109.272 E.05481
G1 X116.52 Y109.678 E.04328
G1 E-.84
;WIPE_START
G1 X117.277 Y110.029 E-.30052
G1 X117.422 Y110.107 E-.05948
;WIPE_END
G1 Z.72 F9000
G1 X131.607 Y89.186
G1 Z.72
G1 Z.32
G1 E1.2 F1800
;TYPE:Bottom surface
;WIDTH:0.460785
G1 F4800
G1 X130.991 Y88.569 E.04458
G1 X130.436 Y88.569 E.02835
G1 X131.431 Y89.564 E.07194
G1 X131.431 Y90.119 E.02835
G1 X129.881 Y88.569 E.11204
G1 X129.327 Y88.569 E.02835
G1 X131.431 Y90.673 E.15213
G1 X131.431 Y91.228 E.02835
G1 X128.772 Y88.569 E.19222
G1 X128.218 Y88.569 E.02835
G1 X131.431 Y91.782 E.23231
G1 X131.431 Y92.337 E.02835
G1 X127.663 Y88.569 E.2724
G1 X127.109 Y88.569 E.02835
G1 X131.431 Y92.891 E.3125
G1 X131.431 Y93.446 E.02835
G1 X126.554 Y88.569 E.35259
G1 X126 Y88.569 E.02835
G1 X131.431 Y94 E.39268
G1 X131.431 Y94.555 E.02835
G1 X125.445 Y88.569 E.43277
G1 X124.891 Y88.569 E.02835
G1 X131.431 Y95.109 E.47287
G1 X131.431 Y95.664 E.02835
G1 X124.336 Y88.569 E.51296
G1 X123.782 Y88.569 E.02835
G1 X131.431 Y96.218 E.55305
G1 X131.431 Y96.773 E.02835
G1 X123.227 Y88.569 E.59314
G1 X122.673 Y88.569 E.02835
G1 X131.431 Y97.327 E.63323
G1 X131.431 Y97.882 E.02835
G1 X122.118 Y88.569 E.67333
G1 X121.563 Y88.569 E.02835
G1 X131.431 Y98.437 E.71342
G1 X131.431 Y98.991 E.02835
G1 X121.009 Y88.569 E.75351
G1 X120.454 Y88.569 E.02835
G1 X131.431 Y99.546 E.7936
G1 X131.431 Y100.1 E.02835
G1 X119.9 Y88.569 E.8337
G1 X119.345 Y88.569 E.02835
G1 X131.431 Y100.655 E.87379
G1 X131.431 Y101.209 E.02835
G1 X118.791 Y88.569 E.91388
G1 X118.236 Y88.569 E.02835
G1 X131.431 Y101.764 E.95397
G1 X131.431 Y102.318 E.02835
G1 X117.682 Y88.569 E.99406
G1 X117.127 Y88.569 E.02835
G1 X131.431 Y102.873 E1.03416
G1 X131.431 Y103.427 E.02835
G1 X116.573 Y88.569 E1.07425
G1 X116.018 Y88.569 E.02835
G1 X131.431 Y103.982 E1.11434
G1 X131.431 Y104.536 E.02835
G1 X115.464 Y88.569 E1.15443
G1 X114.909 Y88.569 E.02835
G1 X131.431 Y105.091 E1.19453
G1 X131.431 Y105.645 E.02835
G1 X114.355 Y88.569 E1.23462
G1 X113.8 Y88.569 E.02835
G1 X116.996 Y91.765 E.23107
G1 X116.519 Y91.499 E.02794
G1 X115.914 Y91.238 E.03367
G1 X113.246 Y88.569 E.19295
G1 X112.691 Y88.569 E.02835
G1 X115.007 Y90.885 E.16748
G1 X114.192 Y90.624 E.0438
G1 X112.136 Y88.569 E.14858
G1 X111.582 Y88.569 E.02835
G1 X113.46 Y90.447 E.13581
G1 X112.751 Y90.292 E.03713
G1 X111.027 Y88.569 E.12459
G1 X110.473 Y88.569 E.02835
G1 X112.1 Y90.196 E.11763
G1 X111.475 Y90.126 E.03214
G1 X109.918 Y88.569 E.11255
G1 X109.364 Y88.569 E.02835
G1 X110.85 Y90.056 E.10748
G1 X110.236 Y89.996 E.03154
G1 X108.809 Y88.569 E.10318
G1 X108.255 Y88.569 E.02835
G1 X109.682 Y89.996 E.10318
G1 X109.127 Y89.996 E.02835
G1 X107.7 Y88.569 E.10318
G1 X107.146 Y88.569 E.02835
G1 X108.573 Y89.996 E.10318
G1 X108.018 Y89.996 E.02835
G1 X106.591 Y88.569 E.10318
G1 X106.037 Y88.569 E.02835
G1 X107.485 Y90.017 E.10473
G1 X106.98 Y90.067 E.02595
G1 X105.482 Y88.569 E.10829
G1 X104.928 Y88.569 E.02835
G1 X106.485 Y90.127 E.11263
G1 X106.016 Y90.212 E.02438
G1 X104.373 Y88.569 E.1188
G1 X103.819 Y88.569 E.02835
G1 X105.547 Y90.298 E.12498
G1 X105.078 Y90.383 E.02438
G1 X103.264 Y88.569 E.13115
G1 X102.709 Y88.569 E.02835
G1 X104.645 Y90.505 E.13997
G1 X104.214 Y90.628 E.02293
G1 X102.155 Y88.569 E.14889
G1 X101.6 Y88.569 E.02835
G1 X103.783 Y90.752 E.1578
G1 X103.377 Y90.9 E.0221
G1 X101.046 Y88.569 E.16853
G1 X100.491 Y88.569 E.02835
G1 X102.98 Y91.058 E.17994
G1 X102.583 Y91.216 E.02183
G1 X99.937 Y88.569 E.19135
G1 X99.382 Y88.569 E.02835
G1 X102.191 Y91.378 E.20307
G1 X101.817 Y91.559 E.02122
G1 X98.828 Y88.569 E.21615
G1 X98.273 Y88.569 E.02835
G1 X101.459 Y91.755 E.23034
G1 X101.107 Y91.957 E.02077
G1 X97.719 Y88.569 E.24495
G1 X97.164 Y88.569 E.02835
G1 X100.754 Y92.159 E.25955
G1 X100.418 Y92.378 E.02049
G1 X96.61 Y88.569 E.27538
G1 X96.055 Y88.569 E.02835
G1 X100.094 Y92.608 E.29199
G1 X99.769 Y92.837 E.02034
G1 X95.501 Y88.569 E.30859
G1 X94.946 Y88.569 E.02835
